(G-CODE GENERATED BY FLATCAM v8.994 - www.flatcam.org - Version Date: 2020/11/7)

(Name: OFICINA-TELE-ENCHUFES-RELES-B_Cu.gbl_edit_1_iso_combined_cnc)
(Type: G-code from Geometry)
(Units: MM)

(Created on lunes, 19 julio 2021 at 21:47)

(This preprocessor is the default preprocessor used by FlatCAM.)
(It is made to work with MACH3 compatible motion controllers.)

(TOOL DIAMETER: 0.1 mm)
(Feedrate_XY: 60.0 mm/min)
(Feedrate_Z: 60.0 mm/min)
(Feedrate rapids 1500.0 mm/min)

(Z_Cut: 0.0 mm)
(Z_Move: 2.0 mm)
(Z Start: None mm)
(Z End: 15.0 mm)
(X,Y End: None mm)
(Steps per circle: 64)
(Preprocessor Geometry: default)

(X range:  -38.9954 ...   37.2423  mm)
(Y range:  -29.4699 ...   30.8156  mm)

(Spindle Speed: 10000.0 RPM)
G21
G90
G94

G01 F60.00

M5
G00 Z15.0000
G00 X0.0000 Y0.0000
T1
M6    
(MSG, Change to Tool Dia = 0.1000)
M0
G00 Z15.0000

M03 S10000.0
G4 P1.0
G01 F60.00
G00 X-1.2610 Y-0.8425
G01 F60.00
G01 Z0.0000
G01 F60.00
G01 X-1.1723 Y-0.9620
G01 X-1.0724 Y-1.0723
G01 X-0.9621 Y-1.1722
G01 X-0.8426 Y-1.2609
G01 X-0.7149 Y-1.3374
G01 X-0.5804 Y-1.4010
G01 X-0.4403 Y-1.4511
G01 X-0.2959 Y-1.4873
G01 X-0.1487 Y-1.5091
G01 X-0.0001 Y-1.5164
G01 X0.1485 Y-1.5091
G01 X0.2957 Y-1.4873
G01 X0.4401 Y-1.4511
G01 X0.5802 Y-1.4010
G01 X0.7147 Y-1.3374
G01 X0.8424 Y-1.2609
G01 X0.9619 Y-1.1722
G01 X1.0722 Y-1.0723
G01 X1.1721 Y-0.9620
G01 X1.2608 Y-0.8425
G01 X1.3373 Y-0.7148
G01 X1.4009 Y-0.5803
G01 X1.4510 Y-0.4402
G01 X1.4872 Y-0.2958
G01 X1.5090 Y-0.1486
G01 X1.5163 Y-0.0000
G01 X1.5090 Y0.1486
G01 X1.4872 Y0.2958
G01 X1.4510 Y0.4402
G01 X1.4009 Y0.5803
G01 X1.3373 Y0.7148
G01 X1.2608 Y0.8425
G01 X1.1721 Y0.9620
G01 X1.0722 Y1.0723
G01 X0.9619 Y1.1722
G01 X0.8424 Y1.2609
G01 X0.7147 Y1.3374
G01 X0.5802 Y1.4010
G01 X0.4401 Y1.4511
G01 X0.2957 Y1.4873
G01 X0.1485 Y1.5091
G01 X-0.0001 Y1.5164
G01 X-0.1487 Y1.5091
G01 X-0.2959 Y1.4873
G01 X-0.4403 Y1.4511
G01 X-0.5804 Y1.4010
G01 X-0.7149 Y1.3374
G01 X-0.8426 Y1.2609
G01 X-0.9621 Y1.1722
G01 X-1.0724 Y1.0723
G01 X-1.1723 Y0.9620
G01 X-1.2610 Y0.8425
G01 X-1.3375 Y0.7148
G01 X-1.4011 Y0.5803
G01 X-1.4512 Y0.4402
G01 X-1.4874 Y0.2958
G01 X-1.5092 Y0.1486
G01 X-1.5165 Y-0.0000
G01 X-1.5092 Y-0.1486
G01 X-1.4874 Y-0.2958
G01 X-1.4512 Y-0.4402
G01 X-1.4011 Y-0.5803
G01 X-1.3375 Y-0.7148
G01 X-1.2610 Y-0.8425
G00 Z2.0000
G00 X-1.8085 Y0.1719
G01 F60.00
G01 Z0.0000
G01 F60.00
G01 X-1.8166 Y0.0074
G01 X-1.8167 Y-0.0049
G01 X-1.8086 Y-0.1707
G01 X-1.8075 Y-0.1829
G01 X-1.7832 Y-0.3472
G01 X-1.7808 Y-0.3592
G01 X-1.7406 Y-0.5203
G01 X-1.7371 Y-0.5320
G01 X-1.6812 Y-0.6884
G01 X-1.6765 Y-0.6997
G01 X-1.6056 Y-0.8498
G01 X-1.5999 Y-0.8607
G01 X-1.5146 Y-1.0031
G01 X-1.5078 Y-1.0133
G01 X-1.4090 Y-1.1467
G01 X-1.4012 Y-1.1562
G01 X-1.2898 Y-1.2793
G01 X-1.2812 Y-1.2880
G01 X-1.1582 Y-1.3995
G01 X-1.1487 Y-1.4074
G01 X-1.0154 Y-1.5063
G01 X-1.0053 Y-1.5132
G01 X-0.8629 Y-1.5986
G01 X-0.8521 Y-1.6044
G01 X-0.7021 Y-1.6754
G01 X-0.6907 Y-1.6802
G01 X-0.5345 Y-1.7362
G01 X-0.5227 Y-1.7398
G01 X-0.3617 Y-1.7802
G01 X-0.3497 Y-1.7827
G01 X-0.1855 Y-1.8071
G01 X-0.1733 Y-1.8083
G01 X-0.0075 Y-1.8165
G01 X0.0048 Y-1.8166
G01 X0.1706 Y-1.8085
G01 X0.1828 Y-1.8074
G01 X0.3471 Y-1.7831
G01 X0.3591 Y-1.7807
G01 X0.5202 Y-1.7405
G01 X0.5319 Y-1.7370
G01 X0.6883 Y-1.6811
G01 X0.6996 Y-1.6764
G01 X0.8497 Y-1.6055
G01 X0.8606 Y-1.5998
G01 X1.0030 Y-1.5145
G01 X1.0132 Y-1.5077
G01 X1.1466 Y-1.4089
G01 X1.1561 Y-1.4011
G01 X1.2792 Y-1.2897
G01 X1.2879 Y-1.2811
G01 X1.3994 Y-1.1581
G01 X1.4073 Y-1.1486
G01 X1.5062 Y-1.0153
G01 X1.5131 Y-1.0052
G01 X1.5985 Y-0.8628
G01 X1.6043 Y-0.8520
G01 X1.6753 Y-0.7020
G01 X1.6801 Y-0.6906
G01 X1.7361 Y-0.5344
G01 X1.7397 Y-0.5226
G01 X1.7801 Y-0.3616
G01 X1.7826 Y-0.3496
G01 X1.8070 Y-0.1854
G01 X1.8082 Y-0.1732
G01 X1.8164 Y-0.0074
G01 X1.8165 Y0.0049
G01 X1.8084 Y0.1707
G01 X1.8073 Y0.1829
G01 X1.7830 Y0.3472
G01 X1.7806 Y0.3592
G01 X1.7404 Y0.5203
G01 X1.7369 Y0.5320
G01 X1.6810 Y0.6884
G01 X1.6763 Y0.6997
G01 X1.6054 Y0.8498
G01 X1.5997 Y0.8607
G01 X1.5144 Y1.0031
G01 X1.5076 Y1.0133
G01 X1.4088 Y1.1467
G01 X1.4010 Y1.1562
G01 X1.2896 Y1.2793
G01 X1.2810 Y1.2880
G01 X1.1580 Y1.3995
G01 X1.1485 Y1.4074
G01 X1.0152 Y1.5063
G01 X1.0051 Y1.5132
G01 X0.8627 Y1.5986
G01 X0.8519 Y1.6044
G01 X0.7019 Y1.6754
G01 X0.6905 Y1.6802
G01 X0.5343 Y1.7362
G01 X0.5225 Y1.7398
G01 X0.3615 Y1.7802
G01 X0.3495 Y1.7827
G01 X0.1853 Y1.8071
G01 X0.1731 Y1.8083
G01 X0.0073 Y1.8165
G01 X-0.0050 Y1.8166
G01 X-0.1708 Y1.8085
G01 X-0.1830 Y1.8074
G01 X-0.3473 Y1.7831
G01 X-0.3593 Y1.7807
G01 X-0.5204 Y1.7405
G01 X-0.5321 Y1.7370
G01 X-0.6885 Y1.6811
G01 X-0.6998 Y1.6764
G01 X-0.8499 Y1.6055
G01 X-0.8608 Y1.5998
G01 X-1.0032 Y1.5145
G01 X-1.0134 Y1.5077
G01 X-1.1468 Y1.4089
G01 X-1.1563 Y1.4011
G01 X-1.2794 Y1.2897
G01 X-1.2881 Y1.2811
G01 X-1.3996 Y1.1581
G01 X-1.4075 Y1.1486
G01 X-1.5064 Y1.0153
G01 X-1.5133 Y1.0052
G01 X-1.5987 Y0.8628
G01 X-1.6045 Y0.8520
G01 X-1.6755 Y0.7020
G01 X-1.6803 Y0.6906
G01 X-1.7363 Y0.5344
G01 X-1.7399 Y0.5226
G01 X-1.7803 Y0.3616
G01 X-1.7828 Y0.3496
G01 X-1.8072 Y0.1854
G01 X-1.8085 Y0.1719
G00 Z2.0000
G00 X8.0875 Y12.5349
G01 F60.00
G01 Z0.0000
G01 F60.00
G01 X8.1782 Y12.5303
G01 X8.2664 Y12.5346
G01 X8.3538 Y12.5476
G01 X8.4395 Y12.5691
G01 X8.5226 Y12.5988
G01 X8.6025 Y12.6366
G01 X8.6782 Y12.6820
G01 X8.7492 Y12.7346
G01 X8.8146 Y12.7939
G01 X8.8739 Y12.8593
G01 X8.9265 Y12.9303
G01 X8.9719 Y13.0060
G01 X9.0097 Y13.0859
G01 X9.0394 Y13.1690
G01 X9.0609 Y13.2547
G01 X9.0739 Y13.3421
G01 X9.0782 Y13.4303
G01 X9.0739 Y13.5185
G01 X9.0609 Y13.6059
G01 X9.0394 Y13.6916
G01 X9.0097 Y13.7747
G01 X8.9719 Y13.8546
G01 X8.9265 Y13.9303
G01 X8.8739 Y14.0013
G01 X8.8146 Y14.0667
G01 X8.7492 Y14.1260
G01 X8.6782 Y14.1786
G01 X8.6025 Y14.2240
G01 X8.5226 Y14.2618
G01 X8.4395 Y14.2915
G01 X8.3538 Y14.3130
G01 X8.2664 Y14.3260
G01 X8.1782 Y14.3303
G01 X8.0900 Y14.3260
G01 X8.0026 Y14.3130
G01 X7.9169 Y14.2915
G01 X7.8338 Y14.2618
G01 X7.7539 Y14.2240
G01 X7.6782 Y14.1786
G01 X7.6072 Y14.1260
G01 X7.5418 Y14.0667
G01 X7.4825 Y14.0013
G01 X7.4299 Y13.9303
G01 X7.3845 Y13.8546
G01 X7.3467 Y13.7747
G01 X7.3170 Y13.6916
G01 X7.2955 Y13.6059
G01 X7.2825 Y13.5185
G01 X7.2782 Y13.4303
G01 X7.2825 Y13.3421
G01 X7.2955 Y13.2547
G01 X7.3170 Y13.1690
G01 X7.3467 Y13.0859
G01 X7.3845 Y13.0060
G01 X7.4299 Y12.9303
G01 X7.4825 Y12.8593
G01 X7.5418 Y12.7939
G01 X7.6072 Y12.7346
G01 X7.6782 Y12.6820
G01 X7.7539 Y12.6366
G01 X7.8338 Y12.5988
G01 X7.9169 Y12.5691
G01 X8.0026 Y12.5476
G01 X8.0875 Y12.5349
G00 Z2.0000
G00 X4.7680 Y26.4848
G01 F60.00
G01 Z0.0000
G01 F60.00
G01 X4.7696 Y26.5155
G01 X4.7696 Y28.3106
G01 X6.4551 Y28.3106
G01 X6.4551 Y26.5155
G01 X6.4568 Y26.4836
G01 X6.4608 Y26.4569
G01 X6.4680 Y26.4284
G01 X6.4779 Y26.4006
G01 X6.4894 Y26.3762
G01 X6.5056 Y26.3487
G01 X6.5232 Y26.3251
G01 X6.5413 Y26.3050
G01 X6.5648 Y26.2835
G01 X6.5884 Y26.2659
G01 X6.6116 Y26.2520
G01 X6.6403 Y26.2382
G01 X6.6681 Y26.2283
G01 X6.6942 Y26.2217
G01 X6.7258 Y26.2168
G01 X6.7552 Y26.2154
G01 X6.7822 Y26.2166
G01 X6.8137 Y26.2211
G01 X6.8423 Y26.2283
G01 X6.8678 Y26.2373
G01 X6.8967 Y26.2508
G01 X6.9219 Y26.2659
G01 X6.9437 Y26.2820
G01 X6.9674 Y26.3033
G01 X6.9872 Y26.3251
G01 X7.0033 Y26.3467
G01 X7.0204 Y26.3751
G01 X7.0334 Y26.4029
G01 X7.0424 Y26.4284
G01 X7.0490 Y26.4545
G01 X7.0539 Y26.4861
G01 X7.0553 Y26.5155
G01 X7.0553 Y30.5167
G01 X7.0539 Y30.5449
G01 X7.0500 Y30.5716
G01 X7.0424 Y30.6026
G01 X7.0315 Y30.6326
G01 X7.0199 Y30.6570
G01 X7.0060 Y30.6801
G01 X6.9872 Y30.7059
G01 X6.9656 Y30.7294
G01 X6.9456 Y30.7475
G01 X6.9239 Y30.7636
G01 X6.8956 Y30.7807
G01 X6.8678 Y30.7936
G01 X6.8423 Y30.8027
G01 X6.8161 Y30.8093
G01 X6.7846 Y30.8142
G01 X6.7552 Y30.8156
G01 X6.7258 Y30.8142
G01 X6.6942 Y30.8093
G01 X6.6657 Y30.8019
G01 X6.6403 Y30.7928
G01 X6.6159 Y30.7813
G01 X6.5884 Y30.7650
G01 X6.5648 Y30.7475
G01 X6.5430 Y30.7277
G01 X6.5217 Y30.7039
G01 X6.5043 Y30.6801
G01 X6.4905 Y30.6570
G01 X6.4789 Y30.6326
G01 X6.4680 Y30.6026
G01 X6.4611 Y30.5752
G01 X6.4565 Y30.5449
G01 X6.4551 Y30.5155
G01 X6.4551 Y28.9108
G01 X4.7696 Y28.9108
G01 X4.7696 Y30.5155
G01 X4.7681 Y30.5449
G01 X4.7642 Y30.5716
G01 X4.7563 Y30.6038
G01 X4.7467 Y30.6303
G01 X4.7353 Y30.6548
G01 X4.7190 Y30.6822
G01 X4.7015 Y30.7059
G01 X4.6834 Y30.7259
G01 X4.6599 Y30.7475
G01 X4.6362 Y30.7650
G01 X4.6131 Y30.7790
G01 X4.5843 Y30.7928
G01 X4.5566 Y30.8027
G01 X4.5304 Y30.8093
G01 X4.4989 Y30.8142
G01 X4.4695 Y30.8156
G01 X4.4425 Y30.8143
G01 X4.4109 Y30.8098
G01 X4.3823 Y30.8027
G01 X4.3569 Y30.7936
G01 X4.3280 Y30.7802
G01 X4.3027 Y30.7650
G01 X4.2810 Y30.7490
G01 X4.2572 Y30.7277
G01 X4.2375 Y30.7059
G01 X4.2213 Y30.6842
G01 X4.2042 Y30.6559
G01 X4.1913 Y30.6280
G01 X4.1823 Y30.6026
G01 X4.1756 Y30.5764
G01 X4.1708 Y30.5449
G01 X4.1693 Y30.5155
G01 X4.1693 Y26.5155
G01 X4.1709 Y26.4848
G01 X4.1751 Y26.4569
G01 X4.1823 Y26.4284
G01 X4.1922 Y26.4006
G01 X4.2048 Y26.3740
G01 X4.2199 Y26.3487
G01 X4.2375 Y26.3251
G01 X4.2572 Y26.3033
G01 X4.2772 Y26.2851
G01 X4.3027 Y26.2659
G01 X4.3259 Y26.2520
G01 X4.3569 Y26.2373
G01 X4.3823 Y26.2283
G01 X4.4109 Y26.2211
G01 X4.4401 Y26.2168
G01 X4.4695 Y26.2154
G01 X4.4989 Y26.2168
G01 X4.5280 Y26.2211
G01 X4.5566 Y26.2283
G01 X4.5820 Y26.2373
G01 X4.6131 Y26.2520
G01 X4.6362 Y26.2659
G01 X4.6617 Y26.2851
G01 X4.6817 Y26.3033
G01 X4.7015 Y26.3251
G01 X4.7190 Y26.3487
G01 X4.7342 Y26.3740
G01 X4.7467 Y26.4006
G01 X4.7567 Y26.4284
G01 X4.7638 Y26.4569
G01 X4.7680 Y26.4848
G00 Z2.0000
G00 X2.5658 Y27.1292
G01 F60.00
G01 Z0.0000
G01 F60.00
G01 X2.5430 Y27.1087
G01 X2.4026 Y26.9683
G01 X1.9446 Y26.8156
G01 X1.6610 Y26.8156
G01 X1.2030 Y26.9683
G01 X0.9066 Y27.2647
G01 X0.7526 Y27.5726
G01 X0.5791 Y28.2667
G01 X0.5791 Y28.7642
G01 X0.7526 Y29.4583
G01 X0.9066 Y29.7663
G01 X1.2030 Y30.0627
G01 X1.6610 Y30.2154
G01 X1.9446 Y30.2154
G01 X2.4026 Y30.0627
G01 X2.5447 Y29.9206
G01 X2.5667 Y29.9010
G01 X2.5884 Y29.8850
G01 X2.6116 Y29.8710
G01 X2.6426 Y29.8564
G01 X2.6681 Y29.8473
G01 X2.6966 Y29.8402
G01 X2.7258 Y29.8358
G01 X2.7527 Y29.8345
G01 X2.7858 Y29.8360
G01 X2.8161 Y29.8407
G01 X2.8423 Y29.8473
G01 X2.8678 Y29.8564
G01 X2.8967 Y29.8698
G01 X2.9219 Y29.8850
G01 X2.9456 Y29.9025
G01 X2.9691 Y29.9241
G01 X2.9872 Y29.9441
G01 X3.0033 Y29.9658
G01 X3.0199 Y29.9930
G01 X3.0325 Y30.0197
G01 X3.0430 Y30.0498
G01 X3.0495 Y30.0760
G01 X3.0536 Y30.1027
G01 X3.0553 Y30.1345
G01 X3.0539 Y30.1639
G01 X3.0490 Y30.1955
G01 X3.0424 Y30.2216
G01 X3.0334 Y30.2471
G01 X3.0210 Y30.2738
G01 X3.0033 Y30.3033
G01 X2.9872 Y30.3249
G01 X2.9674 Y30.3467
G01 X2.7761 Y30.5380
G01 X2.7564 Y30.5560
G01 X2.7360 Y30.5714
G01 X2.7105 Y30.5873
G01 X2.6856 Y30.5997
G01 X2.6596 Y30.6097
G01 X2.0882 Y30.8002
G01 X2.0572 Y30.8087
G01 X2.0281 Y30.8135
G01 X2.0227 Y30.8141
G01 X1.9933 Y30.8156
G01 X1.6123 Y30.8156
G01 X1.5802 Y30.8139
G01 X1.5498 Y30.8090
G01 X1.5174 Y30.8002
G01 X0.9460 Y30.6097
G01 X0.9190 Y30.5992
G01 X0.8951 Y30.5873
G01 X0.8715 Y30.5727
G01 X0.8492 Y30.5560
G01 X0.8287 Y30.5372
G01 X0.4468 Y30.1553
G01 X0.4262 Y30.1323
G01 X0.4089 Y30.1085
G01 X0.3921 Y30.0795
G01 X0.2010 Y29.6973
G01 X0.1875 Y29.6659
G01 X0.1783 Y29.6359
G01 X-0.0125 Y28.8725
G01 X-0.0189 Y28.8379
G01 X-0.0211 Y28.8012
G01 X-0.0211 Y28.2298
G01 X-0.0189 Y28.1931
G01 X-0.0122 Y28.1570
G01 X0.1783 Y27.3951
G01 X0.1880 Y27.3637
G01 X0.2004 Y27.3349
G01 X0.3921 Y26.9515
G01 X0.4074 Y26.9247
G01 X0.4254 Y26.8997
G01 X0.4477 Y26.8747
G01 X0.8287 Y26.4937
G01 X0.8501 Y26.4743
G01 X0.8715 Y26.4582
G01 X0.8951 Y26.4436
G01 X0.9200 Y26.4312
G01 X0.9449 Y26.4216
G01 X1.5174 Y26.2308
G01 X1.5484 Y26.2222
G01 X1.5815 Y26.2170
G01 X1.6123 Y26.2154
G01 X1.9933 Y26.2154
G01 X2.0254 Y26.2171
G01 X2.0572 Y26.2222
G01 X2.0882 Y26.2308
G01 X2.6618 Y26.4220
G01 X2.6877 Y26.4322
G01 X2.7105 Y26.4436
G01 X2.7322 Y26.4570
G01 X2.7564 Y26.4750
G01 X2.7753 Y26.4921
G01 X2.9683 Y26.6851
G01 X2.9872 Y26.7060
G01 X3.0033 Y26.7277
G01 X3.0199 Y26.7550
G01 X3.0325 Y26.7816
G01 X3.0424 Y26.8093
G01 X3.0495 Y26.8379
G01 X3.0539 Y26.8670
G01 X3.0553 Y26.8964
G01 X3.0539 Y26.9258
G01 X3.0495 Y26.9550
G01 X3.0420 Y26.9847
G01 X3.0315 Y27.0135
G01 X3.0199 Y27.0379
G01 X3.0060 Y27.0611
G01 X2.9872 Y27.0868
G01 X2.9674 Y27.1087
G01 X2.9456 Y27.1284
G01 X2.9199 Y27.1473
G01 X2.8967 Y27.1611
G01 X2.8723 Y27.1727
G01 X2.8423 Y27.1836
G01 X2.8137 Y27.1908
G01 X2.7822 Y27.1953
G01 X2.7552 Y27.1966
G01 X2.7282 Y27.1953
G01 X2.6966 Y27.1908
G01 X2.6681 Y27.1836
G01 X2.6381 Y27.1727
G01 X2.6137 Y27.1611
G01 X2.5905 Y27.1473
G01 X2.5658 Y27.1292
G00 Z2.0000
G00 X-1.6612 Y27.9585
G01 F60.00
G01 Z0.0000
G01 F60.00
G01 X-2.1972 Y29.5664
G01 X-2.7332 Y27.9585
G01 X-1.6612 Y27.9585
G00 Z2.0000
G00 X-3.2565 Y26.3931
G01 F60.00
G01 Z0.0000
G01 F60.00
G01 X-3.2458 Y26.4206
G01 X-2.9333 Y27.3582
G01 X-1.4611 Y27.3582
G01 X-1.1482 Y26.4194
G01 X-1.1379 Y26.3931
G01 X-1.1233 Y26.3647
G01 X-1.1073 Y26.3400
G01 X-1.0906 Y26.3188
G01 X-1.0720 Y26.2993
G01 X-1.0479 Y26.2784
G01 X-1.0216 Y26.2602
G01 X-0.9981 Y26.2470
G01 X-0.9734 Y26.2361
G01 X-0.9431 Y26.2260
G01 X-0.9119 Y26.2193
G01 X-0.8851 Y26.2161
G01 X-0.8581 Y26.2155
G01 X-0.8263 Y26.2177
G01 X-0.7949 Y26.2234
G01 X-0.7690 Y26.2308
G01 X-0.7438 Y26.2405
G01 X-0.7152 Y26.2547
G01 X-0.6884 Y26.2720
G01 X-0.6672 Y26.2887
G01 X-0.6477 Y26.3074
G01 X-0.6268 Y26.3315
G01 X-0.6086 Y26.3577
G01 X-0.5954 Y26.3813
G01 X-0.5845 Y26.4059
G01 X-0.5741 Y26.4374
G01 X-0.5680 Y26.4650
G01 X-0.5647 Y26.4918
G01 X-0.5638 Y26.5237
G01 X-0.5665 Y26.5554
G01 X-0.5712 Y26.5820
G01 X-0.5791 Y26.6104
G01 X-1.9129 Y30.6116
G01 X-1.9244 Y30.6406
G01 X-1.9370 Y30.6650
G01 X-1.9518 Y30.6882
G01 X-1.9718 Y30.7137
G01 X-1.9927 Y30.7352
G01 X-2.0157 Y30.7545
G01 X-2.0426 Y30.7727
G01 X-2.0667 Y30.7858
G01 X-2.0920 Y30.7965
G01 X-2.1230 Y30.8063
G01 X-2.1524 Y30.8122
G01 X-2.1822 Y30.8152
G01 X-2.2122 Y30.8152
G01 X-2.2395 Y30.8126
G01 X-2.2738 Y30.8056
G01 X-2.3000 Y30.7974
G01 X-2.3276 Y30.7858
G01 X-2.3540 Y30.7714
G01 X-2.3787 Y30.7545
G01 X-2.4016 Y30.7352
G01 X-2.4208 Y30.7155
G01 X-2.4426 Y30.6882
G01 X-2.4574 Y30.6650
G01 X-2.4720 Y30.6360
G01 X-2.4819 Y30.6104
G01 X-3.8153 Y26.6104
G01 X-3.8229 Y26.5832
G01 X-3.8283 Y26.5530
G01 X-3.8305 Y26.5237
G01 X-3.8299 Y26.4942
G01 X-3.8267 Y26.4674
G01 X-3.8200 Y26.4362
G01 X-3.8117 Y26.4105
G01 X-3.7978 Y26.3791
G01 X-3.7845 Y26.3556
G01 X-3.7676 Y26.3315
G01 X-3.7484 Y26.3091
G01 X-3.7272 Y26.2887
G01 X-3.7040 Y26.2706
G01 X-3.6792 Y26.2547
G01 X-3.6529 Y26.2414
G01 X-3.6254 Y26.2308
G01 X-3.5971 Y26.2228
G01 X-3.5681 Y26.2177
G01 X-3.5387 Y26.2155
G01 X-3.5117 Y26.2160
G01 X-3.4776 Y26.2201
G01 X-3.4513 Y26.2260
G01 X-3.4210 Y26.2361
G01 X-3.3963 Y26.2470
G01 X-3.3706 Y26.2615
G01 X-3.3465 Y26.2784
G01 X-3.3242 Y26.2976
G01 X-3.3038 Y26.3188
G01 X-3.2856 Y26.3420
G01 X-3.2698 Y26.3668
G01 X-3.2565 Y26.3931
G00 Z2.0000
G00 X-6.6603 Y26.4873
G01 F60.00
G01 Z0.0000
G01 F60.00
G01 X-6.6590 Y26.5155
G01 X-6.6590 Y28.1201
G01 X-5.4341 Y28.1201
G01 X-5.4075 Y28.1214
G01 X-5.3799 Y28.1253
G01 X-5.3529 Y28.1317
G01 X-5.3244 Y28.1414
G01 X-5.3011 Y28.1518
G01 X-4.9201 Y28.3423
G01 X-4.8910 Y28.3589
G01 X-4.8661 Y28.3770
G01 X-4.8431 Y28.3976
G01 X-4.6516 Y28.5890
G01 X-4.6319 Y28.6109
G01 X-4.6285 Y28.6150
G01 X-4.6113 Y28.6390
G01 X-4.5960 Y28.6658
G01 X-4.4049 Y29.0479
G01 X-4.3937 Y29.0734
G01 X-4.3851 Y29.0986
G01 X-4.3780 Y29.1291
G01 X-4.3745 Y29.1543
G01 X-4.3733 Y29.1821
G01 X-4.3733 Y29.7536
G01 X-4.3745 Y29.7814
G01 X-4.3784 Y29.8089
G01 X-4.3855 Y29.8382
G01 X-4.3937 Y29.8624
G01 X-4.4044 Y29.8868
G01 X-4.5967 Y30.2711
G01 X-4.6113 Y30.2967
G01 X-4.6285 Y30.3207
G01 X-4.6507 Y30.3458
G01 X-4.8431 Y30.5382
G01 X-4.8661 Y30.5587
G01 X-4.8899 Y30.5760
G01 X-4.8944 Y30.5789
G01 X-4.9201 Y30.5934
G01 X-5.3011 Y30.7839
G01 X-5.3265 Y30.7952
G01 X-5.3518 Y30.8037
G01 X-5.3822 Y30.8108
G01 X-5.4075 Y30.8143
G01 X-5.4353 Y30.8156
G01 X-6.9591 Y30.8156
G01 X-6.9885 Y30.8142
G01 X-7.0200 Y30.8093
G01 X-7.0462 Y30.8027
G01 X-7.0740 Y30.7928
G01 X-7.1027 Y30.7790
G01 X-7.1258 Y30.7650
G01 X-7.1495 Y30.7475
G01 X-7.1730 Y30.7259
G01 X-7.1911 Y30.7059
G01 X-7.2086 Y30.6822
G01 X-7.2249 Y30.6548
G01 X-7.2364 Y30.6303
G01 X-7.2463 Y30.6026
G01 X-7.2535 Y30.5740
G01 X-7.2575 Y30.5473
G01 X-7.2592 Y30.5155
G01 X-7.2592 Y26.5155
G01 X-7.2575 Y26.4836
G01 X-7.2535 Y26.4569
G01 X-7.2463 Y26.4284
G01 X-7.2364 Y26.4006
G01 X-7.2238 Y26.3740
G01 X-7.2086 Y26.3487
G01 X-7.1911 Y26.3251
G01 X-7.1713 Y26.3033
G01 X-7.1514 Y26.2851
G01 X-7.1258 Y26.2659
G01 X-7.1027 Y26.2520
G01 X-7.0717 Y26.2373
G01 X-7.0462 Y26.2283
G01 X-7.0177 Y26.2211
G01 X-6.9885 Y26.2168
G01 X-6.9591 Y26.2154
G01 X-6.9297 Y26.2168
G01 X-6.9005 Y26.2211
G01 X-6.8720 Y26.2283
G01 X-6.8442 Y26.2382
G01 X-6.8176 Y26.2508
G01 X-6.7924 Y26.2659
G01 X-6.7687 Y26.2835
G01 X-6.7487 Y26.3016
G01 X-6.7256 Y26.3270
G01 X-6.7096 Y26.3487
G01 X-6.6933 Y26.3762
G01 X-6.6818 Y26.4006
G01 X-6.6719 Y26.4284
G01 X-6.6647 Y26.4569
G01 X-6.6603 Y26.4873
G00 Z2.0000
G00 X-9.0898 Y27.9585
G01 F60.00
G01 Z0.0000
G01 F60.00
G01 X-9.6258 Y29.5664
G01 X-10.1617 Y27.9585
G01 X-9.0898 Y27.9585
G00 Z2.0000
G00 X-10.6850 Y26.3931
G01 F60.00
G01 Z0.0000
G01 F60.00
G01 X-10.6744 Y26.4206
G01 X-10.3618 Y27.3582
G01 X-8.8897 Y27.3582
G01 X-8.5768 Y26.4194
G01 X-8.5665 Y26.3931
G01 X-8.5519 Y26.3647
G01 X-8.5359 Y26.3400
G01 X-8.5192 Y26.3188
G01 X-8.5005 Y26.2993
G01 X-8.4764 Y26.2784
G01 X-8.4502 Y26.2602
G01 X-8.4266 Y26.2470
G01 X-8.4020 Y26.2361
G01 X-8.3717 Y26.2260
G01 X-8.3405 Y26.2193
G01 X-8.3137 Y26.2161
G01 X-8.2867 Y26.2155
G01 X-8.2549 Y26.2177
G01 X-8.2235 Y26.2234
G01 X-8.1975 Y26.2308
G01 X-8.1723 Y26.2405
G01 X-8.1438 Y26.2547
G01 X-8.1170 Y26.2720
G01 X-8.0958 Y26.2887
G01 X-8.0762 Y26.3074
G01 X-8.0553 Y26.3315
G01 X-8.0372 Y26.3577
G01 X-8.0240 Y26.3813
G01 X-8.0131 Y26.4059
G01 X-8.0027 Y26.4374
G01 X-7.9966 Y26.4650
G01 X-7.9933 Y26.4918
G01 X-7.9924 Y26.5237
G01 X-7.9947 Y26.5530
G01 X-7.9993 Y26.5796
G01 X-8.0077 Y26.6104
G01 X-9.3415 Y30.6116
G01 X-9.3530 Y30.6406
G01 X-9.3656 Y30.6650
G01 X-9.3804 Y30.6882
G01 X-9.4004 Y30.7137
G01 X-9.4213 Y30.7352
G01 X-9.4463 Y30.7560
G01 X-9.4690 Y30.7714
G01 X-9.4931 Y30.7846
G01 X-9.5229 Y30.7974
G01 X-9.5516 Y30.8063
G01 X-9.5810 Y30.8122
G01 X-9.6108 Y30.8152
G01 X-9.6408 Y30.8152
G01 X-9.6681 Y30.8126
G01 X-9.7024 Y30.8056
G01 X-9.7286 Y30.7974
G01 X-9.7562 Y30.7858
G01 X-9.7825 Y30.7714
G01 X-9.8073 Y30.7545
G01 X-9.8302 Y30.7352
G01 X-9.8494 Y30.7155
G01 X-9.8712 Y30.6882
G01 X-9.8860 Y30.6650
G01 X-9.9006 Y30.6360
G01 X-9.9105 Y30.6104
G01 X-11.2438 Y26.6104
G01 X-11.2515 Y26.5832
G01 X-11.2569 Y26.5530
G01 X-11.2591 Y26.5237
G01 X-11.2585 Y26.4942
G01 X-11.2553 Y26.4674
G01 X-11.2486 Y26.4362
G01 X-11.2402 Y26.4105
G01 X-11.2264 Y26.3791
G01 X-11.2131 Y26.3556
G01 X-11.1962 Y26.3315
G01 X-11.1770 Y26.3091
G01 X-11.1557 Y26.2887
G01 X-11.1326 Y26.2706
G01 X-11.1077 Y26.2547
G01 X-11.0815 Y26.2414
G01 X-11.0540 Y26.2308
G01 X-11.0256 Y26.2228
G01 X-10.9966 Y26.2177
G01 X-10.9673 Y26.2155
G01 X-10.9378 Y26.2161
G01 X-10.9086 Y26.2196
G01 X-10.8798 Y26.2260
G01 X-10.8518 Y26.2352
G01 X-10.8271 Y26.2460
G01 X-10.7972 Y26.2628
G01 X-10.7751 Y26.2784
G01 X-10.7510 Y26.2993
G01 X-10.7324 Y26.3188
G01 X-10.7142 Y26.3420
G01 X-10.6984 Y26.3668
G01 X-10.6850 Y26.3931
G00 Z2.0000
G00 X-4.9735 Y29.6827
G01 F60.00
G01 Z0.0000
G01 F60.00
G01 X-5.1105 Y29.9567
G01 X-5.2321 Y30.0783
G01 X-5.5061 Y30.2154
G01 X-6.6590 Y30.2154
G01 X-6.6590 Y28.7204
G01 X-5.5061 Y28.7204
G01 X-5.2321 Y28.8574
G01 X-5.1105 Y28.9790
G01 X-4.9735 Y29.2530
G01 X-4.9735 Y29.6827
G00 Z2.0000
G00 X-17.1550 Y29.1094
G01 F60.00
G01 Z0.0000
G01 F60.00
G01 X-17.1465 Y29.0812
G01 X-16.2323 Y26.5215
G01 X-16.5482 Y25.7318
G01 X-16.6607 Y25.6193
G01 X-16.9992 Y25.4500
G01 X-17.0237 Y25.4361
G01 X-17.0469 Y25.4200
G01 X-17.0720 Y25.3983
G01 X-17.0906 Y25.3788
G01 X-17.1088 Y25.3556
G01 X-17.1258 Y25.3286
G01 X-17.1379 Y25.3045
G01 X-17.1482 Y25.2782
G01 X-17.1565 Y25.2487
G01 X-17.1619 Y25.2172
G01 X-17.1639 Y25.1903
G01 X-17.1633 Y25.1633
G01 X-17.1597 Y25.1316
G01 X-17.1526 Y25.1005
G01 X-17.1442 Y25.0749
G01 X-17.1333 Y25.0501
G01 X-17.1178 Y25.0223
G01 X-17.1010 Y24.9981
G01 X-17.0818 Y24.9758
G01 X-17.0586 Y24.9538
G01 X-17.0373 Y24.9372
G01 X-17.0146 Y24.9227
G01 X-16.9862 Y24.9081
G01 X-16.9564 Y24.8967
G01 X-16.9304 Y24.8895
G01 X-16.9038 Y24.8847
G01 X-16.8720 Y24.8821
G01 X-16.8426 Y24.8828
G01 X-16.8133 Y24.8863
G01 X-16.7846 Y24.8927
G01 X-16.7566 Y24.9018
G01 X-16.7307 Y24.9132
G01 X-16.3487 Y25.1042
G01 X-16.3196 Y25.1208
G01 X-16.2946 Y25.1389
G01 X-16.2716 Y25.1595
G01 X-16.0793 Y25.3518
G01 X-16.0599 Y25.3734
G01 X-16.0433 Y25.3958
G01 X-16.0259 Y25.4252
G01 X-16.0138 Y25.4516
G01 X-15.6290 Y26.4142
G01 X-14.6765 Y29.0812
G01 X-14.6679 Y29.1094
G01 X-14.6622 Y29.1383
G01 X-14.6593 Y29.1676
G01 X-14.6594 Y29.1983
G01 X-14.6622 Y29.2264
G01 X-14.6675 Y29.2528
G01 X-14.6766 Y29.2834
G01 X-14.6879 Y29.3106
G01 X-14.7006 Y29.3345
G01 X-14.7197 Y29.3630
G01 X-14.7368 Y29.3838
G01 X-14.7577 Y29.4046
G01 X-14.7805 Y29.4233
G01 X-14.8029 Y29.4383
G01 X-14.8332 Y29.4545
G01 X-14.8582 Y29.4648
G01 X-14.8840 Y29.4727
G01 X-14.9177 Y29.4793
G01 X-14.9446 Y29.4819
G01 X-14.9740 Y29.4819
G01 X-15.0033 Y29.4790
G01 X-15.0298 Y29.4738
G01 X-15.0604 Y29.4647
G01 X-15.0876 Y29.4534
G01 X-15.1114 Y29.4407
G01 X-15.1380 Y29.4231
G01 X-15.1608 Y29.4044
G01 X-15.1799 Y29.3853
G01 X-15.2010 Y29.3598
G01 X-15.2166 Y29.3363
G01 X-15.2294 Y29.3125
G01 X-15.2417 Y29.2831
G01 X-15.9115 Y27.4078
G01 X-16.5812 Y29.2831
G01 X-16.5925 Y29.3103
G01 X-16.6051 Y29.3341
G01 X-16.6227 Y29.3608
G01 X-16.6414 Y29.3836
G01 X-16.6604 Y29.4027
G01 X-16.6869 Y29.4245
G01 X-16.7094 Y29.4395
G01 X-16.7354 Y29.4534
G01 X-16.7626 Y29.4647
G01 X-16.7908 Y29.4732
G01 X-16.8196 Y29.4790
G01 X-16.8465 Y29.4817
G01 X-16.8809 Y29.4817
G01 X-16.9077 Y29.4790
G01 X-16.9366 Y29.4733
G01 X-16.9648 Y29.4648
G01 X-16.9920 Y29.4535
G01 X-17.0180 Y29.4397
G01 X-17.0405 Y29.4247
G01 X-17.0671 Y29.4029
G01 X-17.0861 Y29.3838
G01 X-17.1048 Y29.3611
G01 X-17.1212 Y29.3366
G01 X-17.1351 Y29.3106
G01 X-17.1464 Y29.2834
G01 X-17.1543 Y29.2576
G01 X-17.1610 Y29.2239
G01 X-17.1636 Y29.1970
G01 X-17.1636 Y29.1676
G01 X-17.1608 Y29.1383
G01 X-17.1550 Y29.1094
G00 Z2.0000
G00 X-18.4106 Y28.6692
G01 F60.00
G01 Z0.0000
G01 F60.00
G01 X-18.4324 Y28.6826
G01 X-18.4527 Y28.6927
G01 X-18.3650 Y28.7804
G01 X-18.3444 Y28.8034
G01 X-18.3249 Y28.8306
G01 X-18.3097 Y28.8574
G01 X-18.1192 Y29.2384
G01 X-18.1080 Y29.2638
G01 X-18.0991 Y29.2902
G01 X-18.0923 Y29.3196
G01 X-18.0888 Y29.3448
G01 X-18.0876 Y29.3715
G01 X-18.0875 Y29.7536
G01 X-18.0887 Y29.7802
G01 X-18.0927 Y29.8089
G01 X-18.0991 Y29.8360
G01 X-18.1080 Y29.8624
G01 X-18.1187 Y29.8867
G01 X-18.3097 Y30.2687
G01 X-18.3249 Y30.2956
G01 X-18.3444 Y30.3228
G01 X-18.3650 Y30.3458
G01 X-18.5583 Y30.5391
G01 X-18.5803 Y30.5587
G01 X-18.6042 Y30.5760
G01 X-18.6332 Y30.5928
G01 X-19.0154 Y30.7839
G01 X-19.0408 Y30.7952
G01 X-19.0672 Y30.8041
G01 X-19.0942 Y30.8105
G01 X-19.1218 Y30.8143
G01 X-19.1496 Y30.8156
G01 X-20.4829 Y30.8156
G01 X-20.5099 Y30.8143
G01 X-20.5439 Y30.8093
G01 X-20.5700 Y30.8027
G01 X-20.6000 Y30.7918
G01 X-20.6244 Y30.7802
G01 X-20.6497 Y30.7650
G01 X-20.6733 Y30.7475
G01 X-20.6960 Y30.7268
G01 X-20.7149 Y30.7059
G01 X-20.7325 Y30.6822
G01 X-20.7476 Y30.6570
G01 X-20.7602 Y30.6303
G01 X-20.7701 Y30.6026
G01 X-20.7773 Y30.5740
G01 X-20.7816 Y30.5449
G01 X-20.7830 Y30.5167
G01 X-20.7830 Y26.5155
G01 X-20.7816 Y26.4861
G01 X-20.7773 Y26.4569
G01 X-20.7701 Y26.4284
G01 X-20.7602 Y26.4006
G01 X-20.7476 Y26.3740
G01 X-20.7325 Y26.3487
G01 X-20.7149 Y26.3251
G01 X-20.6943 Y26.3024
G01 X-20.6733 Y26.2835
G01 X-20.6497 Y26.2659
G01 X-20.6244 Y26.2508
G01 X-20.5978 Y26.2382
G01 X-20.5700 Y26.2283
G01 X-20.5415 Y26.2211
G01 X-20.5123 Y26.2168
G01 X-20.4854 Y26.2154
G01 X-18.9591 Y26.2154
G01 X-18.9313 Y26.2166
G01 X-18.9049 Y26.2203
G01 X-18.8745 Y26.2276
G01 X-18.8503 Y26.2358
G01 X-18.8259 Y26.2465
G01 X-18.4439 Y26.4375
G01 X-18.4160 Y26.4534
G01 X-18.3899 Y26.4722
G01 X-18.3669 Y26.4928
G01 X-18.1745 Y26.6852
G01 X-18.1540 Y26.7081
G01 X-18.1366 Y26.7320
G01 X-18.1338 Y26.7365
G01 X-18.1192 Y26.7622
G01 X-17.9283 Y27.1442
G01 X-17.9167 Y27.1708
G01 X-17.9086 Y27.1950
G01 X-17.9027 Y27.2198
G01 X-17.8984 Y27.2496
G01 X-17.8971 Y27.2774
G01 X-17.8971 Y27.8488
G01 X-17.8985 Y27.8778
G01 X-17.9022 Y27.9042
G01 X-17.9086 Y27.9312
G01 X-17.9175 Y27.9576
G01 X-17.9283 Y27.9820
G01 X-18.1192 Y28.3640
G01 X-18.1351 Y28.3919
G01 X-18.1540 Y28.4180
G01 X-18.1754 Y28.4420
G01 X-18.3668 Y28.6333
G01 X-18.3865 Y28.6512
G01 X-18.4106 Y28.6692
G00 Z2.0000
G00 X-18.4973 Y27.3482
G01 F60.00
G01 Z0.0000
G01 F60.00
G01 X-18.4973 Y27.7780
G01 X-18.6343 Y28.0520
G01 X-18.7403 Y28.1579
G01 X-19.1983 Y28.3106
G01 X-20.1828 Y28.3106
G01 X-20.1828 Y26.8156
G01 X-19.0299 Y26.8156
G01 X-18.7559 Y26.9526
G01 X-18.6343 Y27.0742
G01 X-18.4973 Y27.3482
G00 Z2.0000
G00 X-18.8248 Y29.9567
G01 F60.00
G01 Z0.0000
G01 F60.00
G01 X-18.9464 Y30.0783
G01 X-19.2204 Y30.2154
G01 X-20.1828 Y30.2154
G01 X-20.1828 Y28.9108
G01 X-19.2204 Y28.9108
G01 X-18.9464 Y29.0478
G01 X-18.8248 Y29.1694
G01 X-18.6878 Y29.4435
G01 X-18.6878 Y29.6827
G01 X-18.8248 Y29.9567
G00 Z2.0000
G00 X-30.4151 Y28.6484
G01 F60.00
G01 Z0.0000
G01 F60.00
G01 X-30.4268 Y28.6749
G01 X-30.5697 Y28.9607
G01 X-30.5856 Y28.9886
G01 X-30.6044 Y29.0147
G01 X-30.6259 Y29.0387
G01 X-30.9116 Y29.3244
G01 X-30.9298 Y29.3411
G01 X-30.9530 Y29.3589
G01 X-30.9759 Y29.3733
G01 X-31.0000 Y29.3856
G01 X-31.0241 Y29.3952
G01 X-31.0510 Y29.4033
G01 X-31.6224 Y29.5462
G01 X-31.6601 Y29.5530
G01 X-31.6952 Y29.5551
G01 X-32.6952 Y29.5551
G01 X-32.7319 Y29.5529
G01 X-32.7665 Y29.5465
G01 X-33.3406 Y29.4030
G01 X-33.3675 Y29.3948
G01 X-33.3904 Y29.3856
G01 X-33.4126 Y29.3744
G01 X-33.4393 Y29.3576
G01 X-33.4589 Y29.3426
G01 X-33.4781 Y29.3252
G01 X-33.7646 Y29.0387
G01 X-33.7869 Y29.0137
G01 X-33.8049 Y28.9886
G01 X-33.8202 Y28.9618
G01 X-33.9637 Y28.6749
G01 X-33.9750 Y28.6495
G01 X-33.9831 Y28.6253
G01 X-33.9902 Y28.5960
G01 X-33.9941 Y28.5685
G01 X-33.9954 Y28.5407
G01 X-33.9954 Y27.9693
G01 X-33.9941 Y27.9415
G01 X-33.9900 Y27.9128
G01 X-33.9838 Y27.8869
G01 X-33.9757 Y27.8627
G01 X-33.9637 Y27.8351
G01 X-33.8202 Y27.5482
G01 X-33.8049 Y27.5214
G01 X-33.7869 Y27.4963
G01 X-33.7646 Y27.4713
G01 X-33.4781 Y27.1848
G01 X-33.4589 Y27.1674
G01 X-33.4374 Y27.1510
G01 X-33.4145 Y27.1367
G01 X-33.3884 Y27.1236
G01 X-33.3654 Y27.1144
G01 X-33.3395 Y27.1067
G01 X-32.7680 Y26.9638
G01 X-32.7304 Y26.9570
G01 X-32.6952 Y26.9549
G01 X-31.6952 Y26.9549
G01 X-31.6586 Y26.9571
G01 X-31.6239 Y26.9635
G01 X-31.0499 Y27.1070
G01 X-31.0251 Y27.1144
G01 X-31.0021 Y27.1236
G01 X-30.9769 Y27.1361
G01 X-30.9512 Y27.1524
G01 X-30.9315 Y27.1674
G01 X-30.9116 Y27.1856
G01 X-30.6249 Y27.4723
G01 X-30.6044 Y27.4953
G01 X-30.5871 Y27.5192
G01 X-30.5842 Y27.5237
G01 X-30.5697 Y27.5493
G01 X-30.4263 Y27.8361
G01 X-30.4155 Y27.8605
G01 X-30.4073 Y27.8847
G01 X-30.4001 Y27.9151
G01 X-30.3964 Y27.9415
G01 X-30.3951 Y27.9693
G01 X-30.3951 Y28.5419
G01 X-30.3964 Y28.5685
G01 X-30.4003 Y28.5961
G01 X-30.4067 Y28.6231
G01 X-30.4151 Y28.6484
G00 Z2.0000
G00 X-33.1132 Y28.8411
G01 F60.00
G01 Z0.0000
G01 F60.00
G01 X-33.3057 Y28.6486
G01 X-33.3951 Y28.4699
G01 X-33.3951 Y28.0401
G01 X-33.3057 Y27.8614
G01 X-33.1132 Y27.6689
G01 X-32.6583 Y27.5551
G01 X-31.7322 Y27.5551
G01 X-31.2772 Y27.6689
G01 X-31.0848 Y27.8614
G01 X-30.9954 Y28.0401
G01 X-30.9954 Y28.4699
G01 X-31.0848 Y28.6486
G01 X-31.2772 Y28.8411
G01 X-31.7322 Y28.9549
G01 X-32.6583 Y28.9549
G01 X-33.1132 Y28.8411
G00 Z2.0000
G00 X-33.7259 Y25.6707
G01 F60.00
G01 Z0.0000
G01 F60.00
G01 X-33.6952 Y25.6692
G01 X-32.4239 Y25.6692
G01 X-32.4239 Y24.9681
G01 X-32.4225 Y24.9399
G01 X-32.4186 Y24.9132
G01 X-32.4110 Y24.8822
G01 X-32.4011 Y24.8544
G01 X-32.3896 Y24.8300
G01 X-32.3734 Y24.8025
G01 X-32.3558 Y24.7789
G01 X-32.3377 Y24.7588
G01 X-32.3123 Y24.7358
G01 X-32.2906 Y24.7197
G01 X-32.2653 Y24.7046
G01 X-32.2387 Y24.6920
G01 X-32.2133 Y24.6829
G01 X-32.1799 Y24.6745
G01 X-32.1532 Y24.6706
G01 X-32.1238 Y24.6692
G01 X-32.0944 Y24.6706
G01 X-32.0677 Y24.6745
G01 X-32.0344 Y24.6829
G01 X-32.0090 Y24.6920
G01 X-31.9823 Y24.7046
G01 X-31.9571 Y24.7197
G01 X-31.9353 Y24.7358
G01 X-31.9099 Y24.7588
G01 X-31.8918 Y24.7789
G01 X-31.8743 Y24.8025
G01 X-31.8591 Y24.8278
G01 X-31.8475 Y24.8522
G01 X-31.8366 Y24.8822
G01 X-31.8290 Y24.9132
G01 X-31.8251 Y24.9399
G01 X-31.8237 Y24.9681
G01 X-31.8237 Y25.6692
G01 X-30.9954 Y25.6692
G01 X-30.9953 Y24.5395
G01 X-30.9939 Y24.5113
G01 X-30.9896 Y24.4822
G01 X-30.9824 Y24.4536
G01 X-30.9715 Y24.4236
G01 X-30.9599 Y24.3992
G01 X-30.9461 Y24.3761
G01 X-30.9272 Y24.3503
G01 X-30.9075 Y24.3285
G01 X-30.8875 Y24.3103
G01 X-30.8620 Y24.2912
G01 X-30.8367 Y24.2760
G01 X-30.8123 Y24.2644
G01 X-30.7824 Y24.2535
G01 X-30.7538 Y24.2464
G01 X-30.7271 Y24.2423
G01 X-30.6952 Y24.2406
G01 X-30.6634 Y24.2423
G01 X-30.6367 Y24.2464
G01 X-30.6081 Y24.2535
G01 X-30.5781 Y24.2644
G01 X-30.5538 Y24.2760
G01 X-30.5285 Y24.2912
G01 X-30.5030 Y24.3103
G01 X-30.4830 Y24.3285
G01 X-30.4632 Y24.3503
G01 X-30.4457 Y24.3740
G01 X-30.4318 Y24.3971
G01 X-30.4175 Y24.4270
G01 X-30.4080 Y24.4536
G01 X-30.4009 Y24.4822
G01 X-30.3966 Y24.5113
G01 X-30.3951 Y24.5395
G01 X-30.3951 Y25.9693
G01 X-30.3966 Y25.9987
G01 X-30.4009 Y26.0278
G01 X-30.4074 Y26.0540
G01 X-30.4180 Y26.0841
G01 X-30.4318 Y26.1129
G01 X-30.4457 Y26.1360
G01 X-30.4617 Y26.1578
G01 X-30.4830 Y26.1815
G01 X-30.5068 Y26.2028
G01 X-30.5285 Y26.2188
G01 X-30.5516 Y26.2328
G01 X-30.5815 Y26.2470
G01 X-30.6081 Y26.2565
G01 X-30.6367 Y26.2636
G01 X-30.6658 Y26.2680
G01 X-30.6952 Y26.2694
G01 X-33.6952 Y26.2694
G01 X-33.7247 Y26.2680
G01 X-33.7526 Y26.2639
G01 X-33.7824 Y26.2565
G01 X-33.8078 Y26.2475
G01 X-33.8389 Y26.2328
G01 X-33.8620 Y26.2188
G01 X-33.8856 Y26.2013
G01 X-33.9075 Y26.1815
G01 X-33.9272 Y26.1597
G01 X-33.9448 Y26.1360
G01 X-33.9599 Y26.1108
G01 X-33.9725 Y26.0841
G01 X-33.9817 Y26.0587
G01 X-33.9900 Y26.0254
G01 X-33.9939 Y25.9987
G01 X-33.9953 Y25.9668
G01 X-33.9939 Y25.9399
G01 X-33.9896 Y25.9107
G01 X-33.9824 Y25.8822
G01 X-33.9725 Y25.8544
G01 X-33.9599 Y25.8278
G01 X-33.9448 Y25.8025
G01 X-33.9272 Y25.7789
G01 X-33.9092 Y25.7588
G01 X-33.8856 Y25.7373
G01 X-33.8640 Y25.7212
G01 X-33.8345 Y25.7035
G01 X-33.8101 Y25.6920
G01 X-33.7824 Y25.6821
G01 X-33.7538 Y25.6749
G01 X-33.7259 Y25.6707
G00 Z2.0000
G00 X-33.7247 Y23.0992
G01 F60.00
G01 Z0.0000
G01 F60.00
G01 X-33.6952 Y23.0977
G01 X-30.6952 Y23.0977
G01 X-30.6658 Y23.0992
G01 X-30.6367 Y23.1035
G01 X-30.6081 Y23.1107
G01 X-30.5804 Y23.1206
G01 X-30.5538 Y23.1332
G01 X-30.5285 Y23.1483
G01 X-30.5048 Y23.1659
G01 X-30.4830 Y23.1856
G01 X-30.4632 Y23.2075
G01 X-30.4457 Y23.2311
G01 X-30.4306 Y23.2564
G01 X-30.4180 Y23.2830
G01 X-30.4080 Y23.3107
G01 X-30.4009 Y23.3393
G01 X-30.3966 Y23.3684
G01 X-30.3951 Y23.3979
G01 X-30.3966 Y23.4273
G01 X-30.4009 Y23.4564
G01 X-30.4080 Y23.4850
G01 X-30.4180 Y23.5127
G01 X-30.4294 Y23.5371
G01 X-30.4471 Y23.5666
G01 X-30.4632 Y23.5883
G01 X-30.4830 Y23.6101
G01 X-30.5048 Y23.6299
G01 X-30.5285 Y23.6474
G01 X-30.5538 Y23.6625
G01 X-30.5781 Y23.6741
G01 X-30.6105 Y23.6857
G01 X-30.6367 Y23.6922
G01 X-30.6670 Y23.6966
G01 X-30.6952 Y23.6980
G01 X-33.6952 Y23.6980
G01 X-33.7247 Y23.6965
G01 X-33.7538 Y23.6922
G01 X-33.7824 Y23.6851
G01 X-33.8101 Y23.6751
G01 X-33.8367 Y23.6625
G01 X-33.8620 Y23.6474
G01 X-33.8856 Y23.6299
G01 X-33.9075 Y23.6101
G01 X-33.9256 Y23.5901
G01 X-33.9448 Y23.5646
G01 X-33.9587 Y23.5415
G01 X-33.9734 Y23.5104
G01 X-33.9824 Y23.4850
G01 X-33.9896 Y23.4564
G01 X-33.9939 Y23.4273
G01 X-33.9954 Y23.3979
G01 X-33.9939 Y23.3684
G01 X-33.9896 Y23.3393
G01 X-33.9824 Y23.3107
G01 X-33.9734 Y23.2853
G01 X-33.9587 Y23.2542
G01 X-33.9448 Y23.2311
G01 X-33.9256 Y23.2056
G01 X-33.9075 Y23.1856
G01 X-33.8856 Y23.1659
G01 X-33.8620 Y23.1483
G01 X-33.8367 Y23.1332
G01 X-33.8101 Y23.1206
G01 X-33.7824 Y23.1107
G01 X-33.7538 Y23.1035
G01 X-33.7247 Y23.0992
G00 Z2.0000
G00 X-33.1768 Y20.4444
G01 F60.00
G01 Z0.0000
G01 F60.00
G01 X-33.1973 Y20.4672
G01 X-33.2901 Y20.5600
G01 X-33.3951 Y20.8751
G01 X-33.3951 Y21.0634
G01 X-33.2901 Y21.3786
G01 X-33.0889 Y21.5798
G01 X-32.8762 Y21.6861
G01 X-32.3726 Y21.8120
G01 X-32.0179 Y21.8120
G01 X-31.5143 Y21.6861
G01 X-31.3016 Y21.5798
G01 X-31.1004 Y21.3786
G01 X-30.9954 Y21.0634
G01 X-30.9954 Y20.8751
G01 X-31.1004 Y20.5600
G01 X-31.1932 Y20.4672
G01 X-31.2130 Y20.4454
G01 X-31.2318 Y20.4197
G01 X-31.2456 Y20.3965
G01 X-31.2582 Y20.3699
G01 X-31.2688 Y20.3398
G01 X-31.2753 Y20.3136
G01 X-31.2796 Y20.2844
G01 X-31.2810 Y20.2525
G01 X-31.2796 Y20.2256
G01 X-31.2755 Y20.1977
G01 X-31.2682 Y20.1679
G01 X-31.2582 Y20.1401
G01 X-31.2456 Y20.1135
G01 X-31.2291 Y20.0863
G01 X-31.2114 Y20.0627
G01 X-31.1932 Y20.0428
G01 X-31.1732 Y20.0246
G01 X-31.1477 Y20.0055
G01 X-31.1224 Y19.9903
G01 X-31.0958 Y19.9777
G01 X-31.0657 Y19.9671
G01 X-31.0371 Y19.9602
G01 X-31.0104 Y19.9563
G01 X-30.9834 Y19.9549
G01 X-30.9515 Y19.9563
G01 X-30.9224 Y19.9606
G01 X-30.8938 Y19.9678
G01 X-30.8639 Y19.9787
G01 X-30.8395 Y19.9903
G01 X-30.8142 Y20.0055
G01 X-30.7906 Y20.0230
G01 X-30.7696 Y20.0419
G01 X-30.6243 Y20.1873
G01 X-30.6071 Y20.2062
G01 X-30.5917 Y20.2265
G01 X-30.5763 Y20.2511
G01 X-30.5634 Y20.2770
G01 X-30.5534 Y20.3030
G01 X-30.4105 Y20.7315
G01 X-30.4017 Y20.7639
G01 X-30.3968 Y20.7943
G01 X-30.3951 Y20.8264
G01 X-30.3951 Y21.1135
G01 X-30.3968 Y21.1443
G01 X-30.4017 Y21.1747
G01 X-30.4105 Y21.2070
G01 X-30.5534 Y21.6356
G01 X-30.5639 Y21.6626
G01 X-30.5758 Y21.6865
G01 X-30.5904 Y21.7102
G01 X-30.6071 Y21.7324
G01 X-30.6259 Y21.7529
G01 X-30.9126 Y22.0396
G01 X-30.9355 Y22.0601
G01 X-30.9594 Y22.0775
G01 X-30.9884 Y22.0943
G01 X-31.2753 Y22.2377
G01 X-31.3067 Y22.2512
G01 X-31.3367 Y22.2605
G01 X-31.9097 Y22.4037
G01 X-31.9443 Y22.4100
G01 X-31.9810 Y22.4123
G01 X-32.4095 Y22.4123
G01 X-32.4462 Y22.4100
G01 X-32.4823 Y22.4033
G01 X-33.0537 Y22.2605
G01 X-33.0851 Y22.2508
G01 X-33.1140 Y22.2383
G01 X-33.4021 Y22.0943
G01 X-33.4289 Y22.0790
G01 X-33.4539 Y22.0610
G01 X-33.4789 Y22.0387
G01 X-33.7646 Y21.7529
G01 X-33.7841 Y21.7315
G01 X-33.8001 Y21.7102
G01 X-33.8147 Y21.6865
G01 X-33.8271 Y21.6616
G01 X-33.8371 Y21.6356
G01 X-33.9804 Y21.2058
G01 X-33.9885 Y21.1760
G01 X-33.9933 Y21.1469
G01 X-33.9953 Y21.1135
G01 X-33.9953 Y20.8251
G01 X-33.9936 Y20.7943
G01 X-33.9888 Y20.7639
G01 X-33.9800 Y20.7315
G01 X-33.8367 Y20.3019
G01 X-33.8271 Y20.2770
G01 X-33.8147 Y20.2521
G01 X-33.8001 Y20.2284
G01 X-33.7834 Y20.2062
G01 X-33.7646 Y20.1856
G01 X-33.6218 Y20.0428
G01 X-33.5999 Y20.0230
G01 X-33.5763 Y20.0055
G01 X-33.5510 Y19.9903
G01 X-33.5244 Y19.9777
G01 X-33.4967 Y19.9678
G01 X-33.4681 Y19.9606
G01 X-33.4389 Y19.9563
G01 X-33.4095 Y19.9549
G01 X-33.3826 Y19.9561
G01 X-33.3486 Y19.9612
G01 X-33.3224 Y19.9678
G01 X-33.2924 Y19.9787
G01 X-33.2681 Y19.9903
G01 X-33.2428 Y20.0055
G01 X-33.2191 Y20.0230
G01 X-33.1973 Y20.0428
G01 X-33.1775 Y20.0646
G01 X-33.1600 Y20.0883
G01 X-33.1448 Y20.1135
G01 X-33.1332 Y20.1379
G01 X-33.1217 Y20.1702
G01 X-33.1152 Y20.1964
G01 X-33.1107 Y20.2280
G01 X-33.1094 Y20.2550
G01 X-33.1109 Y20.2844
G01 X-33.1152 Y20.3136
G01 X-33.1223 Y20.3421
G01 X-33.1323 Y20.3699
G01 X-33.1448 Y20.3965
G01 X-33.1600 Y20.4217
G01 X-33.1768 Y20.4444
G00 Z2.0000
G00 X-33.7222 Y18.6704
G01 F60.00
G01 Z0.0000
G01 F60.00
G01 X-33.6952 Y18.6692
G01 X-30.6952 Y18.6692
G01 X-30.6658 Y18.6706
G01 X-30.6367 Y18.6749
G01 X-30.6081 Y18.6821
G01 X-30.5804 Y18.6920
G01 X-30.5538 Y18.7046
G01 X-30.5285 Y18.7197
G01 X-30.5048 Y18.7373
G01 X-30.4830 Y18.7571
G01 X-30.4632 Y18.7789
G01 X-30.4457 Y18.8025
G01 X-30.4306 Y18.8278
G01 X-30.4180 Y18.8544
G01 X-30.4080 Y18.8822
G01 X-30.4009 Y18.9107
G01 X-30.3966 Y18.9399
G01 X-30.3951 Y18.9693
G01 X-30.3966 Y18.9987
G01 X-30.4009 Y19.0278
G01 X-30.4080 Y19.0564
G01 X-30.4180 Y19.0841
G01 X-30.4294 Y19.1086
G01 X-30.4471 Y19.1380
G01 X-30.4632 Y19.1597
G01 X-30.4830 Y19.1815
G01 X-30.5048 Y19.2013
G01 X-30.5285 Y19.2188
G01 X-30.5538 Y19.2340
G01 X-30.5781 Y19.2456
G01 X-30.6105 Y19.2571
G01 X-30.6367 Y19.2636
G01 X-30.6670 Y19.2681
G01 X-30.6952 Y19.2694
G01 X-33.6952 Y19.2694
G01 X-33.7247 Y19.2680
G01 X-33.7538 Y19.2636
G01 X-33.7824 Y19.2565
G01 X-33.8101 Y19.2466
G01 X-33.8367 Y19.2340
G01 X-33.8620 Y19.2188
G01 X-33.8856 Y19.2013
G01 X-33.9075 Y19.1815
G01 X-33.9256 Y19.1615
G01 X-33.9448 Y19.1360
G01 X-33.9587 Y19.1129
G01 X-33.9734 Y19.0819
G01 X-33.9824 Y19.0564
G01 X-33.9896 Y19.0278
G01 X-33.9939 Y18.9987
G01 X-33.9954 Y18.9693
G01 X-33.9939 Y18.9399
G01 X-33.9896 Y18.9107
G01 X-33.9824 Y18.8822
G01 X-33.9725 Y18.8544
G01 X-33.9599 Y18.8278
G01 X-33.9448 Y18.8025
G01 X-33.9272 Y18.7789
G01 X-33.9092 Y18.7588
G01 X-33.8856 Y18.7373
G01 X-33.8640 Y18.7212
G01 X-33.8345 Y18.7035
G01 X-33.8101 Y18.6920
G01 X-33.7824 Y18.6821
G01 X-33.7538 Y18.6749
G01 X-33.7222 Y18.6704
G00 Z2.0000
G00 X-33.7259 Y17.2422
G01 F60.00
G01 Z0.0000
G01 F60.00
G01 X-33.6952 Y17.2406
G01 X-31.8254 Y17.2406
G01 X-33.8441 Y16.0870
G01 X-33.8687 Y16.0713
G01 X-33.8916 Y16.0534
G01 X-33.9127 Y16.0333
G01 X-33.9332 Y16.0092
G01 X-33.9486 Y15.9874
G01 X-33.9618 Y15.9642
G01 X-33.9749 Y15.9355
G01 X-33.9847 Y15.9055
G01 X-33.9906 Y15.8794
G01 X-33.9941 Y15.8529
G01 X-33.9953 Y15.8214
G01 X-33.9931 Y15.7899
G01 X-33.9887 Y15.7636
G01 X-33.9819 Y15.7377
G01 X-33.9711 Y15.7081
G01 X-33.9571 Y15.6798
G01 X-33.9430 Y15.6571
G01 X-33.9269 Y15.6358
G01 X-33.9057 Y15.6124
G01 X-33.8820 Y15.5916
G01 X-33.8584 Y15.5746
G01 X-33.8353 Y15.5610
G01 X-33.8112 Y15.5496
G01 X-33.7815 Y15.5390
G01 X-33.7532 Y15.5319
G01 X-33.7243 Y15.5277
G01 X-33.6952 Y15.5263
G01 X-30.6928 Y15.5264
G01 X-30.6658 Y15.5278
G01 X-30.6391 Y15.5317
G01 X-30.6081 Y15.5392
G01 X-30.5781 Y15.5501
G01 X-30.5538 Y15.5617
G01 X-30.5285 Y15.5769
G01 X-30.5048 Y15.5944
G01 X-30.4848 Y15.6125
G01 X-30.4632 Y15.6360
G01 X-30.4444 Y15.6618
G01 X-30.4306 Y15.6850
G01 X-30.4190 Y15.7093
G01 X-30.4080 Y15.7393
G01 X-30.4009 Y15.7679
G01 X-30.3966 Y15.7970
G01 X-30.3952 Y15.8289
G01 X-30.3966 Y15.8558
G01 X-30.4005 Y15.8826
G01 X-30.4074 Y15.9112
G01 X-30.4180 Y15.9413
G01 X-30.4306 Y15.9679
G01 X-30.4457 Y15.9932
G01 X-30.4632 Y16.0168
G01 X-30.4830 Y16.0387
G01 X-30.5068 Y16.0599
G01 X-30.5306 Y16.0773
G01 X-30.5538 Y16.0911
G01 X-30.5781 Y16.1027
G01 X-30.6081 Y16.1136
G01 X-30.6367 Y16.1208
G01 X-30.6658 Y16.1251
G01 X-30.6952 Y16.1266
G01 X-32.5651 Y16.1266
G01 X-30.5463 Y17.2801
G01 X-30.5218 Y17.2958
G01 X-30.4988 Y17.3138
G01 X-30.4761 Y17.3357
G01 X-30.4587 Y17.3560
G01 X-30.4433 Y17.3778
G01 X-30.4275 Y17.4051
G01 X-30.4156 Y17.4317
G01 X-30.4058 Y17.4617
G01 X-30.3998 Y17.4877
G01 X-30.3963 Y17.5142
G01 X-30.3952 Y17.5457
G01 X-30.3974 Y17.5772
G01 X-30.4018 Y17.6036
G01 X-30.4086 Y17.6294
G01 X-30.4194 Y17.6590
G01 X-30.4334 Y17.6873
G01 X-30.4475 Y17.7101
G01 X-30.4635 Y17.7314
G01 X-30.4848 Y17.7547
G01 X-30.5085 Y17.7756
G01 X-30.5321 Y17.7926
G01 X-30.5551 Y17.8061
G01 X-30.5793 Y17.8175
G01 X-30.6090 Y17.8282
G01 X-30.6373 Y17.8352
G01 X-30.6661 Y17.8394
G01 X-30.6952 Y17.8408
G01 X-33.6952 Y17.8408
G01 X-33.7247 Y17.8394
G01 X-33.7526 Y17.8353
G01 X-33.7824 Y17.8279
G01 X-33.8078 Y17.8189
G01 X-33.8389 Y17.8042
G01 X-33.8620 Y17.7903
G01 X-33.8856 Y17.7727
G01 X-33.9075 Y17.7529
G01 X-33.9272 Y17.7311
G01 X-33.9448 Y17.7075
G01 X-33.9599 Y17.6822
G01 X-33.9725 Y17.6556
G01 X-33.9817 Y17.6302
G01 X-33.9900 Y17.5969
G01 X-33.9939 Y17.5701
G01 X-33.9953 Y17.5383
G01 X-33.9939 Y17.5113
G01 X-33.9896 Y17.4822
G01 X-33.9824 Y17.4536
G01 X-33.9725 Y17.4259
G01 X-33.9599 Y17.3992
G01 X-33.9448 Y17.3740
G01 X-33.9272 Y17.3503
G01 X-33.9092 Y17.3303
G01 X-33.8856 Y17.3087
G01 X-33.8640 Y17.2926
G01 X-33.8345 Y17.2749
G01 X-33.8101 Y17.2634
G01 X-33.7824 Y17.2535
G01 X-33.7538 Y17.2464
G01 X-33.7259 Y17.2422
G00 Z2.0000
G00 X-33.8165 Y14.5519
G01 F60.00
G01 Z0.0000
G01 F60.00
G01 X-33.7901 Y14.5417
G01 X-33.1382 Y14.3244
G01 X-33.1382 Y13.3285
G01 X-33.7901 Y13.1112
G01 X-33.8153 Y13.1014
G01 X-33.8439 Y13.0872
G01 X-33.8707 Y13.0699
G01 X-33.8919 Y13.0532
G01 X-33.9114 Y13.0345
G01 X-33.9316 Y13.0114
G01 X-33.9492 Y12.9863
G01 X-33.9647 Y12.9584
G01 X-33.9755 Y12.9337
G01 X-33.9840 Y12.9081
G01 X-33.9911 Y12.8769
G01 X-33.9947 Y12.8453
G01 X-33.9953 Y12.8183
G01 X-33.9933 Y12.7913
G01 X-33.9879 Y12.7599
G01 X-33.9800 Y12.7315
G01 X-33.9682 Y12.7019
G01 X-33.9560 Y12.6778
G01 X-33.9415 Y12.6550
G01 X-33.9220 Y12.6298
G01 X-33.9016 Y12.6085
G01 X-33.8773 Y12.5879
G01 X-33.8551 Y12.5724
G01 X-33.8316 Y12.5591
G01 X-33.8025 Y12.5461
G01 X-33.7721 Y12.5364
G01 X-33.7458 Y12.5306
G01 X-33.7190 Y12.5273
G01 X-33.6871 Y12.5264
G01 X-33.6553 Y12.5290
G01 X-33.6287 Y12.5338
G01 X-33.6015 Y12.5413
G01 X-30.5992 Y13.5421
G01 X-30.5701 Y13.5537
G01 X-30.5457 Y13.5662
G01 X-30.5226 Y13.5810
G01 X-30.4970 Y13.6011
G01 X-30.4755 Y13.6220
G01 X-30.4548 Y13.6469
G01 X-30.4393 Y13.6697
G01 X-30.4261 Y13.6938
G01 X-30.4133 Y13.7236
G01 X-30.4041 Y13.7534
G01 X-30.3985 Y13.7816
G01 X-30.3955 Y13.8114
G01 X-30.3955 Y13.8414
G01 X-30.3982 Y13.8688
G01 X-30.4051 Y13.9030
G01 X-30.4133 Y13.9293
G01 X-30.4249 Y13.9569
G01 X-30.4393 Y13.9832
G01 X-30.4562 Y14.0079
G01 X-30.4755 Y14.0309
G01 X-30.4952 Y14.0501
G01 X-30.5226 Y14.0718
G01 X-30.5457 Y14.0866
G01 X-30.5735 Y14.1008
G01 X-30.6003 Y14.1112
G01 X-33.6003 Y15.1112
G01 X-33.6287 Y15.1191
G01 X-33.6577 Y15.1242
G01 X-33.6871 Y15.1264
G01 X-33.7165 Y15.1258
G01 X-33.7433 Y15.1226
G01 X-33.7769 Y15.1152
G01 X-33.8025 Y15.1067
G01 X-33.8316 Y15.0937
G01 X-33.8551 Y15.0804
G01 X-33.8793 Y15.0635
G01 X-33.9016 Y15.0443
G01 X-33.9220 Y15.0231
G01 X-33.9402 Y14.9999
G01 X-33.9560 Y14.9751
G01 X-33.9693 Y14.9488
G01 X-33.9800 Y14.9213
G01 X-33.9879 Y14.8930
G01 X-33.9930 Y14.8640
G01 X-33.9953 Y14.8346
G01 X-33.9946 Y14.8052
G01 X-33.9911 Y14.7759
G01 X-33.9847 Y14.7472
G01 X-33.9755 Y14.7192
G01 X-33.9647 Y14.6944
G01 X-33.9479 Y14.6645
G01 X-33.9323 Y14.6424
G01 X-33.9114 Y14.6183
G01 X-33.8919 Y14.5997
G01 X-33.8687 Y14.5815
G01 X-33.8439 Y14.5657
G01 X-33.8165 Y14.5519
G00 Z2.0000
G00 X-32.5380 Y13.5285
G01 F60.00
G01 Z0.0000
G01 F60.00
G01 X-31.6443 Y13.8264
G01 X-32.5380 Y14.1243
G01 X-32.5380 Y13.5285
G00 Z2.0000
G00 X-32.8512 Y11.8546
G01 F60.00
G01 Z0.0000
G01 F60.00
G01 X-32.8525 Y11.8264
G01 X-32.8525 Y9.5407
G01 X-32.8509 Y9.5101
G01 X-32.8467 Y9.4822
G01 X-32.8396 Y9.4536
G01 X-32.8297 Y9.4259
G01 X-32.8171 Y9.3992
G01 X-32.8019 Y9.3740
G01 X-32.7844 Y9.3503
G01 X-32.7646 Y9.3285
G01 X-32.7428 Y9.3087
G01 X-32.7191 Y9.2912
G01 X-32.6939 Y9.2760
G01 X-32.6672 Y9.2634
G01 X-32.6395 Y9.2535
G01 X-32.6109 Y9.2464
G01 X-32.5818 Y9.2420
G01 X-32.5524 Y9.2406
G01 X-32.5218 Y9.2422
G01 X-32.4938 Y9.2464
G01 X-32.4653 Y9.2535
G01 X-32.4375 Y9.2634
G01 X-32.4131 Y9.2749
G01 X-32.3836 Y9.2926
G01 X-32.3620 Y9.3087
G01 X-32.3402 Y9.3285
G01 X-32.3204 Y9.3503
G01 X-32.3043 Y9.3720
G01 X-32.2866 Y9.4014
G01 X-32.2751 Y9.4259
G01 X-32.2652 Y9.4536
G01 X-32.2580 Y9.4822
G01 X-32.2537 Y9.5113
G01 X-32.2523 Y9.5407
G01 X-32.2523 Y11.8264
G01 X-32.2538 Y11.8571
G01 X-32.2580 Y11.8850
G01 X-32.2652 Y11.9136
G01 X-32.2751 Y11.9413
G01 X-32.2877 Y11.9679
G01 X-32.3028 Y11.9932
G01 X-32.3204 Y12.0168
G01 X-32.3402 Y12.0387
G01 X-32.3601 Y12.0568
G01 X-32.3877 Y12.0773
G01 X-32.4109 Y12.0911
G01 X-32.4398 Y12.1046
G01 X-32.4653 Y12.1136
G01 X-32.4938 Y12.1208
G01 X-32.5230 Y12.1251
G01 X-32.5524 Y12.1266
G01 X-32.5818 Y12.1251
G01 X-32.6109 Y12.1208
G01 X-32.6395 Y12.1136
G01 X-32.6672 Y12.1037
G01 X-32.6939 Y12.0911
G01 X-32.7191 Y12.0760
G01 X-32.7428 Y12.0584
G01 X-32.7628 Y12.0403
G01 X-32.7859 Y12.0149
G01 X-32.8019 Y11.9932
G01 X-32.8182 Y11.9657
G01 X-32.8297 Y11.9413
G01 X-32.8396 Y11.9136
G01 X-32.8467 Y11.8850
G01 X-32.8512 Y11.8546
G00 Z2.0000
G00 X-33.7222 Y7.3847
G01 F60.00
G01 Z0.0000
G01 F60.00
G01 X-33.6952 Y7.3834
G01 X-30.9954 Y7.3834
G01 X-30.9954 Y6.8264
G01 X-30.9941 Y6.7995
G01 X-30.9896 Y6.7679
G01 X-30.9824 Y6.7393
G01 X-30.9725 Y6.7116
G01 X-30.9605 Y6.6860
G01 X-30.9448 Y6.6597
G01 X-30.9272 Y6.6360
G01 X-30.9075 Y6.6142
G01 X-30.8875 Y6.5960
G01 X-30.8599 Y6.5756
G01 X-30.8367 Y6.5617
G01 X-30.8078 Y6.5483
G01 X-30.7824 Y6.5392
G01 X-30.7538 Y6.5321
G01 X-30.7247 Y6.5278
G01 X-30.6952 Y6.5263
G01 X-30.6658 Y6.5278
G01 X-30.6367 Y6.5321
G01 X-30.6081 Y6.5392
G01 X-30.5815 Y6.5487
G01 X-30.5516 Y6.5630
G01 X-30.5285 Y6.5769
G01 X-30.5068 Y6.5929
G01 X-30.4830 Y6.6142
G01 X-30.4617 Y6.6380
G01 X-30.4457 Y6.6597
G01 X-30.4318 Y6.6828
G01 X-30.4180 Y6.7116
G01 X-30.4080 Y6.7393
G01 X-30.4014 Y6.7655
G01 X-30.3965 Y6.7982
G01 X-30.3951 Y6.8264
G01 X-30.3951 Y8.5407
G01 X-30.3966 Y8.5701
G01 X-30.4009 Y8.5993
G01 X-30.4080 Y8.6278
G01 X-30.4175 Y8.6544
G01 X-30.4306 Y8.6822
G01 X-30.4471 Y8.7095
G01 X-30.4632 Y8.7311
G01 X-30.4813 Y8.7512
G01 X-30.5048 Y8.7727
G01 X-30.5306 Y8.7916
G01 X-30.5538 Y8.8054
G01 X-30.5781 Y8.8170
G01 X-30.6081 Y8.8279
G01 X-30.6391 Y8.8355
G01 X-30.6658 Y8.8394
G01 X-30.6928 Y8.8408
G01 X-30.7247 Y8.8394
G01 X-30.7562 Y8.8345
G01 X-30.7824 Y8.8279
G01 X-30.8078 Y8.8189
G01 X-30.8367 Y8.8054
G01 X-30.8640 Y8.7889
G01 X-30.8856 Y8.7727
G01 X-30.9057 Y8.7546
G01 X-30.9264 Y8.7321
G01 X-30.9461 Y8.7054
G01 X-30.9599 Y8.6822
G01 X-30.9725 Y8.6556
G01 X-30.9824 Y8.6278
G01 X-30.9891 Y8.6017
G01 X-30.9939 Y8.5701
G01 X-30.9954 Y8.5407
G01 X-30.9954 Y7.9837
G01 X-33.6952 Y7.9837
G01 X-33.7247 Y7.9822
G01 X-33.7538 Y7.9779
G01 X-33.7824 Y7.9708
G01 X-33.8090 Y7.9613
G01 X-33.8367 Y7.9483
G01 X-33.8599 Y7.9344
G01 X-33.8875 Y7.9140
G01 X-33.9075 Y7.8958
G01 X-33.9272 Y7.8740
G01 X-33.9448 Y7.8503
G01 X-33.9599 Y7.8250
G01 X-33.9725 Y7.7984
G01 X-33.9817 Y7.7730
G01 X-33.9900 Y7.7397
G01 X-33.9939 Y7.7130
G01 X-33.9954 Y7.6836
G01 X-33.9939 Y7.6542
G01 X-33.9900 Y7.6274
G01 X-33.9817 Y7.5941
G01 X-33.9725 Y7.5687
G01 X-33.9587 Y7.5400
G01 X-33.9448 Y7.5168
G01 X-33.9272 Y7.4932
G01 X-33.9075 Y7.4713
G01 X-33.8875 Y7.4532
G01 X-33.8599 Y7.4327
G01 X-33.8367 Y7.4189
G01 X-33.8101 Y7.4063
G01 X-33.7824 Y7.3964
G01 X-33.7562 Y7.3897
G01 X-33.7222 Y7.3847
G00 Z2.0000
G00 X-35.6670 Y7.1966
G01 F60.00
G01 Z0.0000
G01 F60.00
G01 X-35.6952 Y7.1980
G01 X-38.6965 Y7.1980
G01 X-38.7247 Y7.1965
G01 X-38.7514 Y7.1926
G01 X-38.7824 Y7.1851
G01 X-38.8123 Y7.1741
G01 X-38.8367 Y7.1625
G01 X-38.8620 Y7.1474
G01 X-38.8875 Y7.1283
G01 X-38.9075 Y7.1101
G01 X-38.9256 Y7.0901
G01 X-38.9448 Y7.0646
G01 X-38.9599 Y7.0393
G01 X-38.9734 Y7.0104
G01 X-38.9824 Y6.9850
G01 X-38.9891 Y6.9588
G01 X-38.9939 Y6.9273
G01 X-38.9954 Y6.8979
G01 X-38.9939 Y6.8684
G01 X-38.9891 Y6.8369
G01 X-38.9824 Y6.8107
G01 X-38.9734 Y6.7853
G01 X-38.9599 Y6.7564
G01 X-38.9434 Y6.7291
G01 X-38.9272 Y6.7075
G01 X-38.9092 Y6.6874
G01 X-38.8856 Y6.6659
G01 X-38.8610 Y6.6476
G01 X-38.8367 Y6.6332
G01 X-38.8123 Y6.6216
G01 X-38.7824 Y6.6107
G01 X-38.7514 Y6.6031
G01 X-38.7247 Y6.5992
G01 X-38.6977 Y6.5978
G01 X-37.5668 Y6.5977
G01 X-37.5668 Y6.3398
G01 X-38.8674 Y5.4294
G01 X-38.8906 Y5.4114
G01 X-38.9103 Y5.3929
G01 X-38.9328 Y5.3669
G01 X-38.9483 Y5.3449
G01 X-38.9640 Y5.3171
G01 X-38.9749 Y5.2924
G01 X-38.9843 Y5.2644
G01 X-38.9908 Y5.2357
G01 X-38.9945 Y5.2065
G01 X-38.9953 Y5.1771
G01 X-38.9934 Y5.1501
G01 X-38.9877 Y5.1163
G01 X-38.9805 Y5.0902
G01 X-38.9700 Y5.0627
G01 X-38.9568 Y5.0364
G01 X-38.9418 Y5.0125
G01 X-38.9231 Y4.9882
G01 X-38.9045 Y4.9685
G01 X-38.8786 Y4.9460
G01 X-38.8565 Y4.9305
G01 X-38.8309 Y4.9159
G01 X-38.8041 Y4.9039
G01 X-38.7761 Y4.8945
G01 X-38.7474 Y4.8880
G01 X-38.7206 Y4.8846
G01 X-38.6863 Y4.8836
G01 X-38.6594 Y4.8856
G01 X-38.6303 Y4.8906
G01 X-38.6019 Y4.8983
G01 X-38.5744 Y4.9088
G01 X-38.5481 Y4.9220
G01 X-38.5231 Y4.9377
G01 X-37.5380 Y5.6273
G01 X-37.5351 Y5.6208
G01 X-37.3922 Y5.3351
G01 X-37.3756 Y5.3060
G01 X-37.3575 Y5.2810
G01 X-37.3370 Y5.2580
G01 X-37.1922 Y5.1133
G01 X-37.1692 Y5.0927
G01 X-37.1454 Y5.0754
G01 X-37.1164 Y5.0586
G01 X-36.8284 Y4.9146
G01 X-36.8040 Y4.9039
G01 X-36.7788 Y4.8953
G01 X-36.7483 Y4.8882
G01 X-36.7230 Y4.8847
G01 X-36.6964 Y4.8835
G01 X-36.2667 Y4.8834
G01 X-36.2389 Y4.8847
G01 X-36.2113 Y4.8886
G01 X-36.1820 Y4.8957
G01 X-36.1579 Y4.9039
G01 X-36.1335 Y4.9146
G01 X-35.8467 Y5.0580
G01 X-35.8177 Y5.0746
G01 X-35.7927 Y5.0927
G01 X-35.7697 Y5.1133
G01 X-35.6259 Y5.2571
G01 X-35.6044 Y5.2810
G01 X-35.5856 Y5.3071
G01 X-35.5697 Y5.3351
G01 X-35.4258 Y5.6229
G01 X-35.4155 Y5.6462
G01 X-35.4067 Y5.6726
G01 X-35.4003 Y5.6997
G01 X-35.3963 Y5.7284
G01 X-35.3951 Y5.7550
G01 X-35.3951 Y6.8979
G01 X-35.3966 Y6.9273
G01 X-35.4007 Y6.9552
G01 X-35.4088 Y6.9873
G01 X-35.4180 Y7.0127
G01 X-35.4306 Y7.0393
G01 X-35.4457 Y7.0646
G01 X-35.4617 Y7.0863
G01 X-35.4848 Y7.1118
G01 X-35.5048 Y7.1299
G01 X-35.5285 Y7.1474
G01 X-35.5538 Y7.1625
G01 X-35.5781 Y7.1741
G01 X-35.6105 Y7.1857
G01 X-35.6367 Y7.1922
G01 X-35.6670 Y7.1966
G00 Z2.0000
G00 X-36.3375 Y5.4837
G01 F60.00
G01 Z0.0000
G01 F60.00
G01 X-36.1587 Y5.5731
G01 X-36.0848 Y5.6471
G01 X-35.9954 Y5.8259
G01 X-35.9954 Y6.5977
G01 X-36.9665 Y6.5977
G01 X-36.9665 Y5.8259
G01 X-36.8772 Y5.6471
G01 X-36.8032 Y5.5731
G01 X-36.6244 Y5.4837
G01 X-36.3375 Y5.4837
G00 Z2.0000
G00 X-33.3966 Y4.3684
G01 F60.00
G01 Z0.0000
G01 F60.00
G01 X-33.3951 Y4.3979
G01 X-33.3951 Y5.5263
G01 X-32.4239 Y5.5263
G01 X-32.4239 Y4.8252
G01 X-32.4225 Y4.7970
G01 X-32.4186 Y4.7703
G01 X-32.4110 Y4.7393
G01 X-32.4011 Y4.7116
G01 X-32.3896 Y4.6871
G01 X-32.3719 Y4.6577
G01 X-32.3558 Y4.6360
G01 X-32.3360 Y4.6142
G01 X-32.3142 Y4.5944
G01 X-32.2926 Y4.5783
G01 X-32.2631 Y4.5606
G01 X-32.2387 Y4.5492
G01 X-32.2109 Y4.5392
G01 X-32.1824 Y4.5321
G01 X-32.1557 Y4.5281
G01 X-32.1238 Y4.5263
G01 X-32.0944 Y4.5278
G01 X-32.0677 Y4.5317
G01 X-32.0344 Y4.5400
G01 X-32.0090 Y4.5492
G01 X-31.9823 Y4.5617
G01 X-31.9571 Y4.5769
G01 X-31.9353 Y4.5929
G01 X-31.9099 Y4.6160
G01 X-31.8918 Y4.6360
G01 X-31.8743 Y4.6597
G01 X-31.8591 Y4.6850
G01 X-31.8475 Y4.7093
G01 X-31.8366 Y4.7393
G01 X-31.8290 Y4.7703
G01 X-31.8251 Y4.7970
G01 X-31.8237 Y4.8252
G01 X-31.8237 Y5.5263
G01 X-30.9954 Y5.5263
G01 X-30.9954 Y4.3979
G01 X-30.9939 Y4.3684
G01 X-30.9900 Y4.3417
G01 X-30.9821 Y4.3096
G01 X-30.9725 Y4.2830
G01 X-30.9587 Y4.2542
G01 X-30.9448 Y4.2311
G01 X-30.9287 Y4.2094
G01 X-30.9092 Y4.1874
G01 X-30.8856 Y4.1659
G01 X-30.8620 Y4.1483
G01 X-30.8367 Y4.1332
G01 X-30.8101 Y4.1206
G01 X-30.7824 Y4.1107
G01 X-30.7514 Y4.1031
G01 X-30.7247 Y4.0992
G01 X-30.6977 Y4.0978
G01 X-30.6683 Y4.0990
G01 X-30.6367 Y4.1035
G01 X-30.6081 Y4.1107
G01 X-30.5804 Y4.1206
G01 X-30.5538 Y4.1332
G01 X-30.5265 Y4.1497
G01 X-30.5048 Y4.1659
G01 X-30.4848 Y4.1839
G01 X-30.4632 Y4.2075
G01 X-30.4457 Y4.2311
G01 X-30.4294 Y4.2586
G01 X-30.4180 Y4.2830
G01 X-30.4088 Y4.3084
G01 X-30.4009 Y4.3393
G01 X-30.3965 Y4.3697
G01 X-30.3951 Y4.3979
G01 X-30.3951 Y5.8277
G01 X-30.3969 Y5.8583
G01 X-30.4009 Y5.8850
G01 X-30.4074 Y5.9112
G01 X-30.4180 Y5.9413
G01 X-30.4306 Y5.9679
G01 X-30.4471 Y5.9952
G01 X-30.4632 Y6.0168
G01 X-30.4813 Y6.0369
G01 X-30.5048 Y6.0584
G01 X-30.5306 Y6.0773
G01 X-30.5538 Y6.0911
G01 X-30.5781 Y6.1027
G01 X-30.6081 Y6.1136
G01 X-30.6391 Y6.1212
G01 X-30.6658 Y6.1251
G01 X-30.6940 Y6.1265
G01 X-33.6952 Y6.1266
G01 X-33.7247 Y6.1251
G01 X-33.7562 Y6.1203
G01 X-33.7824 Y6.1136
G01 X-33.8078 Y6.1046
G01 X-33.8367 Y6.0911
G01 X-33.8620 Y6.0760
G01 X-33.8875 Y6.0568
G01 X-33.9075 Y6.0387
G01 X-33.9256 Y6.0187
G01 X-33.9448 Y5.9932
G01 X-33.9610 Y5.9657
G01 X-33.9725 Y5.9413
G01 X-33.9817 Y5.9159
G01 X-33.9896 Y5.8850
G01 X-33.9940 Y5.8546
G01 X-33.9954 Y5.8264
G01 X-33.9954 Y4.3979
G01 X-33.9936 Y4.3660
G01 X-33.9896 Y4.3393
G01 X-33.9831 Y4.3131
G01 X-33.9725 Y4.2830
G01 X-33.9610 Y4.2586
G01 X-33.9434 Y4.2291
G01 X-33.9272 Y4.2075
G01 X-33.9075 Y4.1856
G01 X-33.8856 Y4.1659
G01 X-33.8620 Y4.1483
G01 X-33.8367 Y4.1332
G01 X-33.8101 Y4.1206
G01 X-33.7824 Y4.1107
G01 X-33.7562 Y4.1040
G01 X-33.7222 Y4.0990
G01 X-33.6952 Y4.0977
G01 X-33.6658 Y4.0992
G01 X-33.6367 Y4.1035
G01 X-33.6105 Y4.1100
G01 X-33.5781 Y4.1216
G01 X-33.5538 Y4.1332
G01 X-33.5285 Y4.1483
G01 X-33.5048 Y4.1659
G01 X-33.4830 Y4.1856
G01 X-33.4632 Y4.2075
G01 X-33.4471 Y4.2291
G01 X-33.4294 Y4.2586
G01 X-33.4180 Y4.2830
G01 X-33.4080 Y4.3107
G01 X-33.4009 Y4.3393
G01 X-33.3966 Y4.3684
G00 Z2.0000
G00 X-33.3966 Y1.6542
G01 F60.00
G01 Z0.0000
G01 F60.00
G01 X-33.3951 Y1.6836
G01 X-33.3951 Y2.8120
G01 X-30.6952 Y2.8120
G01 X-30.6658 Y2.8135
G01 X-30.6391 Y2.8174
G01 X-30.6081 Y2.8249
G01 X-30.5781 Y2.8359
G01 X-30.5538 Y2.8475
G01 X-30.5306 Y2.8613
G01 X-30.5068 Y2.8786
G01 X-30.4830 Y2.8999
G01 X-30.4632 Y2.9217
G01 X-30.4457 Y2.9454
G01 X-30.4294 Y2.9729
G01 X-30.4180 Y2.9973
G01 X-30.4088 Y3.0227
G01 X-30.4014 Y3.0512
G01 X-30.3966 Y3.0827
G01 X-30.3951 Y3.1121
G01 X-30.3969 Y3.1440
G01 X-30.4009 Y3.1707
G01 X-30.4074 Y3.1969
G01 X-30.4180 Y3.2270
G01 X-30.4306 Y3.2536
G01 X-30.4471 Y3.2809
G01 X-30.4632 Y3.3025
G01 X-30.4813 Y3.3226
G01 X-30.5048 Y3.3441
G01 X-30.5306 Y3.3630
G01 X-30.5538 Y3.3768
G01 X-30.5781 Y3.3884
G01 X-30.6081 Y3.3993
G01 X-30.6391 Y3.4069
G01 X-30.6658 Y3.4108
G01 X-30.6940 Y3.4123
G01 X-33.6952 Y3.4123
G01 X-33.7247 Y3.4108
G01 X-33.7562 Y3.4060
G01 X-33.7824 Y3.3993
G01 X-33.8078 Y3.3903
G01 X-33.8367 Y3.3768
G01 X-33.8620 Y3.3617
G01 X-33.8875 Y3.3425
G01 X-33.9075 Y3.3244
G01 X-33.9256 Y3.3044
G01 X-33.9448 Y3.2789
G01 X-33.9610 Y3.2514
G01 X-33.9725 Y3.2270
G01 X-33.9817 Y3.2016
G01 X-33.9896 Y3.1707
G01 X-33.9940 Y3.1403
G01 X-33.9954 Y3.1121
G01 X-33.9954 Y1.6836
G01 X-33.9936 Y1.6517
G01 X-33.9896 Y1.6250
G01 X-33.9831 Y1.5988
G01 X-33.9725 Y1.5687
G01 X-33.9610 Y1.5443
G01 X-33.9434 Y1.5148
G01 X-33.9272 Y1.4932
G01 X-33.9075 Y1.4713
G01 X-33.8856 Y1.4516
G01 X-33.8620 Y1.4340
G01 X-33.8367 Y1.4189
G01 X-33.8101 Y1.4063
G01 X-33.7824 Y1.3964
G01 X-33.7562 Y1.3897
G01 X-33.7222 Y1.3847
G01 X-33.6952 Y1.3834
G01 X-33.6658 Y1.3849
G01 X-33.6367 Y1.3892
G01 X-33.6105 Y1.3957
G01 X-33.5781 Y1.4073
G01 X-33.5538 Y1.4189
G01 X-33.5285 Y1.4340
G01 X-33.5048 Y1.4516
G01 X-33.4830 Y1.4713
G01 X-33.4632 Y1.4932
G01 X-33.4471 Y1.5148
G01 X-33.4294 Y1.5443
G01 X-33.4180 Y1.5687
G01 X-33.4080 Y1.5964
G01 X-33.4009 Y1.6250
G01 X-33.3966 Y1.6542
G00 Z2.0000
G00 X-33.3966 Y-0.7744
G01 F60.00
G01 Z0.0000
G01 F60.00
G01 X-33.3951 Y-0.7450
G01 X-33.3951 Y0.3834
G01 X-32.4239 Y0.3834
G01 X-32.4239 Y-0.3177
G01 X-32.4225 Y-0.3458
G01 X-32.4186 Y-0.3726
G01 X-32.4110 Y-0.4036
G01 X-32.4011 Y-0.4313
G01 X-32.3896 Y-0.4557
G01 X-32.3719 Y-0.4852
G01 X-32.3558 Y-0.5068
G01 X-32.3360 Y-0.5287
G01 X-32.3142 Y-0.5484
G01 X-32.2926 Y-0.5646
G01 X-32.2631 Y-0.5822
G01 X-32.2387 Y-0.5937
G01 X-32.2109 Y-0.6036
G01 X-32.1824 Y-0.6108
G01 X-32.1557 Y-0.6148
G01 X-32.1238 Y-0.6166
G01 X-32.0920 Y-0.6148
G01 X-32.0653 Y-0.6108
G01 X-32.0367 Y-0.6036
G01 X-32.0090 Y-0.5937
G01 X-31.9845 Y-0.5822
G01 X-31.9551 Y-0.5646
G01 X-31.9334 Y-0.5484
G01 X-31.9116 Y-0.5287
G01 X-31.8918 Y-0.5068
G01 X-31.8757 Y-0.4852
G01 X-31.8580 Y-0.4557
G01 X-31.8465 Y-0.4313
G01 X-31.8366 Y-0.4036
G01 X-31.8290 Y-0.3726
G01 X-31.8251 Y-0.3458
G01 X-31.8237 Y-0.3177
G01 X-31.8237 Y0.3834
G01 X-30.9954 Y0.3834
G01 X-30.9954 Y-0.7450
G01 X-30.9939 Y-0.7744
G01 X-30.9900 Y-0.8011
G01 X-30.9821 Y-0.8333
G01 X-30.9725 Y-0.8599
G01 X-30.9587 Y-0.8886
G01 X-30.9448 Y-0.9117
G01 X-30.9287 Y-0.9335
G01 X-30.9092 Y-0.9554
G01 X-30.8856 Y-0.9770
G01 X-30.8620 Y-0.9945
G01 X-30.8367 Y-1.0097
G01 X-30.8101 Y-1.0223
G01 X-30.7824 Y-1.0322
G01 X-30.7514 Y-1.0398
G01 X-30.7247 Y-1.0437
G01 X-30.6977 Y-1.0451
G01 X-30.6683 Y-1.0439
G01 X-30.6367 Y-1.0394
G01 X-30.6081 Y-1.0322
G01 X-30.5804 Y-1.0223
G01 X-30.5538 Y-1.0097
G01 X-30.5265 Y-0.9931
G01 X-30.5048 Y-0.9770
G01 X-30.4848 Y-0.9589
G01 X-30.4632 Y-0.9354
G01 X-30.4457 Y-0.9117
G01 X-30.4294 Y-0.8843
G01 X-30.4180 Y-0.8599
G01 X-30.4088 Y-0.8345
G01 X-30.4009 Y-0.8036
G01 X-30.3965 Y-0.7732
G01 X-30.3951 Y-0.7450
G01 X-30.3951 Y0.6848
G01 X-30.3969 Y0.7154
G01 X-30.4009 Y0.7421
G01 X-30.4074 Y0.7683
G01 X-30.4180 Y0.7984
G01 X-30.4306 Y0.8250
G01 X-30.4471 Y0.8523
G01 X-30.4632 Y0.8740
G01 X-30.4813 Y0.8940
G01 X-30.5048 Y0.9156
G01 X-30.5306 Y0.9344
G01 X-30.5538 Y0.9483
G01 X-30.5781 Y0.9599
G01 X-30.6081 Y0.9708
G01 X-30.6391 Y0.9783
G01 X-30.6658 Y0.9822
G01 X-30.6940 Y0.9837
G01 X-33.6952 Y0.9837
G01 X-33.7247 Y0.9822
G01 X-33.7562 Y0.9774
G01 X-33.7824 Y0.9708
G01 X-33.8078 Y0.9617
G01 X-33.8367 Y0.9483
G01 X-33.8620 Y0.9331
G01 X-33.8875 Y0.9140
G01 X-33.9075 Y0.8958
G01 X-33.9256 Y0.8758
G01 X-33.9448 Y0.8503
G01 X-33.9610 Y0.8229
G01 X-33.9725 Y0.7984
G01 X-33.9817 Y0.7730
G01 X-33.9896 Y0.7421
G01 X-33.9940 Y0.7118
G01 X-33.9954 Y0.6836
G01 X-33.9954 Y-0.7450
G01 X-33.9936 Y-0.7769
G01 X-33.9896 Y-0.8036
G01 X-33.9831 Y-0.8298
G01 X-33.9725 Y-0.8599
G01 X-33.9610 Y-0.8843
G01 X-33.9434 Y-0.9137
G01 X-33.9272 Y-0.9354
G01 X-33.9075 Y-0.9572
G01 X-33.8856 Y-0.9770
G01 X-33.8620 Y-0.9945
G01 X-33.8367 Y-1.0097
G01 X-33.8123 Y-1.0213
G01 X-33.7800 Y-1.0329
G01 X-33.7538 Y-1.0394
G01 X-33.7247 Y-1.0437
G01 X-33.6952 Y-1.0451
G01 X-33.6658 Y-1.0437
G01 X-33.6367 Y-1.0394
G01 X-33.6105 Y-1.0329
G01 X-33.5781 Y-1.0213
G01 X-33.5538 Y-1.0097
G01 X-33.5285 Y-0.9945
G01 X-33.5048 Y-0.9770
G01 X-33.4830 Y-0.9572
G01 X-33.4632 Y-0.9354
G01 X-33.4471 Y-0.9137
G01 X-33.4294 Y-0.8843
G01 X-33.4180 Y-0.8599
G01 X-33.4080 Y-0.8321
G01 X-33.4009 Y-0.8036
G01 X-33.3966 Y-0.7744
G00 Z2.0000
G00 X-32.8512 Y-2.0025
G01 F60.00
G01 Z0.0000
G01 F60.00
G01 X-32.8525 Y-2.0307
G01 X-32.8525 Y-4.3164
G01 X-32.8509 Y-4.3471
G01 X-32.8467 Y-4.3750
G01 X-32.8396 Y-4.4036
G01 X-32.8297 Y-4.4313
G01 X-32.8171 Y-4.4579
G01 X-32.8019 Y-4.4832
G01 X-32.7844 Y-4.5068
G01 X-32.7646 Y-4.5287
G01 X-32.7428 Y-4.5484
G01 X-32.7191 Y-4.5660
G01 X-32.6939 Y-4.5811
G01 X-32.6672 Y-4.5937
G01 X-32.6395 Y-4.6036
G01 X-32.6109 Y-4.6108
G01 X-32.5818 Y-4.6151
G01 X-32.5524 Y-4.6166
G01 X-32.5218 Y-4.6150
G01 X-32.4938 Y-4.6108
G01 X-32.4653 Y-4.6036
G01 X-32.4375 Y-4.5937
G01 X-32.4131 Y-4.5822
G01 X-32.3836 Y-4.5646
G01 X-32.3620 Y-4.5484
G01 X-32.3402 Y-4.5287
G01 X-32.3204 Y-4.5068
G01 X-32.3043 Y-4.4852
G01 X-32.2866 Y-4.4557
G01 X-32.2751 Y-4.4313
G01 X-32.2652 Y-4.4036
G01 X-32.2580 Y-4.3750
G01 X-32.2537 Y-4.3458
G01 X-32.2523 Y-4.3164
G01 X-32.2523 Y-2.0307
G01 X-32.2538 Y-2.0001
G01 X-32.2580 Y-1.9722
G01 X-32.2652 Y-1.9436
G01 X-32.2751 Y-1.9159
G01 X-32.2877 Y-1.8892
G01 X-32.3028 Y-1.8640
G01 X-32.3204 Y-1.8403
G01 X-32.3402 Y-1.8185
G01 X-32.3601 Y-1.8003
G01 X-32.3877 Y-1.7799
G01 X-32.4109 Y-1.7660
G01 X-32.4398 Y-1.7525
G01 X-32.4653 Y-1.7435
G01 X-32.4938 Y-1.7364
G01 X-32.5230 Y-1.7320
G01 X-32.5524 Y-1.7306
G01 X-32.5818 Y-1.7320
G01 X-32.6109 Y-1.7364
G01 X-32.6395 Y-1.7435
G01 X-32.6672 Y-1.7534
G01 X-32.6939 Y-1.7660
G01 X-32.7191 Y-1.7812
G01 X-32.7428 Y-1.7987
G01 X-32.7628 Y-1.8168
G01 X-32.7859 Y-1.8422
G01 X-32.8019 Y-1.8640
G01 X-32.8182 Y-1.8914
G01 X-32.8297 Y-1.9159
G01 X-32.8396 Y-1.9436
G01 X-32.8467 Y-1.9722
G01 X-32.8512 Y-2.0025
G00 Z2.0000
G00 X-34.3212 Y-2.0537
G01 F60.00
G01 Z0.0000
G01 F60.00
G01 X-34.3402 Y-2.0328
G01 X-34.7696 Y-1.6034
G01 X-34.7906 Y-1.5844
G01 X-34.8142 Y-1.5669
G01 X-34.8395 Y-1.5517
G01 X-34.8672 Y-1.5387
G01 X-34.8938 Y-1.5292
G01 X-34.9224 Y-1.5221
G01 X-34.9515 Y-1.5178
G01 X-34.9810 Y-1.5163
G01 X-35.0104 Y-1.5178
G01 X-35.0395 Y-1.5221
G01 X-35.0681 Y-1.5292
G01 X-35.0958 Y-1.5392
G01 X-35.1224 Y-1.5517
G01 X-35.1477 Y-1.5669
G01 X-35.1714 Y-1.5844
G01 X-35.1932 Y-1.6042
G01 X-35.2130 Y-1.6260
G01 X-35.2305 Y-1.6497
G01 X-35.2456 Y-1.6750
G01 X-35.2587 Y-1.7027
G01 X-35.2688 Y-1.7317
G01 X-35.2753 Y-1.7579
G01 X-35.2793 Y-1.7846
G01 X-35.2811 Y-1.8164
G01 X-35.2796 Y-1.8458
G01 X-35.2748 Y-1.8774
G01 X-35.2682 Y-1.9036
G01 X-35.2591 Y-1.9290
G01 X-35.2456 Y-1.9579
G01 X-35.2298 Y-1.9842
G01 X-35.2130 Y-2.0068
G01 X-35.1932 Y-2.0287
G01 X-34.7637 Y-2.4581
G01 X-34.7428 Y-2.4770
G01 X-34.7191 Y-2.4945
G01 X-34.6939 Y-2.5097
G01 X-34.6661 Y-2.5227
G01 X-34.6395 Y-2.5322
G01 X-34.6109 Y-2.5394
G01 X-34.5818 Y-2.5437
G01 X-34.5548 Y-2.5451
G01 X-34.5205 Y-2.5434
G01 X-34.4938 Y-2.5394
G01 X-34.4653 Y-2.5322
G01 X-34.4375 Y-2.5223
G01 X-34.4131 Y-2.5108
G01 X-34.3836 Y-2.4931
G01 X-34.3620 Y-2.4770
G01 X-34.3402 Y-2.4572
G01 X-34.3204 Y-2.4354
G01 X-34.3043 Y-2.4137
G01 X-34.2866 Y-2.3843
G01 X-34.2751 Y-2.3599
G01 X-34.2652 Y-2.3321
G01 X-34.2580 Y-2.3036
G01 X-34.2540 Y-2.2769
G01 X-34.2523 Y-2.2425
G01 X-34.2537 Y-2.2156
G01 X-34.2580 Y-2.1864
G01 X-34.2652 Y-2.1579
G01 X-34.2742 Y-2.1324
G01 X-34.2889 Y-2.1014
G01 X-34.3028 Y-2.0783
G01 X-34.3212 Y-2.0537
G00 Z2.0000
G00 X-38.3966 Y-2.7030
G01 F60.00
G01 Z0.0000
G01 F60.00
G01 X-38.3951 Y-2.6736
G01 X-38.3951 Y-1.5451
G01 X-37.4239 Y-1.5451
G01 X-37.4239 Y-2.2462
G01 X-37.4225 Y-2.2744
G01 X-37.4186 Y-2.3011
G01 X-37.4110 Y-2.3321
G01 X-37.4011 Y-2.3599
G01 X-37.3896 Y-2.3843
G01 X-37.3719 Y-2.4137
G01 X-37.3558 Y-2.4354
G01 X-37.3360 Y-2.4572
G01 X-37.3142 Y-2.4770
G01 X-37.2926 Y-2.4931
G01 X-37.2631 Y-2.5108
G01 X-37.2387 Y-2.5223
G01 X-37.2109 Y-2.5322
G01 X-37.1824 Y-2.5394
G01 X-37.1557 Y-2.5434
G01 X-37.1238 Y-2.5451
G01 X-37.0920 Y-2.5434
G01 X-37.0653 Y-2.5394
G01 X-37.0367 Y-2.5322
G01 X-37.0090 Y-2.5223
G01 X-36.9845 Y-2.5108
G01 X-36.9551 Y-2.4931
G01 X-36.9334 Y-2.4770
G01 X-36.9116 Y-2.4572
G01 X-36.8918 Y-2.4354
G01 X-36.8757 Y-2.4137
G01 X-36.8580 Y-2.3843
G01 X-36.8465 Y-2.3599
G01 X-36.8366 Y-2.3321
G01 X-36.8290 Y-2.3011
G01 X-36.8251 Y-2.2744
G01 X-36.8237 Y-2.2462
G01 X-36.8237 Y-1.5451
G01 X-35.9954 Y-1.5451
G01 X-35.9954 Y-2.6736
G01 X-35.9939 Y-2.7030
G01 X-35.9900 Y-2.7297
G01 X-35.9821 Y-2.7619
G01 X-35.9725 Y-2.7884
G01 X-35.9587 Y-2.8172
G01 X-35.9448 Y-2.8403
G01 X-35.9287 Y-2.8620
G01 X-35.9092 Y-2.8840
G01 X-35.8856 Y-2.9056
G01 X-35.8620 Y-2.9231
G01 X-35.8367 Y-2.9383
G01 X-35.8101 Y-2.9508
G01 X-35.7824 Y-2.9608
G01 X-35.7538 Y-2.9679
G01 X-35.7247 Y-2.9722
G01 X-35.6928 Y-2.9736
G01 X-35.6658 Y-2.9722
G01 X-35.6391 Y-2.9683
G01 X-35.6105 Y-2.9614
G01 X-35.5804 Y-2.9508
G01 X-35.5538 Y-2.9383
G01 X-35.5285 Y-2.9231
G01 X-35.5030 Y-2.9040
G01 X-35.4830 Y-2.8858
G01 X-35.4648 Y-2.8658
G01 X-35.4457 Y-2.8403
G01 X-35.4294 Y-2.8129
G01 X-35.4180 Y-2.7884
G01 X-35.4088 Y-2.7630
G01 X-35.4009 Y-2.7321
G01 X-35.3965 Y-2.7018
G01 X-35.3951 Y-2.6736
G01 X-35.3951 Y-1.2438
G01 X-35.3969 Y-1.2131
G01 X-35.4009 Y-1.1864
G01 X-35.4074 Y-1.1602
G01 X-35.4180 Y-1.1301
G01 X-35.4306 Y-1.1035
G01 X-35.4471 Y-1.0763
G01 X-35.4632 Y-1.0546
G01 X-35.4813 Y-1.0346
G01 X-35.5048 Y-1.0130
G01 X-35.5306 Y-0.9941
G01 X-35.5538 Y-0.9803
G01 X-35.5781 Y-0.9687
G01 X-35.6081 Y-0.9578
G01 X-35.6391 Y-0.9502
G01 X-35.6658 Y-0.9463
G01 X-35.6940 Y-0.9449
G01 X-38.6952 Y-0.9449
G01 X-38.7247 Y-0.9463
G01 X-38.7562 Y-0.9512
G01 X-38.7824 Y-0.9578
G01 X-38.8078 Y-0.9668
G01 X-38.8367 Y-0.9803
G01 X-38.8620 Y-0.9955
G01 X-38.8875 Y-1.0146
G01 X-38.9075 Y-1.0328
G01 X-38.9256 Y-1.0527
G01 X-38.9448 Y-1.0783
G01 X-38.9610 Y-1.1057
G01 X-38.9725 Y-1.1301
G01 X-38.9817 Y-1.1555
G01 X-38.9896 Y-1.1864
G01 X-38.9940 Y-1.2168
G01 X-38.9954 Y-1.2450
G01 X-38.9954 Y-2.6736
G01 X-38.9936 Y-2.7054
G01 X-38.9896 Y-2.7321
G01 X-38.9831 Y-2.7583
G01 X-38.9725 Y-2.7884
G01 X-38.9610 Y-2.8129
G01 X-38.9434 Y-2.8423
G01 X-38.9272 Y-2.8640
G01 X-38.9075 Y-2.8858
G01 X-38.8856 Y-2.9056
G01 X-38.8620 Y-2.9231
G01 X-38.8367 Y-2.9383
G01 X-38.8101 Y-2.9508
G01 X-38.7824 Y-2.9608
G01 X-38.7562 Y-2.9674
G01 X-38.7222 Y-2.9724
G01 X-38.6952 Y-2.9737
G01 X-38.6658 Y-2.9722
G01 X-38.6367 Y-2.9679
G01 X-38.6105 Y-2.9614
G01 X-38.5781 Y-2.9499
G01 X-38.5538 Y-2.9383
G01 X-38.5285 Y-2.9231
G01 X-38.5048 Y-2.9056
G01 X-38.4830 Y-2.8858
G01 X-38.4632 Y-2.8640
G01 X-38.4471 Y-2.8423
G01 X-38.4294 Y-2.8129
G01 X-38.4180 Y-2.7884
G01 X-38.4080 Y-2.7607
G01 X-38.4009 Y-2.7321
G01 X-38.3966 Y-2.7030
G00 Z2.0000
G00 X-38.8269 Y-3.6952
G01 F60.00
G01 Z0.0000
G01 F60.00
G01 X-38.8371 Y-3.7215
G01 X-38.9800 Y-4.1501
G01 X-38.9885 Y-4.1811
G01 X-38.9935 Y-4.2115
G01 X-38.9954 Y-4.2450
G01 X-38.9954 Y-4.9593
G01 X-38.9938 Y-4.9894
G01 X-38.9902 Y-5.0146
G01 X-38.9838 Y-5.0417
G01 X-38.9750 Y-5.0681
G01 X-38.9647 Y-5.0914
G01 X-38.8208 Y-5.3792
G01 X-38.8049 Y-5.4072
G01 X-38.7861 Y-5.4333
G01 X-38.7655 Y-5.4563
G01 X-38.6218 Y-5.6001
G01 X-38.5978 Y-5.6216
G01 X-38.5706 Y-5.6411
G01 X-38.5437 Y-5.6563
G01 X-38.2580 Y-5.7992
G01 X-38.2326 Y-5.8104
G01 X-38.2051 Y-5.8196
G01 X-38.1769 Y-5.8261
G01 X-38.1516 Y-5.8295
G01 X-38.1250 Y-5.8308
G01 X-37.8381 Y-5.8308
G01 X-37.8103 Y-5.8295
G01 X-37.7828 Y-5.8257
G01 X-37.7557 Y-5.8193
G01 X-37.7282 Y-5.8100
G01 X-37.7039 Y-5.7992
G01 X-37.4182 Y-5.6563
G01 X-37.3891 Y-5.6397
G01 X-37.3641 Y-5.6216
G01 X-37.3402 Y-5.6001
G01 X-37.1964 Y-5.4563
G01 X-37.1758 Y-5.4333
G01 X-37.1585 Y-5.4094
G01 X-37.1556 Y-5.4049
G01 X-37.1411 Y-5.3792
G01 X-36.9976 Y-5.0923
G01 X-36.9852 Y-5.0634
G01 X-36.9755 Y-5.0321
G01 X-36.8406 Y-4.4926
G01 X-36.7343 Y-4.2799
G01 X-36.6603 Y-4.2059
G01 X-36.4815 Y-4.1166
G01 X-36.3375 Y-4.1166
G01 X-36.1587 Y-4.2059
G01 X-36.0848 Y-4.2799
G01 X-35.9954 Y-4.4587
G01 X-35.9954 Y-5.0534
G01 X-36.1228 Y-5.4358
G01 X-36.1312 Y-5.4666
G01 X-36.1359 Y-5.4932
G01 X-36.1381 Y-5.5225
G01 X-36.1375 Y-5.5520
G01 X-36.1343 Y-5.5788
G01 X-36.1269 Y-5.6123
G01 X-36.1184 Y-5.6380
G01 X-36.1065 Y-5.6649
G01 X-36.0921 Y-5.6906
G01 X-36.0767 Y-5.7127
G01 X-36.0560 Y-5.7371
G01 X-36.0329 Y-5.7590
G01 X-36.0116 Y-5.7756
G01 X-35.9888 Y-5.7902
G01 X-35.9605 Y-5.8048
G01 X-35.9307 Y-5.8162
G01 X-35.9046 Y-5.8234
G01 X-35.8781 Y-5.8281
G01 X-35.8463 Y-5.8307
G01 X-35.8144 Y-5.8298
G01 X-35.7876 Y-5.8266
G01 X-35.7612 Y-5.8208
G01 X-35.7308 Y-5.8110
G01 X-35.7017 Y-5.7980
G01 X-35.6782 Y-5.7847
G01 X-35.6561 Y-5.7693
G01 X-35.6317 Y-5.7486
G01 X-35.6098 Y-5.7255
G01 X-35.5932 Y-5.7042
G01 X-35.5780 Y-5.6804
G01 X-35.5641 Y-5.6531
G01 X-35.5534 Y-5.6256
G01 X-35.4105 Y-5.1970
G01 X-35.4020 Y-5.1660
G01 X-35.3970 Y-5.1356
G01 X-35.3951 Y-5.1021
G01 X-35.3951 Y-4.3879
G01 X-35.3965 Y-4.3589
G01 X-35.4003 Y-4.3325
G01 X-35.4067 Y-4.3054
G01 X-35.4155 Y-4.2791
G01 X-35.4258 Y-4.2557
G01 X-35.5697 Y-3.9679
G01 X-35.5856 Y-3.9400
G01 X-35.6044 Y-3.9139
G01 X-35.6250 Y-3.8909
G01 X-35.7687 Y-3.7471
G01 X-35.7927 Y-3.7256
G01 X-35.8199 Y-3.7061
G01 X-35.8467 Y-3.6909
G01 X-36.1324 Y-3.5480
G01 X-36.1579 Y-3.5367
G01 X-36.1854 Y-3.5275
G01 X-36.2136 Y-3.5211
G01 X-36.2389 Y-3.5176
G01 X-36.2655 Y-3.5163
G01 X-36.5524 Y-3.5163
G01 X-36.5802 Y-3.5176
G01 X-36.6077 Y-3.5215
G01 X-36.6348 Y-3.5278
G01 X-36.6623 Y-3.5371
G01 X-36.6866 Y-3.5480
G01 X-36.9723 Y-3.6909
G01 X-37.0014 Y-3.7075
G01 X-37.0264 Y-3.7256
G01 X-37.0503 Y-3.7471
G01 X-37.1941 Y-3.8909
G01 X-37.2147 Y-3.9139
G01 X-37.2320 Y-3.9377
G01 X-37.2349 Y-3.9423
G01 X-37.2494 Y-3.9679
G01 X-37.3928 Y-4.2549
G01 X-37.4053 Y-4.2837
G01 X-37.4150 Y-4.3151
G01 X-37.5498 Y-4.8545
G01 X-37.6562 Y-5.0672
G01 X-37.7302 Y-5.1412
G01 X-37.9089 Y-5.2306
G01 X-38.0530 Y-5.2306
G01 X-38.2318 Y-5.1412
G01 X-38.3057 Y-5.0672
G01 X-38.3951 Y-4.8884
G01 X-38.3951 Y-4.2937
G01 X-38.2677 Y-3.9113
G01 X-38.2592 Y-3.8806
G01 X-38.2546 Y-3.8540
G01 X-38.2524 Y-3.8246
G01 X-38.2530 Y-3.7952
G01 X-38.2562 Y-3.7683
G01 X-38.2636 Y-3.7348
G01 X-38.2721 Y-3.7092
G01 X-38.2840 Y-3.6822
G01 X-38.2984 Y-3.6565
G01 X-38.3138 Y-3.6344
G01 X-38.3345 Y-3.6101
G01 X-38.3576 Y-3.5881
G01 X-38.3789 Y-3.5715
G01 X-38.4038 Y-3.5557
G01 X-38.4323 Y-3.5414
G01 X-38.4575 Y-3.5317
G01 X-38.4859 Y-3.5238
G01 X-38.5173 Y-3.5184
G01 X-38.5442 Y-3.5164
G01 X-38.5712 Y-3.5169
G01 X-38.6029 Y-3.5206
G01 X-38.6340 Y-3.5277
G01 X-38.6597 Y-3.5361
G01 X-38.6844 Y-3.5469
G01 X-38.7143 Y-3.5638
G01 X-38.7364 Y-3.5793
G01 X-38.7569 Y-3.5969
G01 X-38.7791 Y-3.6198
G01 X-38.7973 Y-3.6430
G01 X-38.8119 Y-3.6657
G01 X-38.8269 Y-3.6952
G00 Z2.0000
G00 X-38.3966 Y-0.2744
G01 F60.00
G01 Z0.0000
G01 F60.00
G01 X-38.3951 Y-0.2450
G01 X-38.3951 Y0.8834
G01 X-35.6952 Y0.8834
G01 X-35.6658 Y0.8849
G01 X-35.6391 Y0.8888
G01 X-35.6081 Y0.8964
G01 X-35.5781 Y0.9073
G01 X-35.5538 Y0.9189
G01 X-35.5306 Y0.9327
G01 X-35.5068 Y0.9501
G01 X-35.4830 Y0.9713
G01 X-35.4632 Y0.9932
G01 X-35.4457 Y1.0168
G01 X-35.4294 Y1.0443
G01 X-35.4171 Y1.0710
G01 X-35.4080 Y1.0964
G01 X-35.4014 Y1.1226
G01 X-35.3966 Y1.1542
G01 X-35.3951 Y1.1836
G01 X-35.3966 Y1.2130
G01 X-35.4014 Y1.2445
G01 X-35.4080 Y1.2707
G01 X-35.4171 Y1.2961
G01 X-35.4306 Y1.3250
G01 X-35.4471 Y1.3523
G01 X-35.4632 Y1.3740
G01 X-35.4813 Y1.3940
G01 X-35.5048 Y1.4156
G01 X-35.5306 Y1.4344
G01 X-35.5538 Y1.4483
G01 X-35.5781 Y1.4599
G01 X-35.6081 Y1.4708
G01 X-35.6391 Y1.4783
G01 X-35.6658 Y1.4822
G01 X-35.6940 Y1.4837
G01 X-38.6952 Y1.4837
G01 X-38.7247 Y1.4822
G01 X-38.7562 Y1.4774
G01 X-38.7824 Y1.4708
G01 X-38.8078 Y1.4617
G01 X-38.8367 Y1.4483
G01 X-38.8620 Y1.4331
G01 X-38.8875 Y1.4140
G01 X-38.9075 Y1.3958
G01 X-38.9256 Y1.3758
G01 X-38.9448 Y1.3503
G01 X-38.9610 Y1.3229
G01 X-38.9725 Y1.2984
G01 X-38.9817 Y1.2730
G01 X-38.9896 Y1.2421
G01 X-38.9940 Y1.2118
G01 X-38.9954 Y1.1836
G01 X-38.9954 Y-0.2450
G01 X-38.9936 Y-0.2769
G01 X-38.9896 Y-0.3036
G01 X-38.9831 Y-0.3298
G01 X-38.9725 Y-0.3599
G01 X-38.9610 Y-0.3843
G01 X-38.9434 Y-0.4137
G01 X-38.9272 Y-0.4354
G01 X-38.9075 Y-0.4572
G01 X-38.8856 Y-0.4770
G01 X-38.8620 Y-0.4945
G01 X-38.8367 Y-0.5097
G01 X-38.8123 Y-0.5213
G01 X-38.7800 Y-0.5329
G01 X-38.7538 Y-0.5394
G01 X-38.7247 Y-0.5437
G01 X-38.6952 Y-0.5451
G01 X-38.6658 Y-0.5437
G01 X-38.6367 Y-0.5394
G01 X-38.6105 Y-0.5329
G01 X-38.5781 Y-0.5213
G01 X-38.5538 Y-0.5097
G01 X-38.5285 Y-0.4945
G01 X-38.5048 Y-0.4770
G01 X-38.4830 Y-0.4572
G01 X-38.4632 Y-0.4354
G01 X-38.4471 Y-0.4137
G01 X-38.4294 Y-0.3843
G01 X-38.4180 Y-0.3599
G01 X-38.4080 Y-0.3321
G01 X-38.4009 Y-0.3036
G01 X-38.3966 Y-0.2744
G00 Z2.0000
G00 X-38.3966 Y2.4399
G01 F60.00
G01 Z0.0000
G01 F60.00
G01 X-38.3951 Y2.4693
G01 X-38.3951 Y3.5977
G01 X-37.4239 Y3.5977
G01 X-37.4239 Y2.8966
G01 X-37.4225 Y2.8684
G01 X-37.4186 Y2.8417
G01 X-37.4110 Y2.8107
G01 X-37.4011 Y2.7830
G01 X-37.3896 Y2.7586
G01 X-37.3719 Y2.7291
G01 X-37.3558 Y2.7075
G01 X-37.3360 Y2.6856
G01 X-37.3142 Y2.6659
G01 X-37.2926 Y2.6497
G01 X-37.2631 Y2.6321
G01 X-37.2387 Y2.6206
G01 X-37.2109 Y2.6107
G01 X-37.1824 Y2.6035
G01 X-37.1557 Y2.5995
G01 X-37.1238 Y2.5977
G01 X-37.0920 Y2.5995
G01 X-37.0653 Y2.6035
G01 X-37.0367 Y2.6107
G01 X-37.0090 Y2.6206
G01 X-36.9845 Y2.6321
G01 X-36.9551 Y2.6497
G01 X-36.9334 Y2.6659
G01 X-36.9116 Y2.6856
G01 X-36.8918 Y2.7075
G01 X-36.8757 Y2.7291
G01 X-36.8580 Y2.7586
G01 X-36.8465 Y2.7830
G01 X-36.8366 Y2.8107
G01 X-36.8290 Y2.8417
G01 X-36.8251 Y2.8684
G01 X-36.8237 Y2.8966
G01 X-36.8237 Y3.5977
G01 X-35.9954 Y3.5977
G01 X-35.9954 Y2.4693
G01 X-35.9939 Y2.4399
G01 X-35.9900 Y2.4132
G01 X-35.9821 Y2.3810
G01 X-35.9725 Y2.3544
G01 X-35.9587 Y2.3257
G01 X-35.9448 Y2.3025
G01 X-35.9287 Y2.2808
G01 X-35.9092 Y2.2588
G01 X-35.8856 Y2.2373
G01 X-35.8620 Y2.2197
G01 X-35.8367 Y2.2046
G01 X-35.8101 Y2.1920
G01 X-35.7824 Y2.1821
G01 X-35.7538 Y2.1749
G01 X-35.7247 Y2.1706
G01 X-35.6928 Y2.1692
G01 X-35.6658 Y2.1706
G01 X-35.6391 Y2.1745
G01 X-35.6105 Y2.1814
G01 X-35.5804 Y2.1920
G01 X-35.5538 Y2.2046
G01 X-35.5285 Y2.2197
G01 X-35.5030 Y2.2389
G01 X-35.4830 Y2.2571
G01 X-35.4648 Y2.2770
G01 X-35.4457 Y2.3025
G01 X-35.4294 Y2.3300
G01 X-35.4180 Y2.3544
G01 X-35.4088 Y2.3798
G01 X-35.4009 Y2.4107
G01 X-35.3965 Y2.4411
G01 X-35.3951 Y2.4693
G01 X-35.3951 Y3.8991
G01 X-35.3969 Y3.9297
G01 X-35.4009 Y3.9564
G01 X-35.4074 Y3.9826
G01 X-35.4180 Y4.0127
G01 X-35.4306 Y4.0393
G01 X-35.4471 Y4.0666
G01 X-35.4632 Y4.0883
G01 X-35.4813 Y4.1083
G01 X-35.5048 Y4.1299
G01 X-35.5306 Y4.1487
G01 X-35.5538 Y4.1625
G01 X-35.5781 Y4.1741
G01 X-35.6081 Y4.1851
G01 X-35.6391 Y4.1926
G01 X-35.6658 Y4.1965
G01 X-35.6940 Y4.1980
G01 X-38.6952 Y4.1980
G01 X-38.7247 Y4.1965
G01 X-38.7562 Y4.1917
G01 X-38.7824 Y4.1851
G01 X-38.8078 Y4.1760
G01 X-38.8367 Y4.1625
G01 X-38.8620 Y4.1474
G01 X-38.8875 Y4.1283
G01 X-38.9075 Y4.1101
G01 X-38.9256 Y4.0901
G01 X-38.9448 Y4.0646
G01 X-38.9610 Y4.0371
G01 X-38.9725 Y4.0127
G01 X-38.9817 Y3.9873
G01 X-38.9896 Y3.9564
G01 X-38.9940 Y3.9261
G01 X-38.9954 Y3.8979
G01 X-38.9954 Y2.4693
G01 X-38.9936 Y2.4374
G01 X-38.9896 Y2.4107
G01 X-38.9831 Y2.3845
G01 X-38.9725 Y2.3544
G01 X-38.9610 Y2.3300
G01 X-38.9434 Y2.3005
G01 X-38.9272 Y2.2789
G01 X-38.9075 Y2.2571
G01 X-38.8856 Y2.2373
G01 X-38.8620 Y2.2197
G01 X-38.8367 Y2.2046
G01 X-38.8101 Y2.1920
G01 X-38.7824 Y2.1821
G01 X-38.7562 Y2.1755
G01 X-38.7222 Y2.1704
G01 X-38.6952 Y2.1692
G01 X-38.6658 Y2.1706
G01 X-38.6367 Y2.1749
G01 X-38.6105 Y2.1814
G01 X-38.5781 Y2.1930
G01 X-38.5538 Y2.2046
G01 X-38.5285 Y2.2197
G01 X-38.5048 Y2.2373
G01 X-38.4830 Y2.2571
G01 X-38.4632 Y2.2789
G01 X-38.4471 Y2.3005
G01 X-38.4294 Y2.3300
G01 X-38.4180 Y2.3544
G01 X-38.4080 Y2.3822
G01 X-38.4009 Y2.4107
G01 X-38.3966 Y2.4399
G00 Z2.0000
G00 X-33.3966 Y-7.2030
G01 F60.00
G01 Z0.0000
G01 F60.00
G01 X-33.3951 Y-7.1736
G01 X-33.3951 Y-6.0451
G01 X-32.4239 Y-6.0451
G01 X-32.4239 Y-6.7462
G01 X-32.4225 Y-6.7744
G01 X-32.4186 Y-6.8011
G01 X-32.4110 Y-6.8321
G01 X-32.4011 Y-6.8599
G01 X-32.3896 Y-6.8843
G01 X-32.3719 Y-6.9137
G01 X-32.3558 Y-6.9354
G01 X-32.3360 Y-6.9572
G01 X-32.3142 Y-6.9770
G01 X-32.2926 Y-6.9931
G01 X-32.2631 Y-7.0108
G01 X-32.2387 Y-7.0223
G01 X-32.2109 Y-7.0322
G01 X-32.1824 Y-7.0394
G01 X-32.1557 Y-7.0434
G01 X-32.1238 Y-7.0451
G01 X-32.0944 Y-7.0437
G01 X-32.0677 Y-7.0398
G01 X-32.0344 Y-7.0314
G01 X-32.0090 Y-7.0223
G01 X-31.9823 Y-7.0097
G01 X-31.9571 Y-6.9945
G01 X-31.9353 Y-6.9785
G01 X-31.9099 Y-6.9554
G01 X-31.8918 Y-6.9354
G01 X-31.8743 Y-6.9117
G01 X-31.8591 Y-6.8865
G01 X-31.8475 Y-6.8621
G01 X-31.8366 Y-6.8321
G01 X-31.8290 Y-6.8011
G01 X-31.8251 Y-6.7744
G01 X-31.8237 Y-6.7462
G01 X-31.8237 Y-6.0451
G01 X-30.9954 Y-6.0451
G01 X-30.9954 Y-7.1736
G01 X-30.9939 Y-7.2030
G01 X-30.9900 Y-7.2297
G01 X-30.9821 Y-7.2619
G01 X-30.9725 Y-7.2884
G01 X-30.9587 Y-7.3172
G01 X-30.9448 Y-7.3403
G01 X-30.9287 Y-7.3620
G01 X-30.9092 Y-7.3840
G01 X-30.8856 Y-7.4056
G01 X-30.8620 Y-7.4231
G01 X-30.8367 Y-7.4383
G01 X-30.8101 Y-7.4508
G01 X-30.7824 Y-7.4608
G01 X-30.7514 Y-7.4683
G01 X-30.7247 Y-7.4722
G01 X-30.6977 Y-7.4736
G01 X-30.6683 Y-7.4724
G01 X-30.6367 Y-7.4679
G01 X-30.6081 Y-7.4608
G01 X-30.5804 Y-7.4508
G01 X-30.5538 Y-7.4383
G01 X-30.5265 Y-7.4217
G01 X-30.5048 Y-7.4056
G01 X-30.4848 Y-7.3875
G01 X-30.4632 Y-7.3640
G01 X-30.4457 Y-7.3403
G01 X-30.4294 Y-7.3129
G01 X-30.4180 Y-7.2884
G01 X-30.4088 Y-7.2630
G01 X-30.4009 Y-7.2321
G01 X-30.3965 Y-7.2018
G01 X-30.3951 Y-7.1736
G01 X-30.3951 Y-5.7438
G01 X-30.3969 Y-5.7131
G01 X-30.4009 Y-5.6864
G01 X-30.4074 Y-5.6602
G01 X-30.4180 Y-5.6301
G01 X-30.4306 Y-5.6035
G01 X-30.4471 Y-5.5763
G01 X-30.4632 Y-5.5546
G01 X-30.4813 Y-5.5346
G01 X-30.5048 Y-5.5130
G01 X-30.5306 Y-5.4941
G01 X-30.5538 Y-5.4803
G01 X-30.5781 Y-5.4687
G01 X-30.6081 Y-5.4578
G01 X-30.6391 Y-5.4502
G01 X-30.6658 Y-5.4463
G01 X-30.6940 Y-5.4449
G01 X-33.6952 Y-5.4449
G01 X-33.7247 Y-5.4463
G01 X-33.7562 Y-5.4512
G01 X-33.7824 Y-5.4578
G01 X-33.8078 Y-5.4668
G01 X-33.8367 Y-5.4803
G01 X-33.8620 Y-5.4955
G01 X-33.8875 Y-5.5146
G01 X-33.9075 Y-5.5328
G01 X-33.9256 Y-5.5527
G01 X-33.9448 Y-5.5783
G01 X-33.9610 Y-5.6057
G01 X-33.9725 Y-5.6301
G01 X-33.9817 Y-5.6555
G01 X-33.9896 Y-5.6864
G01 X-33.9940 Y-5.7168
G01 X-33.9954 Y-5.7450
G01 X-33.9954 Y-7.1736
G01 X-33.9936 Y-7.2054
G01 X-33.9896 Y-7.2321
G01 X-33.9831 Y-7.2583
G01 X-33.9725 Y-7.2884
G01 X-33.9610 Y-7.3129
G01 X-33.9434 Y-7.3423
G01 X-33.9272 Y-7.3640
G01 X-33.9075 Y-7.3858
G01 X-33.8856 Y-7.4056
G01 X-33.8620 Y-7.4231
G01 X-33.8367 Y-7.4383
G01 X-33.8101 Y-7.4508
G01 X-33.7824 Y-7.4608
G01 X-33.7562 Y-7.4674
G01 X-33.7222 Y-7.4724
G01 X-33.6952 Y-7.4737
G01 X-33.6658 Y-7.4722
G01 X-33.6367 Y-7.4679
G01 X-33.6105 Y-7.4614
G01 X-33.5781 Y-7.4499
G01 X-33.5538 Y-7.4383
G01 X-33.5285 Y-7.4231
G01 X-33.5048 Y-7.4056
G01 X-33.4830 Y-7.3858
G01 X-33.4632 Y-7.3640
G01 X-33.4471 Y-7.3423
G01 X-33.4294 Y-7.3129
G01 X-33.4180 Y-7.2884
G01 X-33.4080 Y-7.2607
G01 X-33.4009 Y-7.2321
G01 X-33.3966 Y-7.2030
G00 Z2.0000
G00 X-33.7247 Y-8.7580
G01 F60.00
G01 Z0.0000
G01 F60.00
G01 X-33.6952 Y-8.7594
G01 X-31.8254 Y-8.7594
G01 X-33.8441 Y-9.9130
G01 X-33.8687 Y-9.9287
G01 X-33.8916 Y-9.9466
G01 X-33.9144 Y-9.9685
G01 X-33.9318 Y-9.9888
G01 X-33.9472 Y-10.0106
G01 X-33.9630 Y-10.0379
G01 X-33.9749 Y-10.0645
G01 X-33.9847 Y-10.0945
G01 X-33.9906 Y-10.1206
G01 X-33.9941 Y-10.1471
G01 X-33.9953 Y-10.1786
G01 X-33.9931 Y-10.2101
G01 X-33.9881 Y-10.2388
G01 X-33.9812 Y-10.2646
G01 X-33.9720 Y-10.2896
G01 X-33.9583 Y-10.3181
G01 X-33.9416 Y-10.3449
G01 X-33.9254 Y-10.3661
G01 X-33.9074 Y-10.3858
G01 X-33.8839 Y-10.4070
G01 X-33.8584 Y-10.4254
G01 X-33.8353 Y-10.4390
G01 X-33.8112 Y-10.4504
G01 X-33.7815 Y-10.4610
G01 X-33.7532 Y-10.4681
G01 X-33.7243 Y-10.4723
G01 X-33.6952 Y-10.4737
G01 X-30.6928 Y-10.4736
G01 X-30.6658 Y-10.4722
G01 X-30.6391 Y-10.4683
G01 X-30.6081 Y-10.4608
G01 X-30.5781 Y-10.4499
G01 X-30.5538 Y-10.4383
G01 X-30.5285 Y-10.4231
G01 X-30.5048 Y-10.4056
G01 X-30.4848 Y-10.3875
G01 X-30.4632 Y-10.3640
G01 X-30.4444 Y-10.3382
G01 X-30.4306 Y-10.3150
G01 X-30.4190 Y-10.2907
G01 X-30.4080 Y-10.2607
G01 X-30.4009 Y-10.2321
G01 X-30.3966 Y-10.2030
G01 X-30.3952 Y-10.1711
G01 X-30.3966 Y-10.1442
G01 X-30.4005 Y-10.1174
G01 X-30.4074 Y-10.0888
G01 X-30.4180 Y-10.0587
G01 X-30.4306 Y-10.0321
G01 X-30.4457 Y-10.0068
G01 X-30.4632 Y-9.9832
G01 X-30.4830 Y-9.9613
G01 X-30.5068 Y-9.9401
G01 X-30.5306 Y-9.9227
G01 X-30.5538 Y-9.9089
G01 X-30.5781 Y-9.8973
G01 X-30.6081 Y-9.8864
G01 X-30.6367 Y-9.8792
G01 X-30.6658 Y-9.8749
G01 X-30.6952 Y-9.8734
G01 X-32.5651 Y-9.8734
G01 X-30.5463 Y-8.7199
G01 X-30.5218 Y-8.7042
G01 X-30.4988 Y-8.6862
G01 X-30.4761 Y-8.6643
G01 X-30.4587 Y-8.6440
G01 X-30.4433 Y-8.6223
G01 X-30.4275 Y-8.5949
G01 X-30.4156 Y-8.5683
G01 X-30.4058 Y-8.5383
G01 X-30.3998 Y-8.5123
G01 X-30.3963 Y-8.4858
G01 X-30.3952 Y-8.4543
G01 X-30.3974 Y-8.4228
G01 X-30.4023 Y-8.3941
G01 X-30.4093 Y-8.3683
G01 X-30.4185 Y-8.3432
G01 X-30.4322 Y-8.3148
G01 X-30.4489 Y-8.2880
G01 X-30.4650 Y-8.2667
G01 X-30.4831 Y-8.2470
G01 X-30.5065 Y-8.2259
G01 X-30.5321 Y-8.2074
G01 X-30.5551 Y-8.1939
G01 X-30.5793 Y-8.1825
G01 X-30.6090 Y-8.1718
G01 X-30.6373 Y-8.1648
G01 X-30.6661 Y-8.1606
G01 X-30.6952 Y-8.1592
G01 X-33.6952 Y-8.1592
G01 X-33.7247 Y-8.1606
G01 X-33.7526 Y-8.1647
G01 X-33.7824 Y-8.1721
G01 X-33.8078 Y-8.1811
G01 X-33.8389 Y-8.1958
G01 X-33.8620 Y-8.2097
G01 X-33.8856 Y-8.2273
G01 X-33.9075 Y-8.2471
G01 X-33.9272 Y-8.2689
G01 X-33.9448 Y-8.2925
G01 X-33.9599 Y-8.3178
G01 X-33.9725 Y-8.3444
G01 X-33.9817 Y-8.3698
G01 X-33.9900 Y-8.4032
G01 X-33.9939 Y-8.4299
G01 X-33.9953 Y-8.4617
G01 X-33.9939 Y-8.4887
G01 X-33.9896 Y-8.5178
G01 X-33.9824 Y-8.5464
G01 X-33.9725 Y-8.5741
G01 X-33.9599 Y-8.6008
G01 X-33.9448 Y-8.6260
G01 X-33.9272 Y-8.6497
G01 X-33.9092 Y-8.6697
G01 X-33.8856 Y-8.6913
G01 X-33.8640 Y-8.7074
G01 X-33.8345 Y-8.7251
G01 X-33.8101 Y-8.7366
G01 X-33.7824 Y-8.7465
G01 X-33.7538 Y-8.7536
G01 X-33.7247 Y-8.7580
G00 Z2.0000
G00 X-33.1775 Y-13.1260
G01 F60.00
G01 Z0.0000
G01 F60.00
G01 X-33.1973 Y-13.1042
G01 X-33.2901 Y-13.0114
G01 X-33.3951 Y-12.6963
G01 X-33.3951 Y-12.5080
G01 X-33.2901 Y-12.1928
G01 X-33.0889 Y-11.9917
G01 X-32.8762 Y-11.8853
G01 X-32.3726 Y-11.7594
G01 X-32.0179 Y-11.7594
G01 X-31.5143 Y-11.8853
G01 X-31.3016 Y-11.9917
G01 X-31.1004 Y-12.1928
G01 X-30.9954 Y-12.5080
G01 X-30.9954 Y-12.6963
G01 X-31.1004 Y-13.0114
G01 X-31.1932 Y-13.1042
G01 X-31.2130 Y-13.1260
G01 X-31.2305 Y-13.1497
G01 X-31.2444 Y-13.1728
G01 X-31.2582 Y-13.2016
G01 X-31.2682 Y-13.2293
G01 X-31.2748 Y-13.2555
G01 X-31.2796 Y-13.2870
G01 X-31.2810 Y-13.3189
G01 X-31.2796 Y-13.3458
G01 X-31.2755 Y-13.3738
G01 X-31.2682 Y-13.4036
G01 X-31.2582 Y-13.4313
G01 X-31.2456 Y-13.4579
G01 X-31.2291 Y-13.4852
G01 X-31.2114 Y-13.5087
G01 X-31.1932 Y-13.5287
G01 X-31.1732 Y-13.5468
G01 X-31.1477 Y-13.5660
G01 X-31.1224 Y-13.5811
G01 X-31.0958 Y-13.5937
G01 X-31.0657 Y-13.6043
G01 X-31.0371 Y-13.6112
G01 X-31.0104 Y-13.6151
G01 X-30.9834 Y-13.6165
G01 X-30.9515 Y-13.6151
G01 X-30.9224 Y-13.6108
G01 X-30.8938 Y-13.6036
G01 X-30.8639 Y-13.5927
G01 X-30.8395 Y-13.5811
G01 X-30.8142 Y-13.5660
G01 X-30.7906 Y-13.5484
G01 X-30.7696 Y-13.5295
G01 X-30.6243 Y-13.3841
G01 X-30.6071 Y-13.3652
G01 X-30.5917 Y-13.3449
G01 X-30.5763 Y-13.3204
G01 X-30.5634 Y-13.2944
G01 X-30.5534 Y-13.2685
G01 X-30.4105 Y-12.8399
G01 X-30.4017 Y-12.8076
G01 X-30.3968 Y-12.7771
G01 X-30.3951 Y-12.7450
G01 X-30.3951 Y-12.4579
G01 X-30.3968 Y-12.4272
G01 X-30.4017 Y-12.3967
G01 X-30.4105 Y-12.3644
G01 X-30.5534 Y-11.9358
G01 X-30.5639 Y-11.9088
G01 X-30.5758 Y-11.8849
G01 X-30.5904 Y-11.8613
G01 X-30.6071 Y-11.8391
G01 X-30.6259 Y-11.8185
G01 X-30.9126 Y-11.5318
G01 X-30.9355 Y-11.5113
G01 X-30.9594 Y-11.4940
G01 X-30.9884 Y-11.4772
G01 X-31.2753 Y-11.3337
G01 X-31.3067 Y-11.3202
G01 X-31.3367 Y-11.3110
G01 X-31.9097 Y-11.1678
G01 X-31.9443 Y-11.1614
G01 X-31.9810 Y-11.1592
G01 X-32.4095 Y-11.1592
G01 X-32.4462 Y-11.1614
G01 X-32.4823 Y-11.1681
G01 X-33.0537 Y-11.3110
G01 X-33.0851 Y-11.3207
G01 X-33.1140 Y-11.3331
G01 X-33.4021 Y-11.4772
G01 X-33.4289 Y-11.4925
G01 X-33.4539 Y-11.5105
G01 X-33.4789 Y-11.5328
G01 X-33.7646 Y-11.8185
G01 X-33.7841 Y-11.8400
G01 X-33.8001 Y-11.8613
G01 X-33.8147 Y-11.8849
G01 X-33.8271 Y-11.9098
G01 X-33.8371 Y-11.9358
G01 X-33.9804 Y-12.3657
G01 X-33.9890 Y-12.3980
G01 X-33.9936 Y-12.4272
G01 X-33.9953 Y-12.4579
G01 X-33.9953 Y-12.7463
G01 X-33.9936 Y-12.7771
G01 X-33.9888 Y-12.8076
G01 X-33.9800 Y-12.8399
G01 X-33.8367 Y-13.2696
G01 X-33.8271 Y-13.2944
G01 X-33.8147 Y-13.3194
G01 X-33.8001 Y-13.3430
G01 X-33.7834 Y-13.3652
G01 X-33.7646 Y-13.3858
G01 X-33.6218 Y-13.5287
G01 X-33.5999 Y-13.5484
G01 X-33.5763 Y-13.5660
G01 X-33.5510 Y-13.5811
G01 X-33.5244 Y-13.5937
G01 X-33.4990 Y-13.6029
G01 X-33.4657 Y-13.6112
G01 X-33.4389 Y-13.6151
G01 X-33.4071 Y-13.6165
G01 X-33.3801 Y-13.6151
G01 X-33.3510 Y-13.6108
G01 X-33.3224 Y-13.6036
G01 X-33.2947 Y-13.5937
G01 X-33.2681 Y-13.5811
G01 X-33.2428 Y-13.5660
G01 X-33.2191 Y-13.5484
G01 X-33.1973 Y-13.5287
G01 X-33.1775 Y-13.5068
G01 X-33.1600 Y-13.4832
G01 X-33.1448 Y-13.4579
G01 X-33.1332 Y-13.4335
G01 X-33.1217 Y-13.4012
G01 X-33.1152 Y-13.3750
G01 X-33.1107 Y-13.3434
G01 X-33.1094 Y-13.3164
G01 X-33.1109 Y-13.2870
G01 X-33.1152 Y-13.2579
G01 X-33.1223 Y-13.2293
G01 X-33.1323 Y-13.2016
G01 X-33.1448 Y-13.1750
G01 X-33.1600 Y-13.1497
G01 X-33.1775 Y-13.1260
G00 Z2.0000
G00 X-30.6658 Y-16.0178
G01 F60.00
G01 Z0.0000
G01 F60.00
G01 X-30.6952 Y-16.0163
G01 X-31.8237 Y-16.0163
G01 X-31.8237 Y-14.9023
G01 X-30.6940 Y-14.9023
G01 X-30.6658 Y-14.9008
G01 X-30.6367 Y-14.8965
G01 X-30.6081 Y-14.8893
G01 X-30.5781 Y-14.8784
G01 X-30.5538 Y-14.8668
G01 X-30.5306 Y-14.8530
G01 X-30.5048 Y-14.8341
G01 X-30.4813 Y-14.8126
G01 X-30.4632 Y-14.7925
G01 X-30.4457 Y-14.7689
G01 X-30.4306 Y-14.7436
G01 X-30.4190 Y-14.7192
G01 X-30.4080 Y-14.6893
G01 X-30.4009 Y-14.6607
G01 X-30.3969 Y-14.6340
G01 X-30.3951 Y-14.6021
G01 X-30.3969 Y-14.5703
G01 X-30.4009 Y-14.5436
G01 X-30.4080 Y-14.5150
G01 X-30.4190 Y-14.4850
G01 X-30.4306 Y-14.4607
G01 X-30.4457 Y-14.4354
G01 X-30.4632 Y-14.4117
G01 X-30.4813 Y-14.3917
G01 X-30.5048 Y-14.3701
G01 X-30.5306 Y-14.3513
G01 X-30.5538 Y-14.3375
G01 X-30.5781 Y-14.3259
G01 X-30.6081 Y-14.3149
G01 X-30.6367 Y-14.3078
G01 X-30.6658 Y-14.3035
G01 X-30.6952 Y-14.3020
G01 X-33.6977 Y-14.3021
G01 X-33.7247 Y-14.3035
G01 X-33.7514 Y-14.3074
G01 X-33.7824 Y-14.3149
G01 X-33.8101 Y-14.3249
G01 X-33.8345 Y-14.3363
G01 X-33.8620 Y-14.3526
G01 X-33.8875 Y-14.3717
G01 X-33.9075 Y-14.3899
G01 X-33.9272 Y-14.4117
G01 X-33.9461 Y-14.4375
G01 X-33.9599 Y-14.4607
G01 X-33.9715 Y-14.4850
G01 X-33.9824 Y-14.5150
G01 X-33.9896 Y-14.5436
G01 X-33.9939 Y-14.5727
G01 X-33.9954 Y-14.6021
G01 X-33.9939 Y-14.6316
G01 X-33.9896 Y-14.6607
G01 X-33.9824 Y-14.6893
G01 X-33.9715 Y-14.7192
G01 X-33.9587 Y-14.7458
G01 X-33.9448 Y-14.7689
G01 X-33.9287 Y-14.7906
G01 X-33.9075 Y-14.8144
G01 X-33.8875 Y-14.8325
G01 X-33.8620 Y-14.8517
G01 X-33.8367 Y-14.8668
G01 X-33.8101 Y-14.8794
G01 X-33.7812 Y-14.8897
G01 X-33.7538 Y-14.8965
G01 X-33.7271 Y-14.9005
G01 X-33.6952 Y-14.9023
G01 X-32.4239 Y-14.9023
G01 X-32.4239 Y-16.0163
G01 X-33.6965 Y-16.0163
G01 X-33.7247 Y-16.0178
G01 X-33.7538 Y-16.0221
G01 X-33.7824 Y-16.0292
G01 X-33.8101 Y-16.0392
G01 X-33.8367 Y-16.0517
G01 X-33.8599 Y-16.0656
G01 X-33.8856 Y-16.0844
G01 X-33.9092 Y-16.1060
G01 X-33.9272 Y-16.1260
G01 X-33.9448 Y-16.1497
G01 X-33.9610 Y-16.1771
G01 X-33.9725 Y-16.2016
G01 X-33.9824 Y-16.2293
G01 X-33.9896 Y-16.2579
G01 X-33.9936 Y-16.2846
G01 X-33.9954 Y-16.3164
G01 X-33.9936 Y-16.3483
G01 X-33.9896 Y-16.3750
G01 X-33.9824 Y-16.4036
G01 X-33.9725 Y-16.4313
G01 X-33.9610 Y-16.4557
G01 X-33.9448 Y-16.4832
G01 X-33.9272 Y-16.5068
G01 X-33.9092 Y-16.5269
G01 X-33.8856 Y-16.5484
G01 X-33.8599 Y-16.5673
G01 X-33.8367 Y-16.5811
G01 X-33.8123 Y-16.5927
G01 X-33.7824 Y-16.6036
G01 X-33.7538 Y-16.6108
G01 X-33.7247 Y-16.6151
G01 X-33.6952 Y-16.6166
G01 X-30.6952 Y-16.6166
G01 X-30.6658 Y-16.6151
G01 X-30.6379 Y-16.6110
G01 X-30.6081 Y-16.6036
G01 X-30.5827 Y-16.5946
G01 X-30.5516 Y-16.5799
G01 X-30.5285 Y-16.5660
G01 X-30.5048 Y-16.5484
G01 X-30.4830 Y-16.5287
G01 X-30.4632 Y-16.5068
G01 X-30.4457 Y-16.4832
G01 X-30.4306 Y-16.4579
G01 X-30.4180 Y-16.4313
G01 X-30.4088 Y-16.4059
G01 X-30.4009 Y-16.3750
G01 X-30.3969 Y-16.3483
G01 X-30.3952 Y-16.3140
G01 X-30.3966 Y-16.2870
G01 X-30.4009 Y-16.2579
G01 X-30.4080 Y-16.2293
G01 X-30.4180 Y-16.2016
G01 X-30.4306 Y-16.1750
G01 X-30.4457 Y-16.1497
G01 X-30.4632 Y-16.1260
G01 X-30.4813 Y-16.1060
G01 X-30.5068 Y-16.0829
G01 X-30.5285 Y-16.0669
G01 X-30.5560 Y-16.0506
G01 X-30.5804 Y-16.0392
G01 X-30.6081 Y-16.0292
G01 X-30.6367 Y-16.0221
G01 X-30.6658 Y-16.0178
G00 Z2.0000
G00 X-30.6670 Y-17.4462
G01 F60.00
G01 Z0.0000
G01 F60.00
G01 X-30.6952 Y-17.4449
G01 X-33.1238 Y-17.4449
G01 X-33.1504 Y-17.4461
G01 X-33.1792 Y-17.4500
G01 X-33.2062 Y-17.4564
G01 X-33.2326 Y-17.4653
G01 X-33.2559 Y-17.4756
G01 X-33.5438 Y-17.6194
G01 X-33.5706 Y-17.6346
G01 X-33.5978 Y-17.6541
G01 X-33.6217 Y-17.6756
G01 X-33.7655 Y-17.8194
G01 X-33.7861 Y-17.8424
G01 X-33.8049 Y-17.8685
G01 X-33.8208 Y-17.8965
G01 X-33.9647 Y-18.1843
G01 X-33.9750 Y-18.2076
G01 X-33.9838 Y-18.2340
G01 X-33.9902 Y-18.2611
G01 X-33.9938 Y-18.2863
G01 X-33.9954 Y-18.3164
G01 X-33.9954 Y-18.8879
G01 X-33.9941 Y-18.9156
G01 X-33.9902 Y-18.9432
G01 X-33.9831 Y-18.9725
G01 X-33.9750 Y-18.9966
G01 X-33.9642 Y-19.0210
G01 X-33.8208 Y-19.3078
G01 X-33.8056 Y-19.3346
G01 X-33.7861 Y-19.3619
G01 X-33.7646 Y-19.3858
G01 X-33.6208 Y-19.5296
G01 X-33.5978 Y-19.5501
G01 X-33.5717 Y-19.5690
G01 X-33.5438 Y-19.5849
G01 X-33.2559 Y-19.7287
G01 X-33.2326 Y-19.7390
G01 X-33.2062 Y-19.7479
G01 X-33.1792 Y-19.7543
G01 X-33.1528 Y-19.7580
G01 X-33.1238 Y-19.7594
G01 X-30.6940 Y-19.7594
G01 X-30.6658 Y-19.7580
G01 X-30.6391 Y-19.7541
G01 X-30.6081 Y-19.7465
G01 X-30.5781 Y-19.7356
G01 X-30.5538 Y-19.7240
G01 X-30.5306 Y-19.7101
G01 X-30.5030 Y-19.6897
G01 X-30.4830 Y-19.6715
G01 X-30.4648 Y-19.6515
G01 X-30.4457 Y-19.6260
G01 X-30.4294 Y-19.5986
G01 X-30.4180 Y-19.5741
G01 X-30.4088 Y-19.5487
G01 X-30.4009 Y-19.5178
G01 X-30.3966 Y-19.4887
G01 X-30.3952 Y-19.4617
G01 X-30.3969 Y-19.4274
G01 X-30.4009 Y-19.4007
G01 X-30.4074 Y-19.3745
G01 X-30.4180 Y-19.3444
G01 X-30.4306 Y-19.3178
G01 X-30.4444 Y-19.2946
G01 X-30.4632 Y-19.2689
G01 X-30.4830 Y-19.2471
G01 X-30.5030 Y-19.2289
G01 X-30.5285 Y-19.2097
G01 X-30.5538 Y-19.1946
G01 X-30.5781 Y-19.1830
G01 X-30.6081 Y-19.1721
G01 X-30.6367 Y-19.1649
G01 X-30.6634 Y-19.1609
G01 X-30.6952 Y-19.1592
G01 X-33.0530 Y-19.1592
G01 X-33.2317 Y-19.0698
G01 X-33.3057 Y-18.9958
G01 X-33.3951 Y-18.8170
G01 X-33.3951 Y-18.3873
G01 X-33.3057 Y-18.2085
G01 X-33.2318 Y-18.1345
G01 X-33.0530 Y-18.0451
G01 X-30.6940 Y-18.0451
G01 X-30.6634 Y-18.0434
G01 X-30.6367 Y-18.0394
G01 X-30.6105 Y-18.0329
G01 X-30.5804 Y-18.0223
G01 X-30.5549 Y-18.0103
G01 X-30.5265 Y-17.9931
G01 X-30.5048 Y-17.9770
G01 X-30.4830 Y-17.9572
G01 X-30.4632 Y-17.9354
G01 X-30.4471 Y-17.9137
G01 X-30.4294 Y-17.8843
G01 X-30.4180 Y-17.8599
G01 X-30.4080 Y-17.8321
G01 X-30.4009 Y-17.8036
G01 X-30.3969 Y-17.7769
G01 X-30.3952 Y-17.7425
G01 X-30.3966 Y-17.7156
G01 X-30.4009 Y-17.6864
G01 X-30.4080 Y-17.6579
G01 X-30.4171 Y-17.6324
G01 X-30.4318 Y-17.6014
G01 X-30.4457 Y-17.5783
G01 X-30.4632 Y-17.5546
G01 X-30.4830 Y-17.5328
G01 X-30.5030 Y-17.5146
G01 X-30.5306 Y-17.4941
G01 X-30.5538 Y-17.4803
G01 X-30.5804 Y-17.4677
G01 X-30.6081 Y-17.4578
G01 X-30.6343 Y-17.4512
G01 X-30.6670 Y-17.4462
G00 Z2.0000
G00 X-33.7247 Y-21.1865
G01 F60.00
G01 Z0.0000
G01 F60.00
G01 X-33.6952 Y-21.1880
G01 X-32.4239 Y-21.1880
G01 X-32.4239 Y-21.8891
G01 X-32.4225 Y-21.9173
G01 X-32.4186 Y-21.9440
G01 X-32.4110 Y-21.9750
G01 X-32.4011 Y-22.0027
G01 X-32.3896 Y-22.0271
G01 X-32.3734 Y-22.0546
G01 X-32.3558 Y-22.0783
G01 X-32.3377 Y-22.0983
G01 X-32.3123 Y-22.1214
G01 X-32.2906 Y-22.1374
G01 X-32.2653 Y-22.1525
G01 X-32.2387 Y-22.1651
G01 X-32.2133 Y-22.1743
G01 X-32.1799 Y-22.1826
G01 X-32.1532 Y-22.1865
G01 X-32.1238 Y-22.1880
G01 X-32.0944 Y-22.1865
G01 X-32.0677 Y-22.1826
G01 X-32.0344 Y-22.1743
G01 X-32.0090 Y-22.1651
G01 X-31.9823 Y-22.1525
G01 X-31.9571 Y-22.1374
G01 X-31.9353 Y-22.1214
G01 X-31.9099 Y-22.0983
G01 X-31.8918 Y-22.0783
G01 X-31.8743 Y-22.0546
G01 X-31.8591 Y-22.0293
G01 X-31.8475 Y-22.0050
G01 X-31.8366 Y-21.9750
G01 X-31.8290 Y-21.9440
G01 X-31.8251 Y-21.9173
G01 X-31.8237 Y-21.8891
G01 X-31.8237 Y-21.1880
G01 X-30.9954 Y-21.1880
G01 X-30.9953 Y-22.3177
G01 X-30.9939 Y-22.3458
G01 X-30.9896 Y-22.3750
G01 X-30.9824 Y-22.4036
G01 X-30.9715 Y-22.4335
G01 X-30.9599 Y-22.4579
G01 X-30.9461 Y-22.4811
G01 X-30.9272 Y-22.5068
G01 X-30.9075 Y-22.5287
G01 X-30.8875 Y-22.5468
G01 X-30.8620 Y-22.5660
G01 X-30.8367 Y-22.5811
G01 X-30.8123 Y-22.5927
G01 X-30.7824 Y-22.6036
G01 X-30.7538 Y-22.6108
G01 X-30.7271 Y-22.6148
G01 X-30.6952 Y-22.6166
G01 X-30.6634 Y-22.6148
G01 X-30.6367 Y-22.6108
G01 X-30.6081 Y-22.6036
G01 X-30.5781 Y-22.5927
G01 X-30.5538 Y-22.5811
G01 X-30.5285 Y-22.5660
G01 X-30.5030 Y-22.5468
G01 X-30.4830 Y-22.5287
G01 X-30.4632 Y-22.5068
G01 X-30.4457 Y-22.4832
G01 X-30.4318 Y-22.4600
G01 X-30.4175 Y-22.4301
G01 X-30.4080 Y-22.4036
G01 X-30.4009 Y-22.3750
G01 X-30.3966 Y-22.3458
G01 X-30.3951 Y-22.3177
G01 X-30.3951 Y-20.8879
G01 X-30.3966 Y-20.8584
G01 X-30.4009 Y-20.8293
G01 X-30.4074 Y-20.8031
G01 X-30.4180 Y-20.7730
G01 X-30.4318 Y-20.7442
G01 X-30.4457 Y-20.7211
G01 X-30.4617 Y-20.6994
G01 X-30.4830 Y-20.6756
G01 X-30.5068 Y-20.6544
G01 X-30.5285 Y-20.6383
G01 X-30.5516 Y-20.6244
G01 X-30.5815 Y-20.6101
G01 X-30.6081 Y-20.6007
G01 X-30.6367 Y-20.5935
G01 X-30.6658 Y-20.5892
G01 X-30.6952 Y-20.5877
G01 X-33.6952 Y-20.5877
G01 X-33.7247 Y-20.5892
G01 X-33.7526 Y-20.5933
G01 X-33.7824 Y-20.6007
G01 X-33.8078 Y-20.6097
G01 X-33.8389 Y-20.6244
G01 X-33.8620 Y-20.6383
G01 X-33.8856 Y-20.6559
G01 X-33.9075 Y-20.6756
G01 X-33.9272 Y-20.6975
G01 X-33.9448 Y-20.7211
G01 X-33.9599 Y-20.7464
G01 X-33.9725 Y-20.7730
G01 X-33.9817 Y-20.7984
G01 X-33.9900 Y-20.8317
G01 X-33.9939 Y-20.8584
G01 X-33.9953 Y-20.8903
G01 X-33.9939 Y-20.9173
G01 X-33.9896 Y-20.9464
G01 X-33.9824 Y-20.9750
G01 X-33.9725 Y-21.0027
G01 X-33.9599 Y-21.0293
G01 X-33.9448 Y-21.0546
G01 X-33.9272 Y-21.0783
G01 X-33.9092 Y-21.0983
G01 X-33.8856 Y-21.1199
G01 X-33.8640 Y-21.1360
G01 X-33.8345 Y-21.1537
G01 X-33.8101 Y-21.1651
G01 X-33.7824 Y-21.1751
G01 X-33.7538 Y-21.1822
G01 X-33.7247 Y-21.1865
G00 Z2.0000
G00 X-33.3966 Y-24.9173
G01 F60.00
G01 Z0.0000
G01 F60.00
G01 X-33.3951 Y-24.8879
G01 X-33.3951 Y-23.7594
G01 X-32.4239 Y-23.7594
G01 X-32.4239 Y-24.4605
G01 X-32.4225 Y-24.4887
G01 X-32.4186 Y-24.5154
G01 X-32.4110 Y-24.5464
G01 X-32.4011 Y-24.5741
G01 X-32.3896 Y-24.5986
G01 X-32.3734 Y-24.6260
G01 X-32.3558 Y-24.6497
G01 X-32.3377 Y-24.6697
G01 X-32.3123 Y-24.6928
G01 X-32.2906 Y-24.7088
G01 X-32.2653 Y-24.7240
G01 X-32.2387 Y-24.7366
G01 X-32.2133 Y-24.7457
G01 X-32.1799 Y-24.7541
G01 X-32.1532 Y-24.7580
G01 X-32.1238 Y-24.7594
G01 X-32.0944 Y-24.7580
G01 X-32.0677 Y-24.7541
G01 X-32.0344 Y-24.7457
G01 X-32.0090 Y-24.7366
G01 X-31.9823 Y-24.7240
G01 X-31.9571 Y-24.7088
G01 X-31.9353 Y-24.6928
G01 X-31.9099 Y-24.6697
G01 X-31.8918 Y-24.6497
G01 X-31.8743 Y-24.6260
G01 X-31.8591 Y-24.6008
G01 X-31.8475 Y-24.5764
G01 X-31.8366 Y-24.5464
G01 X-31.8290 Y-24.5154
G01 X-31.8251 Y-24.4887
G01 X-31.8237 Y-24.4605
G01 X-31.8237 Y-23.7594
G01 X-30.9954 Y-23.7594
G01 X-30.9954 Y-24.8879
G01 X-30.9939 Y-24.9173
G01 X-30.9900 Y-24.9440
G01 X-30.9821 Y-24.9762
G01 X-30.9725 Y-25.0027
G01 X-30.9587 Y-25.0315
G01 X-30.9448 Y-25.0546
G01 X-30.9287 Y-25.0763
G01 X-30.9092 Y-25.0983
G01 X-30.8856 Y-25.1199
G01 X-30.8620 Y-25.1374
G01 X-30.8367 Y-25.1525
G01 X-30.8101 Y-25.1651
G01 X-30.7824 Y-25.1751
G01 X-30.7538 Y-25.1822
G01 X-30.7247 Y-25.1865
G01 X-30.6928 Y-25.1879
G01 X-30.6658 Y-25.1865
G01 X-30.6391 Y-25.1826
G01 X-30.6105 Y-25.1757
G01 X-30.5804 Y-25.1651
G01 X-30.5538 Y-25.1525
G01 X-30.5265 Y-25.1360
G01 X-30.5048 Y-25.1199
G01 X-30.4848 Y-25.1018
G01 X-30.4632 Y-25.0783
G01 X-30.4457 Y-25.0546
G01 X-30.4294 Y-25.0271
G01 X-30.4180 Y-25.0027
G01 X-30.4088 Y-24.9773
G01 X-30.4009 Y-24.9464
G01 X-30.3965 Y-24.9161
G01 X-30.3951 Y-24.8879
G01 X-30.3951 Y-23.4581
G01 X-30.3969 Y-23.4274
G01 X-30.4009 Y-23.4007
G01 X-30.4074 Y-23.3745
G01 X-30.4180 Y-23.3444
G01 X-30.4306 Y-23.3178
G01 X-30.4471 Y-23.2905
G01 X-30.4632 Y-23.2689
G01 X-30.4813 Y-23.2488
G01 X-30.5048 Y-23.2273
G01 X-30.5306 Y-23.2084
G01 X-30.5538 Y-23.1946
G01 X-30.5781 Y-23.1830
G01 X-30.6081 Y-23.1721
G01 X-30.6391 Y-23.1645
G01 X-30.6658 Y-23.1606
G01 X-30.6940 Y-23.1592
G01 X-33.6952 Y-23.1592
G01 X-33.7247 Y-23.1606
G01 X-33.7562 Y-23.1655
G01 X-33.7824 Y-23.1721
G01 X-33.8078 Y-23.1811
G01 X-33.8367 Y-23.1946
G01 X-33.8620 Y-23.2097
G01 X-33.8875 Y-23.2289
G01 X-33.9075 Y-23.2471
G01 X-33.9256 Y-23.2670
G01 X-33.9448 Y-23.2925
G01 X-33.9610 Y-23.3200
G01 X-33.9725 Y-23.3444
G01 X-33.9817 Y-23.3698
G01 X-33.9896 Y-23.4007
G01 X-33.9940 Y-23.4311
G01 X-33.9954 Y-23.4593
G01 X-33.9954 Y-24.8879
G01 X-33.9936 Y-24.9197
G01 X-33.9896 Y-24.9464
G01 X-33.9831 Y-24.9726
G01 X-33.9725 Y-25.0027
G01 X-33.9610 Y-25.0271
G01 X-33.9434 Y-25.0566
G01 X-33.9272 Y-25.0783
G01 X-33.9075 Y-25.1001
G01 X-33.8856 Y-25.1199
G01 X-33.8620 Y-25.1374
G01 X-33.8367 Y-25.1525
G01 X-33.8123 Y-25.1641
G01 X-33.7800 Y-25.1757
G01 X-33.7538 Y-25.1822
G01 X-33.7247 Y-25.1865
G01 X-33.6952 Y-25.1880
G01 X-33.6658 Y-25.1865
G01 X-33.6367 Y-25.1822
G01 X-33.6081 Y-25.1751
G01 X-33.5804 Y-25.1651
G01 X-33.5560 Y-25.1537
G01 X-33.5265 Y-25.1360
G01 X-33.5048 Y-25.1199
G01 X-33.4830 Y-25.1001
G01 X-33.4632 Y-25.0783
G01 X-33.4471 Y-25.0566
G01 X-33.4294 Y-25.0271
G01 X-33.4180 Y-25.0027
G01 X-33.4080 Y-24.9750
G01 X-33.4009 Y-24.9464
G01 X-33.3966 Y-24.9173
G00 Z2.0000
G00 X-33.8269 Y-25.9095
G01 F60.00
G01 Z0.0000
G01 F60.00
G01 X-33.8371 Y-25.9358
G01 X-33.9800 Y-26.3644
G01 X-33.9885 Y-26.3954
G01 X-33.9935 Y-26.4258
G01 X-33.9954 Y-26.4593
G01 X-33.9954 Y-27.1736
G01 X-33.9938 Y-27.2037
G01 X-33.9902 Y-27.2289
G01 X-33.9838 Y-27.2560
G01 X-33.9750 Y-27.2824
G01 X-33.9647 Y-27.3057
G01 X-33.8208 Y-27.5935
G01 X-33.8049 Y-27.6215
G01 X-33.7861 Y-27.6476
G01 X-33.7655 Y-27.6706
G01 X-33.6217 Y-27.8144
G01 X-33.5978 Y-27.8359
G01 X-33.5706 Y-27.8554
G01 X-33.5438 Y-27.8706
G01 X-33.2580 Y-28.0134
G01 X-33.2326 Y-28.0247
G01 X-33.2051 Y-28.0339
G01 X-33.1792 Y-28.0400
G01 X-33.1539 Y-28.0436
G01 X-33.1250 Y-28.0451
G01 X-32.8381 Y-28.0451
G01 X-32.8103 Y-28.0438
G01 X-32.7828 Y-28.0400
G01 X-32.7557 Y-28.0336
G01 X-32.7282 Y-28.0243
G01 X-32.7039 Y-28.0134
G01 X-32.4182 Y-27.8706
G01 X-32.3891 Y-27.8539
G01 X-32.3641 Y-27.8359
G01 X-32.3402 Y-27.8144
G01 X-32.1964 Y-27.6706
G01 X-32.1758 Y-27.6476
G01 X-32.1585 Y-27.6237
G01 X-32.1556 Y-27.6192
G01 X-32.1411 Y-27.5935
G01 X-31.9976 Y-27.3066
G01 X-31.9852 Y-27.2777
G01 X-31.9755 Y-27.2464
G01 X-31.8406 Y-26.7069
G01 X-31.7343 Y-26.4942
G01 X-31.6603 Y-26.4202
G01 X-31.4815 Y-26.3308
G01 X-31.3375 Y-26.3308
G01 X-31.1587 Y-26.4202
G01 X-31.0848 Y-26.4942
G01 X-30.9954 Y-26.6730
G01 X-30.9954 Y-27.2677
G01 X-31.1228 Y-27.6501
G01 X-31.1312 Y-27.6809
G01 X-31.1359 Y-27.7075
G01 X-31.1381 Y-27.7368
G01 X-31.1375 Y-27.7663
G01 X-31.1343 Y-27.7931
G01 X-31.1269 Y-27.8266
G01 X-31.1184 Y-27.8523
G01 X-31.1065 Y-27.8792
G01 X-31.0907 Y-27.9069
G01 X-31.0752 Y-27.9290
G01 X-31.0560 Y-27.9514
G01 X-31.0329 Y-27.9733
G01 X-31.0116 Y-27.9899
G01 X-30.9888 Y-28.0045
G01 X-30.9605 Y-28.0190
G01 X-30.9307 Y-28.0304
G01 X-30.9046 Y-28.0377
G01 X-30.8781 Y-28.0424
G01 X-30.8463 Y-28.0450
G01 X-30.8144 Y-28.0441
G01 X-30.7876 Y-28.0408
G01 X-30.7612 Y-28.0351
G01 X-30.7308 Y-28.0253
G01 X-30.7017 Y-28.0123
G01 X-30.6782 Y-27.9990
G01 X-30.6561 Y-27.9836
G01 X-30.6317 Y-27.9629
G01 X-30.6098 Y-27.9398
G01 X-30.5932 Y-27.9185
G01 X-30.5780 Y-27.8947
G01 X-30.5641 Y-27.8674
G01 X-30.5534 Y-27.8399
G01 X-30.4105 Y-27.4113
G01 X-30.4020 Y-27.3803
G01 X-30.3970 Y-27.3499
G01 X-30.3951 Y-27.3164
G01 X-30.3951 Y-26.6021
G01 X-30.3965 Y-26.5732
G01 X-30.4003 Y-26.5468
G01 X-30.4067 Y-26.5197
G01 X-30.4155 Y-26.4934
G01 X-30.4258 Y-26.4700
G01 X-30.5697 Y-26.1822
G01 X-30.5856 Y-26.1542
G01 X-30.6044 Y-26.1281
G01 X-30.6249 Y-26.1052
G01 X-30.7687 Y-25.9613
G01 X-30.7927 Y-25.9399
G01 X-30.8199 Y-25.9203
G01 X-30.8467 Y-25.9051
G01 X-31.1324 Y-25.7623
G01 X-31.1579 Y-25.7510
G01 X-31.1854 Y-25.7418
G01 X-31.2136 Y-25.7354
G01 X-31.2389 Y-25.7319
G01 X-31.2655 Y-25.7306
G01 X-31.5524 Y-25.7306
G01 X-31.5802 Y-25.7319
G01 X-31.6077 Y-25.7357
G01 X-31.6348 Y-25.7421
G01 X-31.6623 Y-25.7514
G01 X-31.6866 Y-25.7623
G01 X-31.9723 Y-25.9051
G01 X-32.0014 Y-25.9218
G01 X-32.0264 Y-25.9399
G01 X-32.0503 Y-25.9613
G01 X-32.1941 Y-26.1052
G01 X-32.2147 Y-26.1281
G01 X-32.2320 Y-26.1520
G01 X-32.2349 Y-26.1565
G01 X-32.2494 Y-26.1822
G01 X-32.3928 Y-26.4692
G01 X-32.4053 Y-26.4980
G01 X-32.4150 Y-26.5293
G01 X-32.5498 Y-27.0688
G01 X-32.6562 Y-27.2815
G01 X-32.7302 Y-27.3555
G01 X-32.9090 Y-27.4449
G01 X-33.0530 Y-27.4449
G01 X-33.2318 Y-27.3555
G01 X-33.3057 Y-27.2815
G01 X-33.3951 Y-27.1027
G01 X-33.3951 Y-26.5080
G01 X-33.2677 Y-26.1256
G01 X-33.2592 Y-26.0948
G01 X-33.2546 Y-26.0682
G01 X-33.2524 Y-26.0389
G01 X-33.2530 Y-26.0094
G01 X-33.2562 Y-25.9826
G01 X-33.2636 Y-25.9491
G01 X-33.2721 Y-25.9234
G01 X-33.2840 Y-25.8965
G01 X-33.2998 Y-25.8688
G01 X-33.3153 Y-25.8467
G01 X-33.3345 Y-25.8243
G01 X-33.3558 Y-25.8040
G01 X-33.3770 Y-25.7873
G01 X-33.4038 Y-25.7700
G01 X-33.4300 Y-25.7567
G01 X-33.4552 Y-25.7468
G01 X-33.4859 Y-25.7381
G01 X-33.5173 Y-25.7327
G01 X-33.5442 Y-25.7307
G01 X-33.5712 Y-25.7312
G01 X-33.6053 Y-25.7353
G01 X-33.6317 Y-25.7412
G01 X-33.6573 Y-25.7496
G01 X-33.6866 Y-25.7623
G01 X-33.7143 Y-25.7781
G01 X-33.7364 Y-25.7936
G01 X-33.7569 Y-25.8112
G01 X-33.7791 Y-25.8341
G01 X-33.7973 Y-25.8572
G01 X-33.8119 Y-25.8800
G01 X-33.8269 Y-25.9095
G00 Z2.0000
G00 X-17.9715 Y-20.7035
G01 F60.00
G01 Z0.0000
G01 F60.00
G01 X-17.8796 Y-20.7079
G01 X-17.7939 Y-20.7037
G01 X-17.7065 Y-20.6907
G01 X-17.6185 Y-20.6685
G01 X-17.5377 Y-20.6395
G01 X-17.4718 Y-20.6084
G01 X-9.7869 Y-20.6084
G01 X-9.7096 Y-20.6045
G01 X-9.6344 Y-20.5934
G01 X-9.5558 Y-20.5739
G01 X-9.4796 Y-20.5465
G01 X-9.4108 Y-20.5139
G01 X-9.3445 Y-20.4742
G01 X-9.2803 Y-20.4267
G01 X-9.2221 Y-20.3740
G01 X6.0017 Y-5.1501
G01 X7.7679 Y-5.1501
G01 X7.8338 Y-5.1812
G01 X7.9146 Y-5.2102
G01 X8.0002 Y-5.2319
G01 X8.0900 Y-5.2454
G01 X8.1782 Y-5.2497
G01 X8.2664 Y-5.2454
G01 X8.3538 Y-5.2324
G01 X8.4395 Y-5.2109
G01 X8.5237 Y-5.1807
G01 X8.6025 Y-5.1434
G01 X8.6802 Y-5.0966
G01 X8.7492 Y-5.0454
G01 X8.8128 Y-4.9878
G01 X8.8723 Y-4.9225
G01 X8.9265 Y-4.8497
G01 X8.9719 Y-4.7740
G01 X9.0097 Y-4.6941
G01 X9.0394 Y-4.6110
G01 X9.0609 Y-4.5253
G01 X9.0739 Y-4.4379
G01 X9.0782 Y-4.3497
G01 X9.0736 Y-4.2590
G01 X9.0609 Y-4.1741
G01 X9.0401 Y-4.0908
G01 X9.0106 Y-4.0076
G01 X8.9719 Y-3.9254
G01 X8.9272 Y-3.8507
G01 X8.8739 Y-3.7787
G01 X8.8128 Y-3.7116
G01 X8.7492 Y-3.6540
G01 X8.6802 Y-3.6028
G01 X8.6025 Y-3.5560
G01 X8.5226 Y-3.5182
G01 X8.4371 Y-3.4878
G01 X8.3538 Y-3.4670
G01 X8.2689 Y-3.4543
G01 X8.1794 Y-3.4497
G01 X8.0900 Y-3.4540
G01 X8.0002 Y-3.4675
G01 X7.9146 Y-3.4892
G01 X7.8338 Y-3.5182
G01 X7.7679 Y-3.5493
G01 X5.6702 Y-3.5493
G01 X5.5917 Y-3.5532
G01 X5.5141 Y-3.5647
G01 X5.4402 Y-3.5831
G01 X5.3639 Y-3.6102
G01 X5.2908 Y-3.6450
G01 X5.2255 Y-3.6842
