(G-CODE GENERATED BY FLATCAM v8.994 - www.flatcam.org - Version Date: 2020/11/7)

(Name: OFICINA-TELE-ENCHUFES-RELES-Edge_Cuts.gm1_edit_iso_combined_cnc)
(Type: G-code from Geometry)
(Units: MM)

(Created on lunes, 19 julio 2021 at 19:55)


G01 F60.00

M5
G00 Z15.0000
G00 X0.0000 Y0.0000
T1
M6    
(MSG, Change to Tool Dia = 0.1000)
M0
G00 Z15.0000

M03 S10000.0
G4 P1.0
G01 F60.00
G00 X-36.1791 Y29.3053
G01 F60.00
G01 Z-2.0000
G01 F60.00
G01 X-36.1596 Y29.1743
G01 X-36.1531 Y29.0420
G01 X-36.1596 Y28.9097
G01 X-36.1791 Y28.7787
G01 X-36.2113 Y28.6502
G01 X-36.2559 Y28.5255
G01 X-36.3125 Y28.4057
G01 X-36.3806 Y28.2921
G01 X-36.4595 Y28.1857
G01 X-36.5485 Y28.0876
G01 X-36.6466 Y27.9986
G01 X-36.7530 Y27.9197
G01 X-36.8666 Y27.8516
G01 X-36.9864 Y27.7950
G01 X-37.1111 Y27.7504
G01 X-37.2396 Y27.7182
G01 X-37.3706 Y27.6987
G01 X-37.5029 Y27.6922
G01 X-37.6352 Y27.6987
G01 X-37.7662 Y27.7182
G01 X-37.8947 Y27.7504
G01 X-38.0194 Y27.7950
G01 X-38.1392 Y27.8516
G01 X-38.2528 Y27.9197
G01 X-38.3592 Y27.9986
G01 X-38.4573 Y28.0876
G01 X-38.5463 Y28.1857
G01 X-38.6252 Y28.2921
G01 X-38.6933 Y28.4057
G01 X-38.7499 Y28.5255
G01 X-38.7946 Y28.6502
G01 X-38.8267 Y28.7787
G01 X-38.8462 Y28.9097
G01 X-38.8527 Y29.0420
G01 X-38.8462 Y29.1743
G01 X-38.8267 Y29.3053
G01 X-38.7946 Y29.4338
G01 X-38.7499 Y29.5585
G01 X-38.6933 Y29.6783
G01 X-38.6252 Y29.7919
G01 X-38.5463 Y29.8983
G01 X-38.4573 Y29.9964
G01 X-38.3592 Y30.0854
G01 X-38.2528 Y30.1643
G01 X-38.1392 Y30.2324
G01 X-38.0194 Y30.2890
G01 X-37.8947 Y30.3336
G01 X-37.7662 Y30.3658
G01 X-37.6352 Y30.3853
G01 X-37.5029 Y30.3918
G01 X-37.3706 Y30.3853
G01 X-37.2396 Y30.3658
G01 X-37.1111 Y30.3336
G01 X-36.9864 Y30.2890
G01 X-36.8666 Y30.2324
G01 X-36.7530 Y30.1643
G01 X-36.6466 Y30.0854
G01 X-36.5485 Y29.9964
G01 X-36.4595 Y29.8983
G01 X-36.3806 Y29.7919
G01 X-36.3125 Y29.6783
G01 X-36.2559 Y29.5585
G01 X-36.2113 Y29.4338
G01 X-36.1791 Y29.3053
G00 Z2.0000
G00 X-36.1791 Y-29.4787
G01 F60.00
G01 Z-2.0000
G01 F60.00
G01 X-36.1596 Y-29.6097
G01 X-36.1531 Y-29.7420
G01 X-36.1596 Y-29.8743
G01 X-36.1791 Y-30.0053
G01 X-36.2113 Y-30.1338
G01 X-36.2559 Y-30.2585
G01 X-36.3125 Y-30.3783
G01 X-36.3806 Y-30.4919
G01 X-36.4595 Y-30.5983
G01 X-36.5485 Y-30.6964
G01 X-36.6466 Y-30.7854
G01 X-36.7530 Y-30.8643
G01 X-36.8666 Y-30.9324
G01 X-36.9864 Y-30.9890
G01 X-37.1111 Y-31.0336
G01 X-37.2396 Y-31.0658
G01 X-37.3706 Y-31.0853
G01 X-37.5029 Y-31.0918
G01 X-37.6352 Y-31.0853
G01 X-37.7662 Y-31.0658
G01 X-37.8947 Y-31.0336
G01 X-38.0194 Y-30.9890
G01 X-38.1392 Y-30.9324
G01 X-38.2528 Y-30.8643
G01 X-38.3592 Y-30.7854
G01 X-38.4573 Y-30.6964
G01 X-38.5463 Y-30.5983
G01 X-38.6252 Y-30.4919
G01 X-38.6933 Y-30.3783
G01 X-38.7499 Y-30.2585
G01 X-38.7946 Y-30.1338
G01 X-38.8267 Y-30.0053
G01 X-38.8462 Y-29.8743
G01 X-38.8527 Y-29.7420
G01 X-38.8462 Y-29.6097
G01 X-38.8267 Y-29.4787
G01 X-38.7946 Y-29.3502
G01 X-38.7499 Y-29.2255
G01 X-38.6933 Y-29.1057
G01 X-38.6252 Y-28.9921
G01 X-38.5463 Y-28.8857
G01 X-38.4573 Y-28.7876
G01 X-38.3592 Y-28.6986
G01 X-38.2528 Y-28.6197
G01 X-38.1392 Y-28.5516
G01 X-38.0194 Y-28.4950
G01 X-37.8947 Y-28.4504
G01 X-37.7662 Y-28.4182
G01 X-37.6352 Y-28.3987
G01 X-37.5029 Y-28.3922
G01 X-37.3706 Y-28.3987
G01 X-37.2396 Y-28.4182
G01 X-37.1111 Y-28.4504
G01 X-36.9864 Y-28.4950
G01 X-36.8666 Y-28.5516
G01 X-36.7530 Y-28.6197
G01 X-36.6466 Y-28.6986
G01 X-36.5485 Y-28.7876
G01 X-36.4595 Y-28.8857
G01 X-36.3806 Y-28.9921
G01 X-36.3125 Y-29.1057
G01 X-36.2559 Y-29.2255
G01 X-36.2113 Y-29.3502
G01 X-36.1791 Y-29.4787
G00 Z2.0000
G00 X39.0279 Y-29.4787
G01 F60.00
G01 Z-2.0000
G01 F60.00
G01 X39.0474 Y-29.6097
G01 X39.0539 Y-29.7420
G01 X39.0474 Y-29.8743
G01 X39.0279 Y-30.0053
G01 X38.9957 Y-30.1338
G01 X38.9511 Y-30.2585
G01 X38.8945 Y-30.3783
G01 X38.8264 Y-30.4919
G01 X38.7475 Y-30.5983
G01 X38.6585 Y-30.6964
G01 X38.5604 Y-30.7854
G01 X38.4540 Y-30.8643
G01 X38.3404 Y-30.9324
G01 X38.2206 Y-30.9890
G01 X38.0959 Y-31.0336
G01 X37.9674 Y-31.0658
G01 X37.8364 Y-31.0853
G01 X37.7041 Y-31.0918
G01 X37.5718 Y-31.0853
G01 X37.4408 Y-31.0658
G01 X37.3123 Y-31.0336
G01 X37.1876 Y-30.9890
G01 X37.0678 Y-30.9324
G01 X36.9542 Y-30.8643
G01 X36.8478 Y-30.7854
G01 X36.7497 Y-30.6964
G01 X36.6607 Y-30.5983
G01 X36.5818 Y-30.4919
G01 X36.5137 Y-30.3783
G01 X36.4571 Y-30.2585
G01 X36.4124 Y-30.1338
G01 X36.3803 Y-30.0053
G01 X36.3608 Y-29.8743
G01 X36.3543 Y-29.7420
G01 X36.3608 Y-29.6097
G01 X36.3803 Y-29.4787
G01 X36.4124 Y-29.3502
G01 X36.4571 Y-29.2255
G01 X36.5137 Y-29.1057
G01 X36.5818 Y-28.9921
G01 X36.6607 Y-28.8857
G01 X36.7497 Y-28.7876
G01 X36.8478 Y-28.6986
G01 X36.9542 Y-28.6197
G01 X37.0678 Y-28.5516
G01 X37.1876 Y-28.4950
G01 X37.3123 Y-28.4504
G01 X37.4408 Y-28.4182
G01 X37.5718 Y-28.3987
G01 X37.7041 Y-28.3922
G01 X37.8364 Y-28.3987
G01 X37.9674 Y-28.4182
G01 X38.0959 Y-28.4504
G01 X38.2206 Y-28.4950
G01 X38.3404 Y-28.5516
G01 X38.4540 Y-28.6197
G01 X38.5604 Y-28.6986
G01 X38.6585 Y-28.7876
G01 X38.7475 Y-28.8857
G01 X38.8264 Y-28.9921
G01 X38.8945 Y-29.1057
G01 X38.9511 Y-29.2255
G01 X38.9957 Y-29.3502
G01 X39.0279 Y-29.4787
G00 Z2.0000
G00 X39.0279 Y29.3053
G01 F60.00
G01 Z-2.0000
G01 F60.00
G01 X39.0474 Y29.1743
G01 X39.0539 Y29.0420
G01 X39.0474 Y28.9097
G01 X39.0279 Y28.7787
G01 X38.9957 Y28.6502
G01 X38.9511 Y28.5255
G01 X38.8945 Y28.4057
G01 X38.8264 Y28.2921
G01 X38.7475 Y28.1857
G01 X38.6585 Y28.0876
G01 X38.5604 Y27.9986
G01 X38.4540 Y27.9197
G01 X38.3404 Y27.8516
G01 X38.2206 Y27.7950
G01 X38.0959 Y27.7504
G01 X37.9674 Y27.7182
G01 X37.8364 Y27.6987
G01 X37.7041 Y27.6922
G01 X37.5718 Y27.6987
G01 X37.4408 Y27.7182
G01 X37.3123 Y27.7504
G01 X37.1876 Y27.7950
G01 X37.0678 Y27.8516
G01 X36.9542 Y27.9197
G01 X36.8478 Y27.9986
G01 X36.7497 Y28.0876
G01 X36.6607 Y28.1857
G01 X36.5818 Y28.2921
G01 X36.5137 Y28.4057
G01 X36.4571 Y28.5255
G01 X36.4124 Y28.6502
G01 X36.3803 Y28.7787
G01 X36.3608 Y28.9097
G01 X36.3543 Y29.0420
G01 X36.3608 Y29.1743
G01 X36.3803 Y29.3053
G01 X36.4124 Y29.4338
G01 X36.4571 Y29.5585
G01 X36.5137 Y29.6783
G01 X36.5818 Y29.7919
G01 X36.6607 Y29.8983
G01 X36.7497 Y29.9964
G01 X36.8478 Y30.0854
G01 X36.9542 Y30.1643
G01 X37.0678 Y30.2324
G01 X37.1876 Y30.2890
G01 X37.3123 Y30.3336
G01 X37.4408 Y30.3658
G01 X37.5718 Y30.3853
G01 X37.7041 Y30.3918
G01 X37.8364 Y30.3853
G01 X37.9674 Y30.3658
G01 X38.0959 Y30.3336
G01 X38.2206 Y30.2890
G01 X38.3404 Y30.2324
G01 X38.4540 Y30.1643
G01 X38.5604 Y30.0854
G01 X38.6585 Y29.9964
G01 X38.7475 Y29.8983
G01 X38.8264 Y29.7919
G01 X38.8945 Y29.6783
G01 X38.9511 Y29.5585
G01 X38.9957 Y29.4338
G01 X39.0279 Y29.3053
G00 Z2.0000
M05
G00 Z2.0000
G00 Z15.00


