(G-CODE GENERATED BY FLATCAM v8.994 - www.flatcam.org - Version Date: 2020/11/7)

(Name: OFICINA-TELE-ENCHUFES-RELES-F_Cu.gtl_edit_1_iso_combined_cnc)
(Type: G-code from Geometry)
(Units: MM)

(Created on lunes, 19 julio 2021 at 21:45)

(This preprocessor is the default preprocessor used by FlatCAM.)
(It is made to work with MACH3 compatible motion controllers.)

(TOOL DIAMETER: 0.1 mm)
(Feedrate_XY: 60.0 mm/min)
(Feedrate_Z: 60.0 mm/min)
(Feedrate rapids 1500.0 mm/min)

(Z_Cut: -0.0 mm)
(Z_Move: 2.0 mm)
(Z Start: None mm)
(Z End: 15.0 mm)
(X,Y End: None mm)
(Steps per circle: 64)
(Preprocessor Geometry: default)

(X range:  -39.1528 ...   39.3540  mm)
(Y range:  -31.3919 ...   30.8156  mm)

(Spindle Speed: 10000.0 RPM)
G21
G90
G94

G01 F60.00

M5
G00 Z15.0000
G00 X0.0000 Y0.0000
T1
M6    
(MSG, Change to Tool Dia = 0.1000)
M0
G00 Z15.0000

M03 S10000.0
G4 P1.0
G01 F60.00
G00 X1.0724 Y1.0723
G01 F60.00
G01 Z-0.0000
G01 F60.00
G01 X0.9621 Y1.1722
G01 X0.8426 Y1.2609
G01 X0.7149 Y1.3374
G01 X0.5804 Y1.4010
G01 X0.4403 Y1.4511
G01 X0.2959 Y1.4873
G01 X0.1487 Y1.5091
G01 X0.0001 Y1.5164
G01 X-0.1485 Y1.5091
G01 X-0.2957 Y1.4873
G01 X-0.4401 Y1.4511
G01 X-0.5802 Y1.4010
G01 X-0.7147 Y1.3374
G01 X-0.8424 Y1.2609
G01 X-0.9619 Y1.1722
G01 X-1.0722 Y1.0723
G01 X-1.1721 Y0.9620
G01 X-1.2608 Y0.8425
G01 X-1.3373 Y0.7148
G01 X-1.4009 Y0.5803
G01 X-1.4510 Y0.4402
G01 X-1.4872 Y0.2958
G01 X-1.5090 Y0.1486
G01 X-1.5163 Y0.0000
G01 X-1.5090 Y-0.1486
G01 X-1.4872 Y-0.2958
G01 X-1.4510 Y-0.4402
G01 X-1.4009 Y-0.5803
G01 X-1.3373 Y-0.7148
G01 X-1.2608 Y-0.8425
G01 X-1.1721 Y-0.9620
G01 X-1.0722 Y-1.0723
G01 X-0.9619 Y-1.1722
G01 X-0.8424 Y-1.2609
G01 X-0.7147 Y-1.3374
G01 X-0.5802 Y-1.4010
G01 X-0.4401 Y-1.4511
G01 X-0.2957 Y-1.4873
G01 X-0.1485 Y-1.5091
G01 X0.0001 Y-1.5164
G01 X0.1487 Y-1.5091
G01 X0.2959 Y-1.4873
G01 X0.4403 Y-1.4511
G01 X0.5804 Y-1.4010
G01 X0.7149 Y-1.3374
G01 X0.8426 Y-1.2609
G01 X0.9621 Y-1.1722
G01 X1.0724 Y-1.0723
G01 X1.1723 Y-0.9620
G01 X1.2610 Y-0.8425
G01 X1.3375 Y-0.7148
G01 X1.4011 Y-0.5803
G01 X1.4512 Y-0.4402
G01 X1.4874 Y-0.2958
G01 X1.5092 Y-0.1486
G01 X1.5165 Y0.0000
G01 X1.5092 Y0.1486
G01 X1.4874 Y0.2958
G01 X1.4512 Y0.4402
G01 X1.4011 Y0.5803
G01 X1.3375 Y0.7148
G01 X1.2610 Y0.8425
G01 X1.1723 Y0.9620
G01 X1.0724 Y1.0723
G00 Z2.0000
G00 X1.8072 Y-0.1854
G01 F60.00
G01 Z-0.0000
G01 F60.00
G01 X1.8086 Y-0.1707
G01 X1.8167 Y-0.0049
G01 X1.8166 Y0.0074
G01 X1.8084 Y0.1732
G01 X1.8072 Y0.1854
G01 X1.7828 Y0.3496
G01 X1.7803 Y0.3616
G01 X1.7399 Y0.5226
G01 X1.7363 Y0.5344
G01 X1.6803 Y0.6906
G01 X1.6755 Y0.7020
G01 X1.6045 Y0.8520
G01 X1.5987 Y0.8628
G01 X1.5133 Y1.0052
G01 X1.5064 Y1.0153
G01 X1.4075 Y1.1486
G01 X1.3996 Y1.1581
G01 X1.2881 Y1.2811
G01 X1.2794 Y1.2897
G01 X1.1563 Y1.4011
G01 X1.1468 Y1.4089
G01 X1.0134 Y1.5077
G01 X1.0032 Y1.5145
G01 X0.8608 Y1.5998
G01 X0.8499 Y1.6055
G01 X0.6998 Y1.6764
G01 X0.6885 Y1.6811
G01 X0.5321 Y1.7370
G01 X0.5204 Y1.7405
G01 X0.3593 Y1.7807
G01 X0.3473 Y1.7831
G01 X0.1830 Y1.8074
G01 X0.1708 Y1.8085
G01 X0.0050 Y1.8166
G01 X-0.0073 Y1.8165
G01 X-0.1731 Y1.8083
G01 X-0.1853 Y1.8071
G01 X-0.3495 Y1.7827
G01 X-0.3615 Y1.7802
G01 X-0.5225 Y1.7398
G01 X-0.5343 Y1.7362
G01 X-0.6905 Y1.6802
G01 X-0.7019 Y1.6754
G01 X-0.8519 Y1.6044
G01 X-0.8627 Y1.5986
G01 X-1.0051 Y1.5132
G01 X-1.0152 Y1.5063
G01 X-1.1485 Y1.4074
G01 X-1.1580 Y1.3995
G01 X-1.2810 Y1.2880
G01 X-1.2896 Y1.2793
G01 X-1.4010 Y1.1562
G01 X-1.4088 Y1.1467
G01 X-1.5076 Y1.0133
G01 X-1.5144 Y1.0031
G01 X-1.5997 Y0.8607
G01 X-1.6054 Y0.8498
G01 X-1.6763 Y0.6997
G01 X-1.6810 Y0.6884
G01 X-1.7369 Y0.5320
G01 X-1.7404 Y0.5203
G01 X-1.7806 Y0.3592
G01 X-1.7830 Y0.3472
G01 X-1.8073 Y0.1829
G01 X-1.8084 Y0.1707
G01 X-1.8165 Y0.0049
G01 X-1.8164 Y-0.0074
G01 X-1.8082 Y-0.1732
G01 X-1.8070 Y-0.1854
G01 X-1.7826 Y-0.3496
G01 X-1.7801 Y-0.3616
G01 X-1.7397 Y-0.5226
G01 X-1.7361 Y-0.5344
G01 X-1.6801 Y-0.6906
G01 X-1.6753 Y-0.7020
G01 X-1.6043 Y-0.8520
G01 X-1.5985 Y-0.8628
G01 X-1.5131 Y-1.0052
G01 X-1.5062 Y-1.0153
G01 X-1.4073 Y-1.1486
G01 X-1.3994 Y-1.1581
G01 X-1.2879 Y-1.2811
G01 X-1.2792 Y-1.2897
G01 X-1.1561 Y-1.4011
G01 X-1.1466 Y-1.4089
G01 X-1.0132 Y-1.5077
G01 X-1.0030 Y-1.5145
G01 X-0.8606 Y-1.5998
G01 X-0.8497 Y-1.6055
G01 X-0.6996 Y-1.6764
G01 X-0.6883 Y-1.6811
G01 X-0.5319 Y-1.7370
G01 X-0.5202 Y-1.7405
G01 X-0.3591 Y-1.7807
G01 X-0.3471 Y-1.7831
G01 X-0.1828 Y-1.8074
G01 X-0.1706 Y-1.8085
G01 X-0.0048 Y-1.8166
G01 X0.0075 Y-1.8165
G01 X0.1733 Y-1.8083
G01 X0.1855 Y-1.8071
G01 X0.3497 Y-1.7827
G01 X0.3617 Y-1.7802
G01 X0.5227 Y-1.7398
G01 X0.5345 Y-1.7362
G01 X0.6907 Y-1.6802
G01 X0.7021 Y-1.6754
G01 X0.8521 Y-1.6044
G01 X0.8629 Y-1.5986
G01 X1.0053 Y-1.5132
G01 X1.0154 Y-1.5063
G01 X1.1487 Y-1.4074
G01 X1.1582 Y-1.3995
G01 X1.2812 Y-1.2880
G01 X1.2898 Y-1.2793
G01 X1.4012 Y-1.1562
G01 X1.4090 Y-1.1467
G01 X1.5078 Y-1.0133
G01 X1.5146 Y-1.0031
G01 X1.5999 Y-0.8607
G01 X1.6056 Y-0.8498
G01 X1.6765 Y-0.6997
G01 X1.6812 Y-0.6884
G01 X1.7371 Y-0.5320
G01 X1.7406 Y-0.5203
G01 X1.7808 Y-0.3592
G01 X1.7832 Y-0.3472
G01 X1.8072 Y-0.1854
G00 Z2.0000
G00 X-8.2676 Y-0.1652
G01 F60.00
G01 Z-0.0000
G01 F60.00
G01 X-8.1782 Y-0.1697
G01 X-8.0900 Y-0.1654
G01 X-8.0026 Y-0.1524
G01 X-7.9169 Y-0.1309
G01 X-7.8338 Y-0.1012
G01 X-7.7539 Y-0.0634
G01 X-7.6782 Y-0.0180
G01 X-7.6072 Y0.0346
G01 X-7.5418 Y0.0939
G01 X-7.4825 Y0.1593
G01 X-7.4299 Y0.2303
G01 X-7.3845 Y0.3060
G01 X-7.3467 Y0.3859
G01 X-7.3170 Y0.4690
G01 X-7.2955 Y0.5547
G01 X-7.2825 Y0.6421
G01 X-7.2782 Y0.7303
G01 X-7.2825 Y0.8185
G01 X-7.2955 Y0.9059
G01 X-7.3170 Y0.9916
G01 X-7.3467 Y1.0747
G01 X-7.3845 Y1.1546
G01 X-7.4299 Y1.2303
G01 X-7.4825 Y1.3013
G01 X-7.5418 Y1.3667
G01 X-7.6072 Y1.4260
G01 X-7.6782 Y1.4786
G01 X-7.7539 Y1.5240
G01 X-7.8338 Y1.5618
G01 X-7.9169 Y1.5915
G01 X-8.0026 Y1.6130
G01 X-8.0900 Y1.6260
G01 X-8.1782 Y1.6303
G01 X-8.2664 Y1.6260
G01 X-8.3538 Y1.6130
G01 X-8.4395 Y1.5915
G01 X-8.5226 Y1.5618
G01 X-8.6025 Y1.5240
G01 X-8.6782 Y1.4786
G01 X-8.7492 Y1.4260
G01 X-8.8146 Y1.3667
G01 X-8.8739 Y1.3013
G01 X-8.9265 Y1.2303
G01 X-8.9719 Y1.1546
G01 X-9.0097 Y1.0747
G01 X-9.0394 Y0.9916
G01 X-9.0609 Y0.9059
G01 X-9.0739 Y0.8185
G01 X-9.0782 Y0.7303
G01 X-9.0739 Y0.6421
G01 X-9.0609 Y0.5547
G01 X-9.0394 Y0.4690
G01 X-9.0097 Y0.3859
G01 X-8.9719 Y0.3060
G01 X-8.9265 Y0.2303
G01 X-8.8739 Y0.1593
G01 X-8.8146 Y0.0939
G01 X-8.7492 Y0.0346
G01 X-8.6782 Y-0.0180
G01 X-8.6025 Y-0.0634
G01 X-8.5226 Y-0.1012
G01 X-8.4395 Y-0.1309
G01 X-8.3538 Y-0.1524
G01 X-8.2676 Y-0.1652
G00 Z2.0000
G00 X-8.2676 Y2.3748
G01 F60.00
G01 Z-0.0000
G01 F60.00
G01 X-8.1782 Y2.3703
G01 X-8.0900 Y2.3746
G01 X-8.0026 Y2.3876
G01 X-7.9169 Y2.4091
G01 X-7.8338 Y2.4388
G01 X-7.7539 Y2.4766
G01 X-7.6782 Y2.5220
G01 X-7.6072 Y2.5746
G01 X-7.5418 Y2.6339
G01 X-7.4825 Y2.6993
G01 X-7.4299 Y2.7703
G01 X-7.3845 Y2.8460
G01 X-7.3467 Y2.9259
G01 X-7.3170 Y3.0090
G01 X-7.2955 Y3.0947
G01 X-7.2825 Y3.1821
G01 X-7.2782 Y3.2703
G01 X-7.2825 Y3.3585
G01 X-7.2955 Y3.4459
G01 X-7.3170 Y3.5316
G01 X-7.3467 Y3.6147
G01 X-7.3845 Y3.6946
G01 X-7.4299 Y3.7703
G01 X-7.4825 Y3.8413
G01 X-7.5418 Y3.9067
G01 X-7.6072 Y3.9660
G01 X-7.6782 Y4.0186
G01 X-7.7539 Y4.0640
G01 X-7.8338 Y4.1018
G01 X-7.9169 Y4.1315
G01 X-8.0026 Y4.1530
G01 X-8.0900 Y4.1660
G01 X-8.1782 Y4.1703
G01 X-8.2664 Y4.1660
G01 X-8.3538 Y4.1530
G01 X-8.4395 Y4.1315
G01 X-8.5226 Y4.1018
G01 X-8.6025 Y4.0640
G01 X-8.6782 Y4.0186
G01 X-8.7492 Y3.9660
G01 X-8.8146 Y3.9067
G01 X-8.8739 Y3.8413
G01 X-8.9265 Y3.7703
G01 X-8.9719 Y3.6946
G01 X-9.0097 Y3.6147
G01 X-9.0394 Y3.5316
G01 X-9.0609 Y3.4459
G01 X-9.0739 Y3.3585
G01 X-9.0782 Y3.2703
G01 X-9.0739 Y3.1821
G01 X-9.0609 Y3.0947
G01 X-9.0394 Y3.0090
G01 X-9.0097 Y2.9259
G01 X-8.9719 Y2.8460
G01 X-8.9265 Y2.7703
G01 X-8.8739 Y2.6993
G01 X-8.8146 Y2.6339
G01 X-8.7492 Y2.5746
G01 X-8.6782 Y2.5220
G01 X-8.6025 Y2.4766
G01 X-8.5226 Y2.4388
G01 X-8.4395 Y2.4091
G01 X-8.3538 Y2.3876
G01 X-8.2676 Y2.3748
G00 Z2.0000
G00 X-8.2676 Y4.9148
G01 F60.00
G01 Z-0.0000
G01 F60.00
G01 X-8.1782 Y4.9103
G01 X-8.0900 Y4.9146
G01 X-8.0026 Y4.9276
G01 X-7.9169 Y4.9491
G01 X-7.8338 Y4.9788
G01 X-7.7539 Y5.0166
G01 X-7.6782 Y5.0620
G01 X-7.6072 Y5.1146
G01 X-7.5418 Y5.1739
G01 X-7.4825 Y5.2393
G01 X-7.4299 Y5.3103
G01 X-7.3845 Y5.3860
G01 X-7.3467 Y5.4659
G01 X-7.3170 Y5.5490
G01 X-7.2955 Y5.6347
G01 X-7.2825 Y5.7221
G01 X-7.2782 Y5.8103
G01 X-7.2825 Y5.8985
G01 X-7.2955 Y5.9859
G01 X-7.3170 Y6.0716
G01 X-7.3467 Y6.1547
G01 X-7.3845 Y6.2346
G01 X-7.4299 Y6.3103
G01 X-7.4825 Y6.3813
G01 X-7.5418 Y6.4467
G01 X-7.6072 Y6.5060
G01 X-7.6782 Y6.5586
G01 X-7.7539 Y6.6040
G01 X-7.8338 Y6.6418
G01 X-7.9169 Y6.6715
G01 X-8.0026 Y6.6930
G01 X-8.0900 Y6.7060
G01 X-8.1782 Y6.7103
G01 X-8.2664 Y6.7060
G01 X-8.3538 Y6.6930
G01 X-8.4395 Y6.6715
G01 X-8.5226 Y6.6418
G01 X-8.6025 Y6.6040
G01 X-8.6782 Y6.5586
G01 X-8.7492 Y6.5060
G01 X-8.8146 Y6.4467
G01 X-8.8739 Y6.3813
G01 X-8.9265 Y6.3103
G01 X-8.9719 Y6.2346
G01 X-9.0097 Y6.1547
G01 X-9.0394 Y6.0716
G01 X-9.0609 Y5.9859
G01 X-9.0739 Y5.8985
G01 X-9.0782 Y5.8103
G01 X-9.0739 Y5.7221
G01 X-9.0609 Y5.6347
G01 X-9.0394 Y5.5490
G01 X-9.0097 Y5.4659
G01 X-8.9719 Y5.3860
G01 X-8.9265 Y5.3103
G01 X-8.8739 Y5.2393
G01 X-8.8146 Y5.1739
G01 X-8.7492 Y5.1146
G01 X-8.6782 Y5.0620
G01 X-8.6025 Y5.0166
G01 X-8.5226 Y4.9788
G01 X-8.4395 Y4.9491
G01 X-8.3538 Y4.9276
G01 X-8.2676 Y4.9148
G00 Z2.0000
G00 X-8.2676 Y7.4548
G01 F60.00
G01 Z-0.0000
G01 F60.00
G01 X-8.1782 Y7.4503
G01 X-8.0900 Y7.4546
G01 X-8.0026 Y7.4676
G01 X-7.9169 Y7.4891
G01 X-7.8338 Y7.5188
G01 X-7.7539 Y7.5566
G01 X-7.6782 Y7.6020
G01 X-7.6072 Y7.6546
G01 X-7.5418 Y7.7139
G01 X-7.4825 Y7.7793
G01 X-7.4299 Y7.8503
G01 X-7.3845 Y7.9260
G01 X-7.3467 Y8.0059
G01 X-7.3170 Y8.0890
G01 X-7.2955 Y8.1747
G01 X-7.2825 Y8.2621
G01 X-7.2782 Y8.3503
G01 X-7.2825 Y8.4385
G01 X-7.2955 Y8.5259
G01 X-7.3170 Y8.6116
G01 X-7.3467 Y8.6947
G01 X-7.3845 Y8.7746
G01 X-7.4299 Y8.8503
G01 X-7.4825 Y8.9213
G01 X-7.5418 Y8.9867
G01 X-7.6072 Y9.0460
G01 X-7.6782 Y9.0986
G01 X-7.7539 Y9.1440
G01 X-7.8338 Y9.1818
G01 X-7.9169 Y9.2115
G01 X-8.0026 Y9.2330
G01 X-8.0900 Y9.2460
G01 X-8.1782 Y9.2503
G01 X-8.2664 Y9.2460
G01 X-8.3538 Y9.2330
G01 X-8.4395 Y9.2115
G01 X-8.5226 Y9.1818
G01 X-8.6025 Y9.1440
G01 X-8.6782 Y9.0986
G01 X-8.7492 Y9.0460
G01 X-8.8146 Y8.9867
G01 X-8.8739 Y8.9213
G01 X-8.9265 Y8.8503
G01 X-8.9719 Y8.7746
G01 X-9.0097 Y8.6947
G01 X-9.0394 Y8.6116
G01 X-9.0609 Y8.5259
G01 X-9.0739 Y8.4385
G01 X-9.0782 Y8.3503
G01 X-9.0739 Y8.2621
G01 X-9.0609 Y8.1747
G01 X-9.0394 Y8.0890
G01 X-9.0097 Y8.0059
G01 X-8.9719 Y7.9260
G01 X-8.9265 Y7.8503
G01 X-8.8739 Y7.7793
G01 X-8.8146 Y7.7139
G01 X-8.7492 Y7.6546
G01 X-8.6782 Y7.6020
G01 X-8.6025 Y7.5566
G01 X-8.5226 Y7.5188
G01 X-8.4395 Y7.4891
G01 X-8.3538 Y7.4676
G01 X-8.2676 Y7.4548
G00 Z2.0000
G00 X-8.2676 Y9.9948
G01 F60.00
G01 Z-0.0000
G01 F60.00
G01 X-8.1782 Y9.9903
G01 X-8.0900 Y9.9946
G01 X-8.0026 Y10.0076
G01 X-7.9169 Y10.0291
G01 X-7.8338 Y10.0588
G01 X-7.7539 Y10.0966
G01 X-7.6782 Y10.1420
G01 X-7.6072 Y10.1946
G01 X-7.5418 Y10.2539
G01 X-7.4825 Y10.3193
G01 X-7.4299 Y10.3903
G01 X-7.3845 Y10.4660
G01 X-7.3467 Y10.5459
G01 X-7.3170 Y10.6290
G01 X-7.2955 Y10.7147
G01 X-7.2825 Y10.8021
G01 X-7.2782 Y10.8903
G01 X-7.2825 Y10.9785
G01 X-7.2955 Y11.0659
G01 X-7.3170 Y11.1516
G01 X-7.3467 Y11.2347
G01 X-7.3845 Y11.3146
G01 X-7.4299 Y11.3903
G01 X-7.4825 Y11.4613
G01 X-7.5418 Y11.5267
G01 X-7.6072 Y11.5860
G01 X-7.6782 Y11.6386
G01 X-7.7539 Y11.6840
G01 X-7.8338 Y11.7218
G01 X-7.9169 Y11.7515
G01 X-8.0026 Y11.7730
G01 X-8.0900 Y11.7860
G01 X-8.1782 Y11.7903
G01 X-8.2664 Y11.7860
G01 X-8.3538 Y11.7730
G01 X-8.4395 Y11.7515
G01 X-8.5226 Y11.7218
G01 X-8.6025 Y11.6840
G01 X-8.6782 Y11.6386
G01 X-8.7492 Y11.5860
G01 X-8.8146 Y11.5267
G01 X-8.8739 Y11.4613
G01 X-8.9265 Y11.3903
G01 X-8.9719 Y11.3146
G01 X-9.0097 Y11.2347
G01 X-9.0394 Y11.1516
G01 X-9.0609 Y11.0659
G01 X-9.0739 Y10.9785
G01 X-9.0782 Y10.8903
G01 X-9.0739 Y10.8021
G01 X-9.0609 Y10.7147
G01 X-9.0394 Y10.6290
G01 X-9.0097 Y10.5459
G01 X-8.9719 Y10.4660
G01 X-8.9265 Y10.3903
G01 X-8.8739 Y10.3193
G01 X-8.8146 Y10.2539
G01 X-8.7492 Y10.1946
G01 X-8.6782 Y10.1420
G01 X-8.6025 Y10.0966
G01 X-8.5226 Y10.0588
G01 X-8.4395 Y10.0291
G01 X-8.3538 Y10.0076
G01 X-8.2676 Y9.9948
G00 Z2.0000
G00 X-8.2676 Y12.5348
G01 F60.00
G01 Z-0.0000
G01 F60.00
G01 X-8.1782 Y12.5303
G01 X-8.0900 Y12.5346
G01 X-8.0026 Y12.5476
G01 X-7.9169 Y12.5691
G01 X-7.8338 Y12.5988
G01 X-7.7539 Y12.6366
G01 X-7.6782 Y12.6820
G01 X-7.6072 Y12.7346
G01 X-7.5418 Y12.7939
G01 X-7.4825 Y12.8593
G01 X-7.4299 Y12.9303
G01 X-7.3845 Y13.0060
G01 X-7.3467 Y13.0859
G01 X-7.3170 Y13.1690
G01 X-7.2955 Y13.2547
G01 X-7.2825 Y13.3421
G01 X-7.2782 Y13.4303
G01 X-7.2825 Y13.5185
G01 X-7.2955 Y13.6059
G01 X-7.3170 Y13.6916
G01 X-7.3467 Y13.7747
G01 X-7.3845 Y13.8546
G01 X-7.4299 Y13.9303
G01 X-7.4825 Y14.0013
G01 X-7.5418 Y14.0667
G01 X-7.6072 Y14.1260
G01 X-7.6782 Y14.1786
G01 X-7.7539 Y14.2240
G01 X-7.8338 Y14.2618
G01 X-7.9169 Y14.2915
G01 X-8.0026 Y14.3130
G01 X-8.0900 Y14.3260
G01 X-8.1782 Y14.3303
G01 X-8.2664 Y14.3260
G01 X-8.3538 Y14.3130
G01 X-8.4395 Y14.2915
G01 X-8.5226 Y14.2618
G01 X-8.6025 Y14.2240
G01 X-8.6782 Y14.1786
G01 X-8.7492 Y14.1260
G01 X-8.8146 Y14.0667
G01 X-8.8739 Y14.0013
G01 X-8.9265 Y13.9303
G01 X-8.9719 Y13.8546
G01 X-9.0097 Y13.7747
G01 X-9.0394 Y13.6916
G01 X-9.0609 Y13.6059
G01 X-9.0739 Y13.5185
G01 X-9.0782 Y13.4303
G01 X-9.0739 Y13.3421
G01 X-9.0609 Y13.2547
G01 X-9.0394 Y13.1690
G01 X-9.0097 Y13.0859
G01 X-8.9719 Y13.0060
G01 X-8.9265 Y12.9303
G01 X-8.8739 Y12.8593
G01 X-8.8146 Y12.7939
G01 X-8.7492 Y12.7346
G01 X-8.6782 Y12.6820
G01 X-8.6025 Y12.6366
G01 X-8.5226 Y12.5988
G01 X-8.4395 Y12.5691
G01 X-8.3538 Y12.5476
G01 X-8.2676 Y12.5348
G00 Z2.0000
G00 X-5.3393 Y26.3909
G01 F60.00
G01 Z-0.0000
G01 F60.00
G01 X-5.3276 Y26.4206
G01 X-5.0151 Y27.3582
G01 X-3.5429 Y27.3582
G01 X-3.2300 Y26.4194
G01 X-3.2197 Y26.3931
G01 X-3.2051 Y26.3647
G01 X-3.1891 Y26.3400
G01 X-3.1724 Y26.3188
G01 X-3.1538 Y26.2993
G01 X-3.1297 Y26.2784
G01 X-3.1034 Y26.2602
G01 X-3.0799 Y26.2470
G01 X-3.0552 Y26.2361
G01 X-3.0249 Y26.2260
G01 X-2.9937 Y26.2193
G01 X-2.9669 Y26.2161
G01 X-2.9399 Y26.2155
G01 X-2.9081 Y26.2177
G01 X-2.8767 Y26.2234
G01 X-2.8508 Y26.2308
G01 X-2.8256 Y26.2405
G01 X-2.7970 Y26.2547
G01 X-2.7702 Y26.2720
G01 X-2.7490 Y26.2887
G01 X-2.7295 Y26.3074
G01 X-2.7086 Y26.3315
G01 X-2.6904 Y26.3577
G01 X-2.6772 Y26.3813
G01 X-2.6663 Y26.4059
G01 X-2.6559 Y26.4374
G01 X-2.6498 Y26.4650
G01 X-2.6465 Y26.4918
G01 X-2.6456 Y26.5237
G01 X-2.6483 Y26.5554
G01 X-2.6530 Y26.5820
G01 X-2.6609 Y26.6104
G01 X-3.9947 Y30.6116
G01 X-4.0062 Y30.6406
G01 X-4.0188 Y30.6650
G01 X-4.0336 Y30.6882
G01 X-4.0537 Y30.7137
G01 X-4.0745 Y30.7352
G01 X-4.0975 Y30.7545
G01 X-4.1244 Y30.7727
G01 X-4.1485 Y30.7858
G01 X-4.1738 Y30.7965
G01 X-4.2048 Y30.8063
G01 X-4.2342 Y30.8122
G01 X-4.2640 Y30.8152
G01 X-4.2940 Y30.8152
G01 X-4.3213 Y30.8126
G01 X-4.3556 Y30.8056
G01 X-4.3818 Y30.7974
G01 X-4.4095 Y30.7858
G01 X-4.4358 Y30.7714
G01 X-4.4605 Y30.7545
G01 X-4.4835 Y30.7352
G01 X-4.5027 Y30.7155
G01 X-4.5244 Y30.6882
G01 X-4.5392 Y30.6650
G01 X-4.5538 Y30.6360
G01 X-4.5637 Y30.6104
G01 X-5.8971 Y26.6104
G01 X-5.9047 Y26.5832
G01 X-5.9101 Y26.5530
G01 X-5.9123 Y26.5237
G01 X-5.9117 Y26.4942
G01 X-5.9085 Y26.4674
G01 X-5.9018 Y26.4362
G01 X-5.8935 Y26.4105
G01 X-5.8796 Y26.3791
G01 X-5.8663 Y26.3556
G01 X-5.8494 Y26.3315
G01 X-5.8302 Y26.3091
G01 X-5.8090 Y26.2887
G01 X-5.7858 Y26.2706
G01 X-5.7610 Y26.2547
G01 X-5.7347 Y26.2414
G01 X-5.7072 Y26.2308
G01 X-5.6789 Y26.2228
G01 X-5.6499 Y26.2177
G01 X-5.6205 Y26.2155
G01 X-5.5935 Y26.2160
G01 X-5.5594 Y26.2201
G01 X-5.5331 Y26.2260
G01 X-5.5028 Y26.2361
G01 X-5.4781 Y26.2470
G01 X-5.4524 Y26.2615
G01 X-5.4283 Y26.2784
G01 X-5.4060 Y26.2976
G01 X-5.3856 Y26.3188
G01 X-5.3674 Y26.3420
G01 X-5.3516 Y26.3668
G01 X-5.3393 Y26.3909
G00 Z2.0000
G00 X-4.8150 Y27.9585
G01 F60.00
G01 Z-0.0000
G01 F60.00
G01 X-3.7430 Y27.9585
G01 X-4.2790 Y29.5664
G01 X-4.8150 Y27.9585
G00 Z2.0000
G00 X-7.0553 Y29.2530
G01 F60.00
G01 Z-0.0000
G01 F60.00
G01 X-7.0553 Y29.6827
G01 X-7.1923 Y29.9567
G01 X-7.3139 Y30.0783
G01 X-7.5879 Y30.2154
G01 X-8.7408 Y30.2154
G01 X-8.7408 Y28.7204
G01 X-7.5879 Y28.7204
G01 X-7.3139 Y28.8574
G01 X-7.1923 Y28.9790
G01 X-7.0553 Y29.2530
G00 Z2.0000
G00 X-9.3397 Y30.5437
G01 F60.00
G01 Z-0.0000
G01 F60.00
G01 X-9.3410 Y30.5155
G01 X-9.3410 Y26.5155
G01 X-9.3397 Y26.4873
G01 X-9.3353 Y26.4569
G01 X-9.3281 Y26.4284
G01 X-9.3182 Y26.4006
G01 X-9.3056 Y26.3740
G01 X-9.2904 Y26.3487
G01 X-9.2729 Y26.3251
G01 X-9.2531 Y26.3033
G01 X-9.2313 Y26.2835
G01 X-9.2076 Y26.2659
G01 X-9.1824 Y26.2508
G01 X-9.1558 Y26.2382
G01 X-9.1280 Y26.2283
G01 X-9.0995 Y26.2211
G01 X-9.0703 Y26.2168
G01 X-9.0409 Y26.2154
G01 X-9.0127 Y26.2167
G01 X-8.9823 Y26.2211
G01 X-8.9561 Y26.2276
G01 X-8.9238 Y26.2392
G01 X-8.8994 Y26.2508
G01 X-8.8742 Y26.2659
G01 X-8.8505 Y26.2835
G01 X-8.8287 Y26.3033
G01 X-8.8089 Y26.3251
G01 X-8.7928 Y26.3467
G01 X-8.7751 Y26.3762
G01 X-8.7636 Y26.4006
G01 X-8.7537 Y26.4284
G01 X-8.7465 Y26.4569
G01 X-8.7425 Y26.4836
G01 X-8.7408 Y26.5155
G01 X-8.7408 Y28.1201
G01 X-7.5171 Y28.1201
G01 X-7.4893 Y28.1214
G01 X-7.4640 Y28.1249
G01 X-7.4325 Y28.1323
G01 X-7.4083 Y28.1405
G01 X-7.3829 Y28.1518
G01 X-7.0019 Y28.3423
G01 X-6.9740 Y28.3582
G01 X-6.9500 Y28.3754
G01 X-6.9458 Y28.3787
G01 X-6.9239 Y28.3985
G01 X-6.7334 Y28.5890
G01 X-6.7119 Y28.6129
G01 X-6.6939 Y28.6379
G01 X-6.6772 Y28.6670
G01 X-6.4867 Y29.0479
G01 X-6.4751 Y29.0744
G01 X-6.4666 Y29.0997
G01 X-6.4602 Y29.1268
G01 X-6.4564 Y29.1544
G01 X-6.4551 Y29.1810
G01 X-6.4551 Y29.7536
G01 X-6.4563 Y29.7802
G01 X-6.4602 Y29.8089
G01 X-6.4666 Y29.8360
G01 X-6.4755 Y29.8624
G01 X-6.4867 Y29.8878
G01 X-6.6778 Y30.2699
G01 X-6.6946 Y30.2989
G01 X-6.7119 Y30.3228
G01 X-6.7325 Y30.3458
G01 X-6.9249 Y30.5382
G01 X-6.9479 Y30.5587
G01 X-6.9740 Y30.5775
G01 X-7.0019 Y30.5934
G01 X-7.3829 Y30.7839
G01 X-7.4083 Y30.7952
G01 X-7.4358 Y30.8044
G01 X-7.4617 Y30.8105
G01 X-7.4870 Y30.8140
G01 X-7.5171 Y30.8156
G01 X-9.0409 Y30.8156
G01 X-9.0728 Y30.8139
G01 X-9.0995 Y30.8098
G01 X-9.1280 Y30.8027
G01 X-9.1558 Y30.7928
G01 X-9.1802 Y30.7813
G01 X-9.2096 Y30.7636
G01 X-9.2313 Y30.7475
G01 X-9.2531 Y30.7277
G01 X-9.2729 Y30.7059
G01 X-9.2904 Y30.6822
G01 X-9.3056 Y30.6570
G01 X-9.3172 Y30.6326
G01 X-9.3288 Y30.6002
G01 X-9.3353 Y30.5740
G01 X-9.3397 Y30.5437
G00 Z2.0000
G00 X-11.1716 Y27.9585
G01 F60.00
G01 Z-0.0000
G01 F60.00
G01 X-11.7076 Y29.5664
G01 X-12.2435 Y27.9585
G01 X-11.1716 Y27.9585
G00 Z2.0000
G00 X-12.7668 Y26.3931
G01 F60.00
G01 Z-0.0000
G01 F60.00
G01 X-12.7562 Y26.4206
G01 X-12.4436 Y27.3582
G01 X-10.9715 Y27.3582
G01 X-10.6586 Y26.4194
G01 X-10.6483 Y26.3931
G01 X-10.6337 Y26.3647
G01 X-10.6177 Y26.3400
G01 X-10.6010 Y26.3188
G01 X-10.5823 Y26.2993
G01 X-10.5582 Y26.2784
G01 X-10.5320 Y26.2602
G01 X-10.5084 Y26.2470
G01 X-10.4838 Y26.2361
G01 X-10.4535 Y26.2260
G01 X-10.4223 Y26.2193
G01 X-10.3955 Y26.2161
G01 X-10.3685 Y26.2155
G01 X-10.3367 Y26.2177
G01 X-10.3053 Y26.2234
G01 X-10.2793 Y26.2308
G01 X-10.2541 Y26.2405
G01 X-10.2256 Y26.2547
G01 X-10.1988 Y26.2720
G01 X-10.1776 Y26.2887
G01 X-10.1580 Y26.3074
G01 X-10.1371 Y26.3315
G01 X-10.1190 Y26.3577
G01 X-10.1058 Y26.3813
G01 X-10.0949 Y26.4059
G01 X-10.0845 Y26.4374
G01 X-10.0784 Y26.4650
G01 X-10.0751 Y26.4918
G01 X-10.0742 Y26.5237
G01 X-10.0765 Y26.5530
G01 X-10.0811 Y26.5796
G01 X-10.0895 Y26.6104
G01 X-11.4233 Y30.6116
G01 X-11.4348 Y30.6406
G01 X-11.4474 Y30.6650
G01 X-11.4622 Y30.6882
G01 X-11.4822 Y30.7137
G01 X-11.5031 Y30.7352
G01 X-11.5281 Y30.7560
G01 X-11.5508 Y30.7714
G01 X-11.5749 Y30.7846
G01 X-11.6047 Y30.7974
G01 X-11.6334 Y30.8063
G01 X-11.6628 Y30.8122
G01 X-11.6926 Y30.8152
G01 X-11.7226 Y30.8152
G01 X-11.7499 Y30.8126
G01 X-11.7842 Y30.8056
G01 X-11.8104 Y30.7974
G01 X-11.8380 Y30.7858
G01 X-11.8643 Y30.7714
G01 X-11.8891 Y30.7545
G01 X-11.9120 Y30.7352
G01 X-11.9312 Y30.7155
G01 X-11.9530 Y30.6882
G01 X-11.9678 Y30.6650
G01 X-11.9824 Y30.6360
G01 X-11.9923 Y30.6104
G01 X-13.3256 Y26.6104
G01 X-13.3333 Y26.5832
G01 X-13.3387 Y26.5530
G01 X-13.3409 Y26.5237
G01 X-13.3403 Y26.4942
G01 X-13.3371 Y26.4674
G01 X-13.3304 Y26.4362
G01 X-13.3220 Y26.4105
G01 X-13.3082 Y26.3791
G01 X-13.2949 Y26.3556
G01 X-13.2780 Y26.3315
G01 X-13.2588 Y26.3091
G01 X-13.2375 Y26.2887
G01 X-13.2144 Y26.2706
G01 X-13.1895 Y26.2547
G01 X-13.1633 Y26.2414
G01 X-13.1358 Y26.2308
G01 X-13.1074 Y26.2228
G01 X-13.0784 Y26.2177
G01 X-13.0491 Y26.2155
G01 X-13.0196 Y26.2161
G01 X-12.9904 Y26.2196
G01 X-12.9616 Y26.2260
G01 X-12.9336 Y26.2352
G01 X-12.9089 Y26.2460
G01 X-12.8790 Y26.2628
G01 X-12.8569 Y26.2784
G01 X-12.8328 Y26.2993
G01 X-12.8142 Y26.3188
G01 X-12.7960 Y26.3420
G01 X-12.7802 Y26.3668
G01 X-12.7668 Y26.3931
G00 Z2.0000
G00 X-19.2374 Y29.1118
G01 F60.00
G01 Z-0.0000
G01 F60.00
G01 X-19.2283 Y29.0812
G01 X-18.3141 Y26.5215
G01 X-18.6300 Y25.7318
G01 X-18.7425 Y25.6193
G01 X-19.0810 Y25.4500
G01 X-19.1055 Y25.4361
G01 X-19.1287 Y25.4200
G01 X-19.1538 Y25.3983
G01 X-19.1724 Y25.3788
G01 X-19.1906 Y25.3556
G01 X-19.2076 Y25.3286
G01 X-19.2197 Y25.3045
G01 X-19.2300 Y25.2782
G01 X-19.2383 Y25.2487
G01 X-19.2437 Y25.2172
G01 X-19.2457 Y25.1903
G01 X-19.2451 Y25.1633
G01 X-19.2415 Y25.1316
G01 X-19.2344 Y25.1005
G01 X-19.2260 Y25.0749
G01 X-19.2151 Y25.0501
G01 X-19.1996 Y25.0223
G01 X-19.1828 Y24.9981
G01 X-19.1636 Y24.9758
G01 X-19.1404 Y24.9538
G01 X-19.1191 Y24.9372
G01 X-19.0964 Y24.9227
G01 X-19.0680 Y24.9081
G01 X-19.0382 Y24.8967
G01 X-19.0122 Y24.8895
G01 X-18.9856 Y24.8847
G01 X-18.9538 Y24.8821
G01 X-18.9244 Y24.8828
G01 X-18.8951 Y24.8863
G01 X-18.8664 Y24.8927
G01 X-18.8384 Y24.9018
G01 X-18.8125 Y24.9132
G01 X-18.4305 Y25.1042
G01 X-18.4014 Y25.1208
G01 X-18.3764 Y25.1389
G01 X-18.3534 Y25.1595
G01 X-18.1611 Y25.3518
G01 X-18.1417 Y25.3734
G01 X-18.1251 Y25.3958
G01 X-18.1077 Y25.4252
G01 X-18.0956 Y25.4516
G01 X-17.7108 Y26.4142
G01 X-16.7583 Y29.0812
G01 X-16.7497 Y29.1094
G01 X-16.7440 Y29.1383
G01 X-16.7411 Y29.1676
G01 X-16.7412 Y29.1983
G01 X-16.7440 Y29.2264
G01 X-16.7493 Y29.2528
G01 X-16.7584 Y29.2834
G01 X-16.7697 Y29.3106
G01 X-16.7824 Y29.3345
G01 X-16.8015 Y29.3630
G01 X-16.8186 Y29.3838
G01 X-16.8395 Y29.4046
G01 X-16.8623 Y29.4233
G01 X-16.8847 Y29.4383
G01 X-16.9150 Y29.4545
G01 X-16.9400 Y29.4648
G01 X-16.9658 Y29.4727
G01 X-16.9995 Y29.4793
G01 X-17.0263 Y29.4819
G01 X-17.0558 Y29.4819
G01 X-17.0851 Y29.4790
G01 X-17.1116 Y29.4738
G01 X-17.1422 Y29.4647
G01 X-17.1716 Y29.4523
G01 X-17.1953 Y29.4395
G01 X-17.2198 Y29.4231
G01 X-17.2426 Y29.4044
G01 X-17.2617 Y29.3853
G01 X-17.2828 Y29.3598
G01 X-17.2984 Y29.3363
G01 X-17.3112 Y29.3125
G01 X-17.3235 Y29.2831
G01 X-17.9933 Y27.4078
G01 X-18.6630 Y29.2831
G01 X-18.6743 Y29.3103
G01 X-18.6869 Y29.3341
G01 X-18.7045 Y29.3608
G01 X-18.7232 Y29.3836
G01 X-18.7422 Y29.4027
G01 X-18.7687 Y29.4245
G01 X-18.7912 Y29.4395
G01 X-18.8172 Y29.4534
G01 X-18.8444 Y29.4647
G01 X-18.8726 Y29.4732
G01 X-18.9014 Y29.4790
G01 X-18.9283 Y29.4817
G01 X-18.9627 Y29.4817
G01 X-18.9895 Y29.4790
G01 X-19.0184 Y29.4733
G01 X-19.0466 Y29.4648
G01 X-19.0738 Y29.4535
G01 X-19.0998 Y29.4397
G01 X-19.1223 Y29.4247
G01 X-19.1489 Y29.4029
G01 X-19.1679 Y29.3838
G01 X-19.1866 Y29.3611
G01 X-19.2030 Y29.3366
G01 X-19.2169 Y29.3106
G01 X-19.2282 Y29.2834
G01 X-19.2361 Y29.2576
G01 X-19.2428 Y29.2239
G01 X-19.2454 Y29.1970
G01 X-19.2454 Y29.1676
G01 X-19.2426 Y29.1383
G01 X-19.2374 Y29.1118
G00 Z2.0000
G00 X-20.9066 Y29.9567
G01 F60.00
G01 Z-0.0000
G01 F60.00
G01 X-21.0282 Y30.0783
G01 X-21.3022 Y30.2154
G01 X-22.2646 Y30.2154
G01 X-22.2646 Y28.9108
G01 X-21.3022 Y28.9108
G01 X-21.0282 Y29.0478
G01 X-20.9066 Y29.1694
G01 X-20.7696 Y29.4435
G01 X-20.7696 Y29.6827
G01 X-20.9066 Y29.9567
G00 Z2.0000
G00 X-22.8633 Y30.5461
G01 F60.00
G01 Z-0.0000
G01 F60.00
G01 X-22.8648 Y30.5155
G01 X-22.8648 Y26.5155
G01 X-22.8631 Y26.4836
G01 X-22.8591 Y26.4569
G01 X-22.8526 Y26.4307
G01 X-22.8420 Y26.4006
G01 X-22.8288 Y26.3729
G01 X-22.8128 Y26.3467
G01 X-22.7967 Y26.3251
G01 X-22.7786 Y26.3050
G01 X-22.7551 Y26.2835
G01 X-22.7315 Y26.2659
G01 X-22.7040 Y26.2497
G01 X-22.6796 Y26.2382
G01 X-22.6542 Y26.2290
G01 X-22.6233 Y26.2211
G01 X-22.5941 Y26.2168
G01 X-22.5647 Y26.2154
G01 X-21.0397 Y26.2154
G01 X-21.0131 Y26.2166
G01 X-20.9856 Y26.2205
G01 X-20.9585 Y26.2269
G01 X-20.9300 Y26.2367
G01 X-20.9067 Y26.2470
G01 X-20.5257 Y26.4375
G01 X-20.5001 Y26.4520
G01 X-20.4956 Y26.4549
G01 X-20.4717 Y26.4722
G01 X-20.4477 Y26.4937
G01 X-20.2563 Y26.6852
G01 X-20.2358 Y26.7081
G01 X-20.2169 Y26.7342
G01 X-20.2010 Y26.7622
G01 X-20.0106 Y27.1432
G01 X-20.0002 Y27.1665
G01 X-19.9904 Y27.1950
G01 X-19.9840 Y27.2220
G01 X-19.9802 Y27.2496
G01 X-19.9789 Y27.2762
G01 X-19.9789 Y27.8500
G01 X-19.9802 Y27.8766
G01 X-19.9840 Y27.9042
G01 X-19.9904 Y27.9312
G01 X-19.9993 Y27.9576
G01 X-20.0106 Y27.9830
G01 X-20.2010 Y28.3640
G01 X-20.2169 Y28.3919
G01 X-20.2341 Y28.4159
G01 X-20.2375 Y28.4201
G01 X-20.2572 Y28.4420
G01 X-20.4494 Y28.6341
G01 X-20.4683 Y28.6512
G01 X-20.4905 Y28.6680
G01 X-20.5142 Y28.6826
G01 X-20.5345 Y28.6927
G01 X-20.4477 Y28.7795
G01 X-20.4271 Y28.8024
G01 X-20.4074 Y28.8295
G01 X-20.3928 Y28.8551
G01 X-20.2000 Y29.2405
G01 X-20.1898 Y29.2638
G01 X-20.1809 Y29.2902
G01 X-20.1745 Y29.3173
G01 X-20.1705 Y29.3460
G01 X-20.1693 Y29.3726
G01 X-20.1694 Y29.7547
G01 X-20.1709 Y29.7837
G01 X-20.1745 Y29.8089
G01 X-20.1803 Y29.8337
G01 X-20.1898 Y29.8624
G01 X-20.2010 Y29.8878
G01 X-20.3915 Y30.2687
G01 X-20.4060 Y30.2944
G01 X-20.4089 Y30.2989
G01 X-20.4262 Y30.3228
G01 X-20.4477 Y30.3467
G01 X-20.6392 Y30.5381
G01 X-20.6621 Y30.5587
G01 X-20.6882 Y30.5775
G01 X-20.7162 Y30.5934
G01 X-21.0982 Y30.7844
G01 X-21.1226 Y30.7952
G01 X-21.1490 Y30.8041
G01 X-21.1760 Y30.8105
G01 X-21.2036 Y30.8143
G01 X-21.2314 Y30.8156
G01 X-22.5647 Y30.8156
G01 X-22.5941 Y30.8142
G01 X-22.6221 Y30.8101
G01 X-22.6542 Y30.8019
G01 X-22.6796 Y30.7928
G01 X-22.7062 Y30.7802
G01 X-22.7315 Y30.7650
G01 X-22.7532 Y30.7490
G01 X-22.7786 Y30.7259
G01 X-22.7967 Y30.7059
G01 X-22.8143 Y30.6822
G01 X-22.8294 Y30.6570
G01 X-22.8410 Y30.6326
G01 X-22.8526 Y30.6002
G01 X-22.8591 Y30.5740
G01 X-22.8633 Y30.5461
G00 Z2.0000
G00 X-20.5791 Y27.7780
G01 F60.00
G01 Z-0.0000
G01 F60.00
G01 X-20.7161 Y28.0520
G01 X-20.8221 Y28.1579
G01 X-21.2801 Y28.3106
G01 X-22.2646 Y28.3106
G01 X-22.2646 Y26.8156
G01 X-21.1117 Y26.8156
G01 X-20.8377 Y26.9526
G01 X-20.7161 Y27.0742
G01 X-20.5791 Y27.3482
G01 X-20.5791 Y27.7780
G00 Z2.0000
G00 X-33.9407 Y22.3700
G01 F60.00
G01 Z-0.0000
G01 F60.00
G01 X-33.9309 Y22.3690
G01 X-31.9309 Y22.3690
G01 X-31.9211 Y22.3700
G01 X-31.9118 Y22.3728
G01 X-31.9031 Y22.3774
G01 X-31.8955 Y22.3836
G01 X-31.8893 Y22.3912
G01 X-31.8847 Y22.3999
G01 X-31.8819 Y22.4092
G01 X-31.8809 Y22.4190
G01 X-31.8809 Y24.4190
G01 X-31.8819 Y24.4288
G01 X-31.8847 Y24.4381
G01 X-31.8893 Y24.4468
G01 X-31.8955 Y24.4544
G01 X-31.9031 Y24.4606
G01 X-31.9118 Y24.4652
G01 X-31.9211 Y24.4680
G01 X-31.9309 Y24.4690
G01 X-33.9309 Y24.4690
G01 X-33.9407 Y24.4680
G01 X-33.9500 Y24.4652
G01 X-33.9587 Y24.4606
G01 X-33.9663 Y24.4544
G01 X-33.9725 Y24.4468
G01 X-33.9771 Y24.4381
G01 X-33.9799 Y24.4288
G01 X-33.9809 Y24.4190
G01 X-33.9809 Y22.4178
G01 X-33.9802 Y22.4105
G01 X-33.9780 Y22.4022
G01 X-33.9744 Y22.3944
G01 X-33.9696 Y22.3873
G01 X-33.9636 Y22.3811
G01 X-33.9566 Y22.3761
G01 X-33.9489 Y22.3724
G01 X-33.9407 Y22.3700
G00 Z2.0000
G00 X-35.8614 Y28.8754
G01 F60.00
G01 Z-0.0000
G01 F60.00
G01 X-35.8603 Y28.8876
G01 X-35.8530 Y29.0371
G01 X-35.8530 Y29.0494
G01 X-35.8604 Y29.1988
G01 X-35.8617 Y29.2110
G01 X-35.8837 Y29.3591
G01 X-35.8862 Y29.3711
G01 X-35.9226 Y29.5163
G01 X-35.9262 Y29.5280
G01 X-35.9767 Y29.6689
G01 X-35.9814 Y29.6802
G01 X-36.0455 Y29.8154
G01 X-36.0513 Y29.8262
G01 X-36.1283 Y29.9546
G01 X-36.1352 Y29.9647
G01 X-36.2244 Y30.0849
G01 X-36.2322 Y30.0944
G01 X-36.3328 Y30.2052
G01 X-36.3415 Y30.2138
G01 X-36.4524 Y30.3143
G01 X-36.4619 Y30.3220
G01 X-36.5822 Y30.4111
G01 X-36.5924 Y30.4179
G01 X-36.7208 Y30.4948
G01 X-36.7317 Y30.5005
G01 X-36.8670 Y30.5645
G01 X-36.8783 Y30.5691
G01 X-37.0193 Y30.6195
G01 X-37.0310 Y30.6230
G01 X-37.1762 Y30.6593
G01 X-37.1882 Y30.6616
G01 X-37.3363 Y30.6835
G01 X-37.3485 Y30.6846
G01 X-37.4980 Y30.6919
G01 X-37.5103 Y30.6919
G01 X-37.6597 Y30.6845
G01 X-37.6719 Y30.6832
G01 X-37.8200 Y30.6612
G01 X-37.8320 Y30.6587
G01 X-37.9772 Y30.6223
G01 X-37.9889 Y30.6187
G01 X-38.1298 Y30.5682
G01 X-38.1411 Y30.5635
G01 X-38.2763 Y30.4994
G01 X-38.2871 Y30.4936
G01 X-38.4155 Y30.4166
G01 X-38.4256 Y30.4097
G01 X-38.5458 Y30.3205
G01 X-38.5553 Y30.3127
G01 X-38.6661 Y30.2121
G01 X-38.6747 Y30.2034
G01 X-38.7752 Y30.0925
G01 X-38.7829 Y30.0830
G01 X-38.8720 Y29.9627
G01 X-38.8788 Y29.9525
G01 X-38.9557 Y29.8241
G01 X-38.9614 Y29.8132
G01 X-39.0254 Y29.6779
G01 X-39.0300 Y29.6666
G01 X-39.0804 Y29.5256
G01 X-39.0839 Y29.5139
G01 X-39.1202 Y29.3687
G01 X-39.1225 Y29.3567
G01 X-39.1444 Y29.2086
G01 X-39.1455 Y29.1964
G01 X-39.1528 Y29.0469
G01 X-39.1528 Y29.0346
G01 X-39.1454 Y28.8852
G01 X-39.1441 Y28.8730
G01 X-39.1221 Y28.7249
G01 X-39.1196 Y28.7129
G01 X-39.0832 Y28.5677
G01 X-39.0796 Y28.5560
G01 X-39.0291 Y28.4151
G01 X-39.0244 Y28.4038
G01 X-38.9603 Y28.2686
G01 X-38.9545 Y28.2578
G01 X-38.8775 Y28.1294
G01 X-38.8706 Y28.1193
G01 X-38.7814 Y27.9991
G01 X-38.7736 Y27.9896
G01 X-38.6730 Y27.8788
G01 X-38.6643 Y27.8702
G01 X-38.5534 Y27.7697
G01 X-38.5439 Y27.7620
G01 X-38.4236 Y27.6729
G01 X-38.4134 Y27.6661
G01 X-38.2850 Y27.5892
G01 X-38.2741 Y27.5835
G01 X-38.1388 Y27.5195
G01 X-38.1275 Y27.5149
G01 X-37.9865 Y27.4645
G01 X-37.9748 Y27.4610
G01 X-37.8296 Y27.4247
G01 X-37.8176 Y27.4224
G01 X-37.6695 Y27.4005
G01 X-37.6573 Y27.3994
G01 X-37.5078 Y27.3921
G01 X-37.4955 Y27.3921
G01 X-37.3461 Y27.3995
G01 X-37.3339 Y27.4008
G01 X-37.1858 Y27.4228
G01 X-37.1738 Y27.4253
G01 X-37.0286 Y27.4617
G01 X-37.0169 Y27.4653
G01 X-36.8760 Y27.5158
G01 X-36.8647 Y27.5205
G01 X-36.7295 Y27.5846
G01 X-36.7187 Y27.5904
G01 X-36.5903 Y27.6674
G01 X-36.5802 Y27.6743
G01 X-36.4600 Y27.7635
G01 X-36.4505 Y27.7713
G01 X-36.3397 Y27.8719
G01 X-36.3311 Y27.8806
G01 X-36.2306 Y27.9915
G01 X-36.2229 Y28.0010
G01 X-36.1338 Y28.1213
G01 X-36.1270 Y28.1315
G01 X-36.0501 Y28.2599
G01 X-36.0444 Y28.2708
G01 X-35.9804 Y28.4061
G01 X-35.9758 Y28.4174
G01 X-35.9254 Y28.5584
G01 X-35.9219 Y28.5701
G01 X-35.8856 Y28.7153
G01 X-35.8833 Y28.7273
G01 X-35.8614 Y28.8754
G00 Z2.0000
G00 X-36.3806 Y29.7919
G01 F60.00
G01 Z-0.0000
G01 F60.00
G01 X-36.4595 Y29.8983
G01 X-36.5485 Y29.9964
G01 X-36.6466 Y30.0854
G01 X-36.7530 Y30.1643
G01 X-36.8666 Y30.2324
G01 X-36.9864 Y30.2890
G01 X-37.1111 Y30.3336
G01 X-37.2396 Y30.3658
G01 X-37.3706 Y30.3853
G01 X-37.5029 Y30.3918
G01 X-37.6352 Y30.3853
G01 X-37.7662 Y30.3658
G01 X-37.8947 Y30.3336
G01 X-38.0194 Y30.2890
G01 X-38.1392 Y30.2324
G01 X-38.2528 Y30.1643
G01 X-38.3592 Y30.0854
G01 X-38.4573 Y29.9964
G01 X-38.5463 Y29.8983
G01 X-38.6252 Y29.7919
G01 X-38.6933 Y29.6783
G01 X-38.7499 Y29.5585
G01 X-38.7945 Y29.4338
G01 X-38.8267 Y29.3053
G01 X-38.8462 Y29.1743
G01 X-38.8527 Y29.0420
G01 X-38.8462 Y28.9097
G01 X-38.8267 Y28.7787
G01 X-38.7945 Y28.6502
G01 X-38.7499 Y28.5255
G01 X-38.6933 Y28.4057
G01 X-38.6252 Y28.2921
G01 X-38.5463 Y28.1857
G01 X-38.4573 Y28.0876
G01 X-38.3592 Y27.9986
G01 X-38.2528 Y27.9197
G01 X-38.1392 Y27.8516
G01 X-38.0194 Y27.7950
G01 X-37.8947 Y27.7504
G01 X-37.7662 Y27.7182
G01 X-37.6352 Y27.6987
G01 X-37.5029 Y27.6922
G01 X-37.3706 Y27.6987
G01 X-37.2396 Y27.7182
G01 X-37.1111 Y27.7504
G01 X-36.9864 Y27.7950
G01 X-36.8666 Y27.8516
G01 X-36.7530 Y27.9197
G01 X-36.6466 Y27.9986
G01 X-36.5485 Y28.0876
G01 X-36.4595 Y28.1857
G01 X-36.3806 Y28.2921
G01 X-36.3125 Y28.4057
G01 X-36.2559 Y28.5255
G01 X-36.2113 Y28.6502
G01 X-36.1791 Y28.7787
G01 X-36.1596 Y28.9097
G01 X-36.1531 Y29.0420
G01 X-36.1596 Y29.1743
G01 X-36.1791 Y29.3053
G01 X-36.2113 Y29.4338
G01 X-36.2559 Y29.5585
G01 X-36.3125 Y29.6783
G01 X-36.3806 Y29.7919
G00 Z2.0000
G00 X-31.8861 Y15.7149
G01 F60.00
G01 Z-0.0000
G01 F60.00
G01 X-31.8809 Y15.8190
G01 X-31.8860 Y15.9219
G01 X-31.9011 Y16.0238
G01 X-31.9261 Y16.1238
G01 X-31.9608 Y16.2208
G01 X-32.0049 Y16.3140
G01 X-32.0579 Y16.4023
G01 X-32.1192 Y16.4851
G01 X-32.1884 Y16.5615
G01 X-32.2648 Y16.6307
G01 X-32.3476 Y16.6920
G01 X-32.4359 Y16.7450
G01 X-32.5291 Y16.7891
G01 X-32.6261 Y16.8238
G01 X-32.7261 Y16.8488
G01 X-32.8280 Y16.8639
G01 X-32.9309 Y16.8690
G01 X-33.0338 Y16.8639
G01 X-33.1357 Y16.8488
G01 X-33.2357 Y16.8238
G01 X-33.3327 Y16.7891
G01 X-33.4259 Y16.7450
G01 X-33.5142 Y16.6920
G01 X-33.5970 Y16.6307
G01 X-33.6734 Y16.5615
G01 X-33.7426 Y16.4851
G01 X-33.8039 Y16.4023
G01 X-33.8569 Y16.3140
G01 X-33.9010 Y16.2208
G01 X-33.9357 Y16.1238
G01 X-33.9607 Y16.0238
G01 X-33.9758 Y15.9219
G01 X-33.9809 Y15.8190
G01 X-33.9758 Y15.7161
G01 X-33.9607 Y15.6142
G01 X-33.9357 Y15.5142
G01 X-33.9010 Y15.4172
G01 X-33.8569 Y15.3240
G01 X-33.8039 Y15.2357
G01 X-33.7426 Y15.1529
G01 X-33.6734 Y15.0765
G01 X-33.5970 Y15.0073
G01 X-33.5142 Y14.9460
G01 X-33.4259 Y14.8930
G01 X-33.3327 Y14.8489
G01 X-33.2357 Y14.8142
G01 X-33.1357 Y14.7892
G01 X-33.0338 Y14.7741
G01 X-32.9309 Y14.7690
G01 X-32.8280 Y14.7741
G01 X-32.7261 Y14.7892
G01 X-32.6261 Y14.8142
G01 X-32.5291 Y14.8489
G01 X-32.4359 Y14.8930
G01 X-32.3476 Y14.9460
G01 X-32.2648 Y15.0073
G01 X-32.1884 Y15.0765
G01 X-32.1192 Y15.1529
G01 X-32.0579 Y15.2357
G01 X-32.0049 Y15.3240
G01 X-31.9608 Y15.4172
G01 X-31.9261 Y15.5142
G01 X-31.9011 Y15.6142
G01 X-31.8861 Y15.7149
G00 Z2.0000
G00 X-23.5076 Y12.5148
G01 F60.00
G01 Z-0.0000
G01 F60.00
G01 X-23.4182 Y12.5103
G01 X-23.3300 Y12.5146
G01 X-23.2426 Y12.5276
G01 X-23.1569 Y12.5491
G01 X-23.0738 Y12.5788
G01 X-22.9939 Y12.6166
G01 X-22.9182 Y12.6620
G01 X-22.8472 Y12.7146
G01 X-22.7818 Y12.7739
G01 X-22.7225 Y12.8393
G01 X-22.6699 Y12.9103
G01 X-22.6245 Y12.9860
G01 X-22.5867 Y13.0659
G01 X-22.5570 Y13.1490
G01 X-22.5355 Y13.2347
G01 X-22.5225 Y13.3221
G01 X-22.5182 Y13.4103
G01 X-22.5225 Y13.4985
G01 X-22.5355 Y13.5859
G01 X-22.5570 Y13.6716
G01 X-22.5867 Y13.7547
G01 X-22.6245 Y13.8346
G01 X-22.6699 Y13.9103
G01 X-22.7225 Y13.9813
G01 X-22.7818 Y14.0467
G01 X-22.8472 Y14.1060
G01 X-22.9182 Y14.1586
G01 X-22.9939 Y14.2040
G01 X-23.0738 Y14.2418
G01 X-23.1569 Y14.2715
G01 X-23.2426 Y14.2930
G01 X-23.3300 Y14.3060
G01 X-23.4182 Y14.3103
G01 X-23.5064 Y14.3060
G01 X-23.5938 Y14.2930
G01 X-23.6795 Y14.2715
G01 X-23.7626 Y14.2418
G01 X-23.8425 Y14.2040
G01 X-23.9182 Y14.1586
G01 X-23.9892 Y14.1060
G01 X-24.0546 Y14.0467
G01 X-24.1139 Y13.9813
G01 X-24.1665 Y13.9103
G01 X-24.2119 Y13.8346
G01 X-24.2497 Y13.7547
G01 X-24.2794 Y13.6716
G01 X-24.3009 Y13.5859
G01 X-24.3139 Y13.4985
G01 X-24.3182 Y13.4103
G01 X-24.3139 Y13.3221
G01 X-24.3009 Y13.2347
G01 X-24.2794 Y13.1490
G01 X-24.2497 Y13.0659
G01 X-24.2119 Y12.9860
G01 X-24.1665 Y12.9103
G01 X-24.1139 Y12.8393
G01 X-24.0546 Y12.7739
G01 X-23.9892 Y12.7146
G01 X-23.9182 Y12.6620
G01 X-23.8425 Y12.6166
G01 X-23.7626 Y12.5788
G01 X-23.6795 Y12.5491
G01 X-23.5938 Y12.5276
G01 X-23.5076 Y12.5148
G00 Z2.0000
G00 X-23.5076 Y9.9748
G01 F60.00
G01 Z-0.0000
G01 F60.00
G01 X-23.4182 Y9.9703
G01 X-23.3300 Y9.9746
G01 X-23.2426 Y9.9876
G01 X-23.1569 Y10.0091
G01 X-23.0738 Y10.0388
G01 X-22.9939 Y10.0766
G01 X-22.9182 Y10.1220
G01 X-22.8472 Y10.1746
G01 X-22.7818 Y10.2339
G01 X-22.7225 Y10.2993
G01 X-22.6699 Y10.3703
G01 X-22.6245 Y10.4460
G01 X-22.5867 Y10.5259
G01 X-22.5570 Y10.6090
G01 X-22.5355 Y10.6947
G01 X-22.5225 Y10.7821
G01 X-22.5182 Y10.8703
G01 X-22.5225 Y10.9585
G01 X-22.5355 Y11.0459
G01 X-22.5570 Y11.1316
G01 X-22.5867 Y11.2147
G01 X-22.6245 Y11.2946
G01 X-22.6699 Y11.3703
G01 X-22.7225 Y11.4413
G01 X-22.7818 Y11.5067
G01 X-22.8472 Y11.5660
G01 X-22.9182 Y11.6186
G01 X-22.9939 Y11.6640
G01 X-23.0738 Y11.7018
G01 X-23.1569 Y11.7315
G01 X-23.2426 Y11.7530
G01 X-23.3300 Y11.7660
G01 X-23.4182 Y11.7703
G01 X-23.5064 Y11.7660
G01 X-23.5938 Y11.7530
G01 X-23.6795 Y11.7315
G01 X-23.7626 Y11.7018
G01 X-23.8425 Y11.6640
G01 X-23.9182 Y11.6186
G01 X-23.9892 Y11.5660
G01 X-24.0546 Y11.5067
G01 X-24.1139 Y11.4413
G01 X-24.1665 Y11.3703
G01 X-24.2119 Y11.2946
G01 X-24.2497 Y11.2147
G01 X-24.2794 Y11.1316
G01 X-24.3009 Y11.0459
G01 X-24.3139 Y10.9585
G01 X-24.3182 Y10.8703
G01 X-24.3139 Y10.7821
G01 X-24.3009 Y10.6947
G01 X-24.2794 Y10.6090
G01 X-24.2497 Y10.5259
G01 X-24.2119 Y10.4460
G01 X-24.1665 Y10.3703
G01 X-24.1139 Y10.2993
G01 X-24.0546 Y10.2339
G01 X-23.9892 Y10.1746
G01 X-23.9182 Y10.1220
G01 X-23.8425 Y10.0766
G01 X-23.7626 Y10.0388
G01 X-23.6795 Y10.0091
G01 X-23.5938 Y9.9876
G01 X-23.5076 Y9.9748
G00 Z2.0000
G00 X-23.5076 Y7.4348
G01 F60.00
G01 Z-0.0000
G01 F60.00
G01 X-23.4182 Y7.4303
G01 X-23.3300 Y7.4346
G01 X-23.2426 Y7.4476
G01 X-23.1569 Y7.4691
G01 X-23.0738 Y7.4988
G01 X-22.9939 Y7.5366
G01 X-22.9182 Y7.5820
G01 X-22.8472 Y7.6346
G01 X-22.7818 Y7.6939
G01 X-22.7225 Y7.7593
G01 X-22.6699 Y7.8303
G01 X-22.6245 Y7.9060
G01 X-22.5867 Y7.9859
G01 X-22.5570 Y8.0690
G01 X-22.5355 Y8.1547
G01 X-22.5225 Y8.2421
G01 X-22.5182 Y8.3303
G01 X-22.5225 Y8.4185
G01 X-22.5355 Y8.5059
G01 X-22.5570 Y8.5916
G01 X-22.5867 Y8.6747
G01 X-22.6245 Y8.7546
G01 X-22.6699 Y8.8303
G01 X-22.7225 Y8.9013
G01 X-22.7818 Y8.9667
G01 X-22.8472 Y9.0260
G01 X-22.9182 Y9.0786
G01 X-22.9939 Y9.1240
G01 X-23.0738 Y9.1618
G01 X-23.1569 Y9.1915
G01 X-23.2426 Y9.2130
G01 X-23.3300 Y9.2260
G01 X-23.4182 Y9.2303
G01 X-23.5064 Y9.2260
G01 X-23.5938 Y9.2130
G01 X-23.6795 Y9.1915
G01 X-23.7626 Y9.1618
G01 X-23.8425 Y9.1240
G01 X-23.9182 Y9.0786
G01 X-23.9892 Y9.0260
G01 X-24.0546 Y8.9667
G01 X-24.1139 Y8.9013
G01 X-24.1665 Y8.8303
G01 X-24.2119 Y8.7546
G01 X-24.2497 Y8.6747
G01 X-24.2794 Y8.5916
G01 X-24.3009 Y8.5059
G01 X-24.3139 Y8.4185
G01 X-24.3182 Y8.3303
G01 X-24.3139 Y8.2421
G01 X-24.3009 Y8.1547
G01 X-24.2794 Y8.0690
G01 X-24.2497 Y7.9859
G01 X-24.2119 Y7.9060
G01 X-24.1665 Y7.8303
G01 X-24.1139 Y7.7593
G01 X-24.0546 Y7.6939
G01 X-23.9892 Y7.6346
G01 X-23.9182 Y7.5820
G01 X-23.8425 Y7.5366
G01 X-23.7626 Y7.4988
G01 X-23.6795 Y7.4691
G01 X-23.5938 Y7.4476
G01 X-23.5076 Y7.4348
G00 Z2.0000
G00 X-23.5076 Y4.8948
G01 F60.00
G01 Z-0.0000
G01 F60.00
G01 X-23.4182 Y4.8903
G01 X-23.3300 Y4.8946
G01 X-23.2426 Y4.9076
G01 X-23.1569 Y4.9291
G01 X-23.0738 Y4.9588
G01 X-22.9939 Y4.9966
G01 X-22.9182 Y5.0420
G01 X-22.8472 Y5.0946
G01 X-22.7818 Y5.1539
G01 X-22.7225 Y5.2193
G01 X-22.6699 Y5.2903
G01 X-22.6245 Y5.3660
G01 X-22.5867 Y5.4459
G01 X-22.5570 Y5.5290
G01 X-22.5355 Y5.6147
G01 X-22.5225 Y5.7021
G01 X-22.5182 Y5.7903
G01 X-22.5225 Y5.8785
G01 X-22.5355 Y5.9659
G01 X-22.5570 Y6.0516
G01 X-22.5867 Y6.1347
G01 X-22.6245 Y6.2146
G01 X-22.6699 Y6.2903
G01 X-22.7225 Y6.3613
G01 X-22.7818 Y6.4267
G01 X-22.8472 Y6.4860
G01 X-22.9182 Y6.5386
G01 X-22.9939 Y6.5840
G01 X-23.0738 Y6.6218
G01 X-23.1569 Y6.6515
G01 X-23.2426 Y6.6730
G01 X-23.3300 Y6.6860
G01 X-23.4182 Y6.6903
G01 X-23.5064 Y6.6860
G01 X-23.5938 Y6.6730
G01 X-23.6795 Y6.6515
G01 X-23.7626 Y6.6218
G01 X-23.8425 Y6.5840
G01 X-23.9182 Y6.5386
G01 X-23.9892 Y6.4860
G01 X-24.0546 Y6.4267
G01 X-24.1139 Y6.3613
G01 X-24.1665 Y6.2903
G01 X-24.2119 Y6.2146
G01 X-24.2497 Y6.1347
G01 X-24.2794 Y6.0516
G01 X-24.3009 Y5.9659
G01 X-24.3139 Y5.8785
G01 X-24.3182 Y5.7903
G01 X-24.3139 Y5.7021
G01 X-24.3009 Y5.6147
G01 X-24.2794 Y5.5290
G01 X-24.2497 Y5.4459
G01 X-24.2119 Y5.3660
G01 X-24.1665 Y5.2903
G01 X-24.1139 Y5.2193
G01 X-24.0546 Y5.1539
G01 X-23.9892 Y5.0946
G01 X-23.9182 Y5.0420
G01 X-23.8425 Y4.9966
G01 X-23.7626 Y4.9588
G01 X-23.6795 Y4.9291
G01 X-23.5938 Y4.9076
G01 X-23.5076 Y4.8948
G00 Z2.0000
G00 X-23.5076 Y2.3548
G01 F60.00
G01 Z-0.0000
G01 F60.00
G01 X-23.4182 Y2.3503
G01 X-23.3300 Y2.3546
G01 X-23.2426 Y2.3676
G01 X-23.1569 Y2.3891
G01 X-23.0738 Y2.4188
G01 X-22.9939 Y2.4566
G01 X-22.9182 Y2.5020
G01 X-22.8472 Y2.5546
G01 X-22.7818 Y2.6139
G01 X-22.7225 Y2.6793
G01 X-22.6699 Y2.7503
G01 X-22.6245 Y2.8260
G01 X-22.5867 Y2.9059
G01 X-22.5570 Y2.9890
G01 X-22.5355 Y3.0747
G01 X-22.5225 Y3.1621
G01 X-22.5182 Y3.2503
G01 X-22.5225 Y3.3385
G01 X-22.5355 Y3.4259
G01 X-22.5570 Y3.5116
G01 X-22.5867 Y3.5947
G01 X-22.6245 Y3.6746
G01 X-22.6699 Y3.7503
G01 X-22.7225 Y3.8213
G01 X-22.7818 Y3.8867
G01 X-22.8472 Y3.9460
G01 X-22.9182 Y3.9986
G01 X-22.9939 Y4.0440
G01 X-23.0738 Y4.0818
G01 X-23.1569 Y4.1115
G01 X-23.2426 Y4.1330
G01 X-23.3300 Y4.1460
G01 X-23.4182 Y4.1503
G01 X-23.5064 Y4.1460
G01 X-23.5938 Y4.1330
G01 X-23.6795 Y4.1115
G01 X-23.7626 Y4.0818
G01 X-23.8425 Y4.0440
G01 X-23.9182 Y3.9986
G01 X-23.9892 Y3.9460
G01 X-24.0546 Y3.8867
G01 X-24.1139 Y3.8213
G01 X-24.1665 Y3.7503
G01 X-24.2119 Y3.6746
G01 X-24.2497 Y3.5947
G01 X-24.2794 Y3.5116
G01 X-24.3009 Y3.4259
G01 X-24.3139 Y3.3385
G01 X-24.3182 Y3.2503
G01 X-24.3139 Y3.1621
G01 X-24.3009 Y3.0747
G01 X-24.2794 Y2.9890
G01 X-24.2497 Y2.9059
G01 X-24.2119 Y2.8260
G01 X-24.1665 Y2.7503
G01 X-24.1139 Y2.6793
G01 X-24.0546 Y2.6139
G01 X-23.9892 Y2.5546
G01 X-23.9182 Y2.5020
G01 X-23.8425 Y2.4566
G01 X-23.7626 Y2.4188
G01 X-23.6795 Y2.3891
G01 X-23.5938 Y2.3676
G01 X-23.5076 Y2.3548
G00 Z2.0000
G00 X-23.5076 Y-0.1852
G01 F60.00
G01 Z-0.0000
G01 F60.00
G01 X-23.4182 Y-0.1897
G01 X-23.3300 Y-0.1854
G01 X-23.2426 Y-0.1724
G01 X-23.1569 Y-0.1509
G01 X-23.0738 Y-0.1212
G01 X-22.9939 Y-0.0834
G01 X-22.9182 Y-0.0380
G01 X-22.8472 Y0.0146
G01 X-22.7818 Y0.0739
G01 X-22.7225 Y0.1393
G01 X-22.6699 Y0.2103
G01 X-22.6245 Y0.2860
G01 X-22.5867 Y0.3659
G01 X-22.5570 Y0.4490
G01 X-22.5355 Y0.5347
G01 X-22.5225 Y0.6221
G01 X-22.5182 Y0.7103
G01 X-22.5225 Y0.7985
G01 X-22.5355 Y0.8859
G01 X-22.5570 Y0.9716
G01 X-22.5867 Y1.0547
G01 X-22.6245 Y1.1346
G01 X-22.6699 Y1.2103
G01 X-22.7225 Y1.2813
G01 X-22.7818 Y1.3467
G01 X-22.8472 Y1.4060
G01 X-22.9182 Y1.4586
G01 X-22.9939 Y1.5040
G01 X-23.0738 Y1.5418
G01 X-23.1569 Y1.5715
G01 X-23.2426 Y1.5930
G01 X-23.3300 Y1.6060
G01 X-23.4182 Y1.6103
G01 X-23.5064 Y1.6060
G01 X-23.5938 Y1.5930
G01 X-23.6795 Y1.5715
G01 X-23.7626 Y1.5418
G01 X-23.8425 Y1.5040
G01 X-23.9182 Y1.4586
G01 X-23.9892 Y1.4060
G01 X-24.0546 Y1.3467
G01 X-24.1139 Y1.2813
G01 X-24.1665 Y1.2103
G01 X-24.2119 Y1.1346
G01 X-24.2497 Y1.0547
G01 X-24.2794 Y0.9716
G01 X-24.3009 Y0.8859
G01 X-24.3139 Y0.7985
G01 X-24.3182 Y0.7103
G01 X-24.3139 Y0.6221
G01 X-24.3009 Y0.5347
G01 X-24.2794 Y0.4490
G01 X-24.2497 Y0.3659
G01 X-24.2119 Y0.2860
G01 X-24.1665 Y0.2103
G01 X-24.1139 Y0.1393
G01 X-24.0546 Y0.0739
G01 X-23.9892 Y0.0146
G01 X-23.9182 Y-0.0380
G01 X-23.8425 Y-0.0834
G01 X-23.7626 Y-0.1212
G01 X-23.6795 Y-0.1509
G01 X-23.5938 Y-0.1724
G01 X-23.5076 Y-0.1852
G00 Z2.0000
G00 X-23.5076 Y-2.7252
G01 F60.00
G01 Z-0.0000
G01 F60.00
G01 X-23.4182 Y-2.7297
G01 X-23.3300 Y-2.7254
G01 X-23.2426 Y-2.7124
G01 X-23.1569 Y-2.6909
G01 X-23.0738 Y-2.6612
G01 X-22.9939 Y-2.6234
G01 X-22.9182 Y-2.5780
G01 X-22.8472 Y-2.5254
G01 X-22.7818 Y-2.4661
G01 X-22.7225 Y-2.4007
G01 X-22.6699 Y-2.3297
G01 X-22.6245 Y-2.2540
G01 X-22.5867 Y-2.1741
G01 X-22.5570 Y-2.0910
G01 X-22.5355 Y-2.0053
G01 X-22.5225 Y-1.9179
G01 X-22.5182 Y-1.8297
G01 X-22.5225 Y-1.7415
G01 X-22.5355 Y-1.6541
G01 X-22.5570 Y-1.5684
G01 X-22.5867 Y-1.4853
G01 X-22.6245 Y-1.4054
G01 X-22.6699 Y-1.3297
G01 X-22.7225 Y-1.2587
G01 X-22.7818 Y-1.1933
G01 X-22.8472 Y-1.1340
G01 X-22.9182 Y-1.0814
G01 X-22.9939 Y-1.0360
G01 X-23.0738 Y-0.9982
G01 X-23.1569 Y-0.9685
G01 X-23.2426 Y-0.9470
G01 X-23.3300 Y-0.9340
G01 X-23.4182 Y-0.9297
G01 X-23.5064 Y-0.9340
G01 X-23.5938 Y-0.9470
G01 X-23.6795 Y-0.9685
G01 X-23.7626 Y-0.9982
G01 X-23.8425 Y-1.0360
G01 X-23.9182 Y-1.0814
G01 X-23.9892 Y-1.1340
G01 X-24.0546 Y-1.1933
G01 X-24.1139 Y-1.2587
G01 X-24.1665 Y-1.3297
G01 X-24.2119 Y-1.4054
G01 X-24.2497 Y-1.4853
G01 X-24.2794 Y-1.5684
G01 X-24.3009 Y-1.6541
G01 X-24.3139 Y-1.7415
G01 X-24.3182 Y-1.8297
G01 X-24.3139 Y-1.9179
G01 X-24.3009 Y-2.0053
G01 X-24.2794 Y-2.0910
G01 X-24.2497 Y-2.1741
G01 X-24.2119 Y-2.2540
G01 X-24.1665 Y-2.3297
G01 X-24.1139 Y-2.4007
G01 X-24.0546 Y-2.4661
G01 X-23.9892 Y-2.5254
G01 X-23.9182 Y-2.5780
G01 X-23.8425 Y-2.6234
G01 X-23.7626 Y-2.6612
G01 X-23.6795 Y-2.6909
G01 X-23.5938 Y-2.7124
G01 X-23.5076 Y-2.7252
G00 Z2.0000
G00 X-23.5076 Y-5.2652
G01 F60.00
G01 Z-0.0000
G01 F60.00
G01 X-23.4182 Y-5.2697
G01 X-23.3300 Y-5.2654
G01 X-23.2426 Y-5.2524
G01 X-23.1569 Y-5.2309
G01 X-23.0738 Y-5.2012
G01 X-22.9939 Y-5.1634
G01 X-22.9182 Y-5.1180
G01 X-22.8472 Y-5.0654
G01 X-22.7818 Y-5.0061
G01 X-22.7225 Y-4.9407
G01 X-22.6699 Y-4.8697
G01 X-22.6245 Y-4.7940
G01 X-22.5867 Y-4.7141
G01 X-22.5570 Y-4.6310
G01 X-22.5355 Y-4.5453
G01 X-22.5225 Y-4.4579
G01 X-22.5182 Y-4.3697
G01 X-22.5225 Y-4.2815
G01 X-22.5355 Y-4.1941
G01 X-22.5570 Y-4.1084
G01 X-22.5867 Y-4.0253
G01 X-22.6245 Y-3.9454
G01 X-22.6699 Y-3.8697
G01 X-22.7225 Y-3.7987
G01 X-22.7818 Y-3.7333
G01 X-22.8472 Y-3.6740
G01 X-22.9182 Y-3.6214
G01 X-22.9939 Y-3.5760
G01 X-23.0738 Y-3.5382
G01 X-23.1569 Y-3.5085
G01 X-23.2426 Y-3.4870
G01 X-23.3300 Y-3.4740
G01 X-23.4182 Y-3.4697
G01 X-23.5064 Y-3.4740
G01 X-23.5938 Y-3.4870
G01 X-23.6795 Y-3.5085
G01 X-23.7626 Y-3.5382
G01 X-23.8425 Y-3.5760
G01 X-23.9182 Y-3.6214
G01 X-23.9892 Y-3.6740
G01 X-24.0546 Y-3.7333
G01 X-24.1139 Y-3.7987
G01 X-24.1665 Y-3.8697
G01 X-24.2119 Y-3.9454
G01 X-24.2497 Y-4.0253
G01 X-24.2794 Y-4.1084
G01 X-24.3009 Y-4.1941
G01 X-24.3139 Y-4.2815
G01 X-24.3182 Y-4.3697
G01 X-24.3139 Y-4.4579
G01 X-24.3009 Y-4.5453
G01 X-24.2794 Y-4.6310
G01 X-24.2497 Y-4.7141
G01 X-24.2119 Y-4.7940
G01 X-24.1665 Y-4.8697
G01 X-24.1139 Y-4.9407
G01 X-24.0546 Y-5.0061
G01 X-23.9892 Y-5.0654
G01 X-23.9182 Y-5.1180
G01 X-23.8425 Y-5.1634
G01 X-23.7626 Y-5.2012
G01 X-23.6795 Y-5.2309
G01 X-23.5938 Y-5.2524
G01 X-23.5076 Y-5.2652
G00 Z2.0000
G00 X-23.5076 Y-7.8052
G01 F60.00
G01 Z-0.0000
G01 F60.00
G01 X-23.4182 Y-7.8097
G01 X-23.3300 Y-7.8054
G01 X-23.2426 Y-7.7924
G01 X-23.1569 Y-7.7709
G01 X-23.0738 Y-7.7412
G01 X-22.9939 Y-7.7034
G01 X-22.9182 Y-7.6580
G01 X-22.8472 Y-7.6054
G01 X-22.7818 Y-7.5461
G01 X-22.7225 Y-7.4807
G01 X-22.6699 Y-7.4097
G01 X-22.6245 Y-7.3340
G01 X-22.5867 Y-7.2541
G01 X-22.5570 Y-7.1710
G01 X-22.5355 Y-7.0853
G01 X-22.5225 Y-6.9979
G01 X-22.5182 Y-6.9097
G01 X-22.5225 Y-6.8215
G01 X-22.5355 Y-6.7341
G01 X-22.5570 Y-6.6484
G01 X-22.5867 Y-6.5653
G01 X-22.6245 Y-6.4854
G01 X-22.6699 Y-6.4097
G01 X-22.7225 Y-6.3387
G01 X-22.7818 Y-6.2733
G01 X-22.8472 Y-6.2140
G01 X-22.9182 Y-6.1614
G01 X-22.9939 Y-6.1160
G01 X-23.0738 Y-6.0782
G01 X-23.1569 Y-6.0485
G01 X-23.2426 Y-6.0270
G01 X-23.3300 Y-6.0140
G01 X-23.4182 Y-6.0097
G01 X-23.5064 Y-6.0140
G01 X-23.5938 Y-6.0270
G01 X-23.6795 Y-6.0485
G01 X-23.7626 Y-6.0782
G01 X-23.8425 Y-6.1160
G01 X-23.9182 Y-6.1614
G01 X-23.9892 Y-6.2140
G01 X-24.0546 Y-6.2733
G01 X-24.1139 Y-6.3387
G01 X-24.1665 Y-6.4097
G01 X-24.2119 Y-6.4854
G01 X-24.2497 Y-6.5653
G01 X-24.2794 Y-6.6484
G01 X-24.3009 Y-6.7341
G01 X-24.3139 Y-6.8215
G01 X-24.3182 Y-6.9097
G01 X-24.3139 Y-6.9979
G01 X-24.3009 Y-7.0853
G01 X-24.2794 Y-7.1710
G01 X-24.2497 Y-7.2541
G01 X-24.2119 Y-7.3340
G01 X-24.1665 Y-7.4097
G01 X-24.1139 Y-7.4807
G01 X-24.0546 Y-7.5461
G01 X-23.9892 Y-7.6054
G01 X-23.9182 Y-7.6580
G01 X-23.8425 Y-7.7034
G01 X-23.7626 Y-7.7412
G01 X-23.6795 Y-7.7709
G01 X-23.5938 Y-7.7924
G01 X-23.5076 Y-7.8052
G00 Z2.0000
G00 X-23.5076 Y-10.3452
G01 F60.00
G01 Z-0.0000
G01 F60.00
G01 X-23.4182 Y-10.3497
G01 X-23.3300 Y-10.3454
G01 X-23.2426 Y-10.3324
G01 X-23.1569 Y-10.3109
G01 X-23.0738 Y-10.2812
G01 X-22.9939 Y-10.2434
G01 X-22.9182 Y-10.1980
G01 X-22.8472 Y-10.1454
G01 X-22.7818 Y-10.0861
G01 X-22.7225 Y-10.0207
G01 X-22.6699 Y-9.9497
G01 X-22.6245 Y-9.8740
G01 X-22.5867 Y-9.7941
G01 X-22.5570 Y-9.7110
G01 X-22.5355 Y-9.6253
G01 X-22.5225 Y-9.5379
G01 X-22.5182 Y-9.4497
G01 X-22.5225 Y-9.3615
G01 X-22.5355 Y-9.2741
G01 X-22.5570 Y-9.1884
G01 X-22.5867 Y-9.1053
G01 X-22.6245 Y-9.0254
G01 X-22.6699 Y-8.9497
G01 X-22.7225 Y-8.8787
G01 X-22.7818 Y-8.8133
G01 X-22.8472 Y-8.7540
G01 X-22.9182 Y-8.7014
G01 X-22.9939 Y-8.6560
G01 X-23.0738 Y-8.6182
G01 X-23.1569 Y-8.5885
G01 X-23.2426 Y-8.5670
G01 X-23.3300 Y-8.5540
G01 X-23.4182 Y-8.5497
G01 X-23.5064 Y-8.5540
G01 X-23.5938 Y-8.5670
G01 X-23.6795 Y-8.5885
G01 X-23.7626 Y-8.6182
G01 X-23.8425 Y-8.6560
G01 X-23.9182 Y-8.7014
G01 X-23.9892 Y-8.7540
G01 X-24.0546 Y-8.8133
G01 X-24.1139 Y-8.8787
G01 X-24.1665 Y-8.9497
G01 X-24.2119 Y-9.0254
G01 X-24.2497 Y-9.1053
G01 X-24.2794 Y-9.1884
G01 X-24.3009 Y-9.2741
G01 X-24.3139 Y-9.3615
G01 X-24.3182 Y-9.4497
G01 X-24.3139 Y-9.5379
G01 X-24.3009 Y-9.6253
G01 X-24.2794 Y-9.7110
G01 X-24.2497 Y-9.7941
G01 X-24.2119 Y-9.8740
G01 X-24.1665 Y-9.9497
G01 X-24.1139 Y-10.0207
G01 X-24.0546 Y-10.0861
G01 X-23.9892 Y-10.1454
G01 X-23.9182 Y-10.1980
G01 X-23.8425 Y-10.2434
G01 X-23.7626 Y-10.2812
G01 X-23.6795 Y-10.3109
G01 X-23.5938 Y-10.3324
G01 X-23.5076 Y-10.3452
G00 Z2.0000
G00 X-23.5076 Y-12.8852
G01 F60.00
G01 Z-0.0000
G01 F60.00
G01 X-23.4182 Y-12.8897
G01 X-23.3300 Y-12.8854
G01 X-23.2426 Y-12.8724
G01 X-23.1569 Y-12.8509
G01 X-23.0738 Y-12.8212
G01 X-22.9939 Y-12.7834
G01 X-22.9182 Y-12.7380
G01 X-22.8472 Y-12.6854
G01 X-22.7818 Y-12.6261
G01 X-22.7225 Y-12.5607
G01 X-22.6699 Y-12.4897
G01 X-22.6245 Y-12.4140
G01 X-22.5867 Y-12.3341
G01 X-22.5570 Y-12.2510
G01 X-22.5355 Y-12.1653
G01 X-22.5225 Y-12.0779
G01 X-22.5182 Y-11.9897
G01 X-22.5225 Y-11.9015
G01 X-22.5355 Y-11.8141
G01 X-22.5570 Y-11.7284
G01 X-22.5867 Y-11.6453
G01 X-22.6245 Y-11.5654
G01 X-22.6699 Y-11.4897
G01 X-22.7225 Y-11.4187
G01 X-22.7818 Y-11.3533
G01 X-22.8472 Y-11.2940
G01 X-22.9182 Y-11.2414
G01 X-22.9939 Y-11.1960
G01 X-23.0738 Y-11.1582
G01 X-23.1569 Y-11.1285
G01 X-23.2426 Y-11.1070
G01 X-23.3300 Y-11.0940
G01 X-23.4182 Y-11.0897
G01 X-23.5064 Y-11.0940
G01 X-23.5938 Y-11.1070
G01 X-23.6795 Y-11.1285
G01 X-23.7626 Y-11.1582
G01 X-23.8425 Y-11.1960
G01 X-23.9182 Y-11.2414
G01 X-23.9892 Y-11.2940
G01 X-24.0546 Y-11.3533
G01 X-24.1139 Y-11.4187
G01 X-24.1665 Y-11.4897
G01 X-24.2119 Y-11.5654
G01 X-24.2497 Y-11.6453
G01 X-24.2794 Y-11.7284
G01 X-24.3009 Y-11.8141
G01 X-24.3139 Y-11.9015
G01 X-24.3182 Y-11.9897
G01 X-24.3139 Y-12.0779
G01 X-24.3009 Y-12.1653
G01 X-24.2794 Y-12.2510
G01 X-24.2497 Y-12.3341
G01 X-24.2119 Y-12.4140
G01 X-24.1665 Y-12.4897
G01 X-24.1139 Y-12.5607
G01 X-24.0546 Y-12.6261
G01 X-23.9892 Y-12.6854
G01 X-23.9182 Y-12.7380
G01 X-23.8425 Y-12.7834
G01 X-23.7626 Y-12.8212
G01 X-23.6795 Y-12.8509
G01 X-23.5938 Y-12.8724
G01 X-23.5076 Y-12.8852
G00 Z2.0000
G00 X-24.2803 Y-15.4282
G01 F60.00
G01 Z-0.0000
G01 F60.00
G01 X-24.2743 Y-15.4293
G01 X-24.2682 Y-15.4297
G01 X-22.5682 Y-15.4297
G01 X-22.5584 Y-15.4287
G01 X-22.5491 Y-15.4259
G01 X-22.5404 Y-15.4213
G01 X-22.5328 Y-15.4151
G01 X-22.5266 Y-15.4075
G01 X-22.5220 Y-15.3988
G01 X-22.5192 Y-15.3895
G01 X-22.5182 Y-15.3797
G01 X-22.5182 Y-13.6797
G01 X-22.5192 Y-13.6699
G01 X-22.5220 Y-13.6606
G01 X-22.5266 Y-13.6519
G01 X-22.5328 Y-13.6443
G01 X-22.5404 Y-13.6381
G01 X-22.5491 Y-13.6335
G01 X-22.5584 Y-13.6307
G01 X-22.5682 Y-13.6297
G01 X-24.2682 Y-13.6297
G01 X-24.2780 Y-13.6307
G01 X-24.2873 Y-13.6335
G01 X-24.2960 Y-13.6381
G01 X-24.3036 Y-13.6443
G01 X-24.3098 Y-13.6519
G01 X-24.3144 Y-13.6606
G01 X-24.3172 Y-13.6699
G01 X-24.3182 Y-13.6797
G01 X-24.3182 Y-15.3809
G01 X-24.3175 Y-15.3882
G01 X-24.3153 Y-15.3965
G01 X-24.3123 Y-15.4033
G01 X-24.3076 Y-15.4105
G01 X-24.3018 Y-15.4167
G01 X-24.2960 Y-15.4213
G01 X-24.2885 Y-15.4254
G01 X-24.2803 Y-15.4282
G00 Z2.0000
G00 X-32.9163 Y-10.1686
G01 F60.00
G01 Z-0.0000
G01 F60.00
G01 X-32.8869 Y-10.1700
G01 X-31.4369 Y-10.1700
G01 X-31.4099 Y-10.1687
G01 X-31.3784 Y-10.1642
G01 X-31.3522 Y-10.1577
G01 X-31.3199 Y-10.1462
G01 X-31.2955 Y-10.1346
G01 X-31.2702 Y-10.1194
G01 X-31.2466 Y-10.1019
G01 X-31.2248 Y-10.0821
G01 X-31.2050 Y-10.0603
G01 X-31.1875 Y-10.0367
G01 X-31.1723 Y-10.0114
G01 X-31.1607 Y-9.9870
G01 X-31.1492 Y-9.9547
G01 X-31.1427 Y-9.9285
G01 X-31.1382 Y-9.8982
G01 X-31.1369 Y-9.8700
G01 X-31.1369 Y-8.6700
G01 X-31.1383 Y-8.6406
G01 X-31.1427 Y-8.6115
G01 X-31.1498 Y-8.5829
G01 X-31.1597 Y-8.5552
G01 X-31.1723 Y-8.5286
G01 X-31.1875 Y-8.5033
G01 X-31.2050 Y-8.4797
G01 X-31.2248 Y-8.4579
G01 X-31.2466 Y-8.4381
G01 X-31.2702 Y-8.4206
G01 X-31.2955 Y-8.4054
G01 X-31.3221 Y-8.3928
G01 X-31.3498 Y-8.3829
G01 X-31.3784 Y-8.3758
G01 X-31.4075 Y-8.3714
G01 X-31.4369 Y-8.3700
G01 X-32.8869 Y-8.3700
G01 X-32.9139 Y-8.3713
G01 X-32.9454 Y-8.3758
G01 X-32.9716 Y-8.3823
G01 X-33.0039 Y-8.3938
G01 X-33.0283 Y-8.4054
G01 X-33.0536 Y-8.4206
G01 X-33.0772 Y-8.4381
G01 X-33.0990 Y-8.4579
G01 X-33.1188 Y-8.4797
G01 X-33.1363 Y-8.5033
G01 X-33.1515 Y-8.5286
G01 X-33.1631 Y-8.5530
G01 X-33.1746 Y-8.5853
G01 X-33.1811 Y-8.6115
G01 X-33.1856 Y-8.6430
G01 X-33.1869 Y-8.6700
G01 X-33.1869 Y-9.8700
G01 X-33.1855 Y-9.8994
G01 X-33.1811 Y-9.9285
G01 X-33.1740 Y-9.9571
G01 X-33.1641 Y-9.9848
G01 X-33.1526 Y-10.0092
G01 X-33.1349 Y-10.0387
G01 X-33.1188 Y-10.0603
G01 X-33.0990 Y-10.0821
G01 X-33.0772 Y-10.1019
G01 X-33.0536 Y-10.1194
G01 X-33.0283 Y-10.1346
G01 X-33.0039 Y-10.1462
G01 X-32.9716 Y-10.1577
G01 X-32.9454 Y-10.1642
G01 X-32.9163 Y-10.1686
G00 Z2.0000
G00 X-32.4601 Y-7.6531
G01 F60.00
G01 Z-0.0000
G01 F60.00
G01 X-32.3751 Y-7.6657
G01 X-32.2881 Y-7.6700
G01 X-32.0357 Y-7.6700
G01 X-31.9499 Y-7.6658
G01 X-31.8589 Y-7.6522
G01 X-31.7756 Y-7.6312
G01 X-31.6936 Y-7.6019
G01 X-31.6126 Y-7.5637
G01 X-31.5369 Y-7.5183
G01 X-31.4659 Y-7.4657
G01 X-31.4023 Y-7.4081
G01 X-31.3397 Y-7.3390
G01 X-31.2886 Y-7.2700
G01 X-31.2426 Y-7.1932
G01 X-31.2054 Y-7.1144
G01 X-31.1757 Y-7.0313
G01 X-31.1542 Y-6.9456
G01 X-31.1412 Y-6.8582
G01 X-31.1369 Y-6.7700
G01 X-31.1412 Y-6.6818
G01 X-31.1542 Y-6.5944
G01 X-31.1757 Y-6.5087
G01 X-31.2054 Y-6.4256
G01 X-31.2432 Y-6.3457
G01 X-31.2886 Y-6.2700
G01 X-31.3412 Y-6.1990
G01 X-31.4005 Y-6.1336
G01 X-31.4659 Y-6.0743
G01 X-31.5369 Y-6.0217
G01 X-31.6137 Y-5.9757
G01 X-31.6925 Y-5.9385
G01 X-31.7756 Y-5.9088
G01 X-31.8613 Y-5.8873
G01 X-31.9499 Y-5.8742
G01 X-32.0369 Y-5.8700
G01 X-32.2881 Y-5.8700
G01 X-32.3727 Y-5.8742
G01 X-32.4625 Y-5.8873
G01 X-32.5458 Y-5.9081
G01 X-32.6313 Y-5.9385
G01 X-32.7112 Y-5.9763
G01 X-32.7869 Y-6.0217
G01 X-32.8579 Y-6.0743
G01 X-32.9233 Y-6.1336
G01 X-32.9826 Y-6.1990
G01 X-33.0352 Y-6.2700
G01 X-33.0812 Y-6.3468
G01 X-33.1193 Y-6.4279
G01 X-33.1481 Y-6.5087
G01 X-33.1691 Y-6.5920
G01 X-33.1826 Y-6.6818
G01 X-33.1869 Y-6.7700
G01 X-33.1826 Y-6.8582
G01 X-33.1691 Y-6.9480
G01 X-33.1474 Y-7.0336
G01 X-33.1184 Y-7.1144
G01 X-33.0817 Y-7.1921
G01 X-33.0352 Y-7.2700
G01 X-32.9810 Y-7.3428
G01 X-32.9233 Y-7.4064
G01 X-32.8597 Y-7.4641
G01 X-32.7889 Y-7.5169
G01 X-32.7112 Y-7.5637
G01 X-32.6313 Y-7.6015
G01 X-32.5482 Y-7.6312
G01 X-32.4601 Y-7.6531
G00 Z2.0000
G00 X-32.4601 Y-5.1531
G01 F60.00
G01 Z-0.0000
G01 F60.00
G01 X-32.3751 Y-5.1657
G01 X-32.2881 Y-5.1700
G01 X-32.0357 Y-5.1700
G01 X-31.9499 Y-5.1658
G01 X-31.8589 Y-5.1522
G01 X-31.7756 Y-5.1312
G01 X-31.6936 Y-5.1019
G01 X-31.6126 Y-5.0637
G01 X-31.5369 Y-5.0183
G01 X-31.4659 Y-4.9657
G01 X-31.4023 Y-4.9081
G01 X-31.3397 Y-4.8390
G01 X-31.2886 Y-4.7700
G01 X-31.2426 Y-4.6932
G01 X-31.2054 Y-4.6144
G01 X-31.1757 Y-4.5313
G01 X-31.1542 Y-4.4456
G01 X-31.1412 Y-4.3582
G01 X-31.1369 Y-4.2700
G01 X-31.1412 Y-4.1818
G01 X-31.1542 Y-4.0944
G01 X-31.1757 Y-4.0087
G01 X-31.2054 Y-3.9256
G01 X-31.2432 Y-3.8457
G01 X-31.2886 Y-3.7700
G01 X-31.3412 Y-3.6990
G01 X-31.4005 Y-3.6336
G01 X-31.4659 Y-3.5743
G01 X-31.5369 Y-3.5217
G01 X-31.6137 Y-3.4757
G01 X-31.6925 Y-3.4385
G01 X-31.7756 Y-3.4088
G01 X-31.8613 Y-3.3873
G01 X-31.9499 Y-3.3742
G01 X-32.0369 Y-3.3700
G01 X-32.2881 Y-3.3700
G01 X-32.3727 Y-3.3742
G01 X-32.4625 Y-3.3873
G01 X-32.5458 Y-3.4081
G01 X-32.6313 Y-3.4385
G01 X-32.7112 Y-3.4763
G01 X-32.7869 Y-3.5217
G01 X-32.8579 Y-3.5743
G01 X-32.9233 Y-3.6336
G01 X-32.9826 Y-3.6990
G01 X-33.0352 Y-3.7700
G01 X-33.0812 Y-3.8468
G01 X-33.1193 Y-3.9279
G01 X-33.1481 Y-4.0087
G01 X-33.1691 Y-4.0920
G01 X-33.1826 Y-4.1818
G01 X-33.1869 Y-4.2700
G01 X-33.1826 Y-4.3582
G01 X-33.1691 Y-4.4480
G01 X-33.1474 Y-4.5336
G01 X-33.1184 Y-4.6144
G01 X-33.0817 Y-4.6921
G01 X-33.0352 Y-4.7700
G01 X-32.9810 Y-4.8428
G01 X-32.9233 Y-4.9064
G01 X-32.8597 Y-4.9641
G01 X-32.7889 Y-5.0169
G01 X-32.7112 Y-5.0637
G01 X-32.6313 Y-5.1015
G01 X-32.5482 Y-5.1312
G01 X-32.4601 Y-5.1531
G00 Z2.0000
G00 X-32.4601 Y-2.6531
G01 F60.00
G01 Z-0.0000
G01 F60.00
G01 X-32.3751 Y-2.6657
G01 X-32.2881 Y-2.6700
G01 X-32.0357 Y-2.6700
G01 X-31.9499 Y-2.6658
G01 X-31.8589 Y-2.6522
G01 X-31.7756 Y-2.6312
G01 X-31.6936 Y-2.6019
G01 X-31.6126 Y-2.5637
G01 X-31.5390 Y-2.5196
G01 X-31.4641 Y-2.4641
G01 X-31.4005 Y-2.4064
G01 X-31.3412 Y-2.3410
G01 X-31.2886 Y-2.2700
G01 X-31.2426 Y-2.1932
G01 X-31.2054 Y-2.1144
G01 X-31.1757 Y-2.0313
G01 X-31.1542 Y-1.9456
G01 X-31.1412 Y-1.8582
G01 X-31.1369 Y-1.7700
G01 X-31.1412 Y-1.6818
G01 X-31.1542 Y-1.5944
G01 X-31.1757 Y-1.5087
G01 X-31.2054 Y-1.4256
G01 X-31.2432 Y-1.3457
G01 X-31.2886 Y-1.2700
G01 X-31.3412 Y-1.1990
G01 X-31.4005 Y-1.1336
G01 X-31.4659 Y-1.0743
G01 X-31.5369 Y-1.0217
G01 X-31.6137 Y-0.9757
G01 X-31.6925 Y-0.9385
G01 X-31.7756 Y-0.9088
G01 X-31.8613 Y-0.8873
G01 X-31.9499 Y-0.8742
G01 X-32.0369 Y-0.8700
G01 X-32.2881 Y-0.8700
G01 X-32.3727 Y-0.8742
G01 X-32.4625 Y-0.8873
G01 X-32.5458 Y-0.9081
G01 X-32.6313 Y-0.9385
G01 X-32.7112 Y-0.9763
G01 X-32.7869 Y-1.0217
G01 X-32.8579 Y-1.0743
G01 X-32.9233 Y-1.1336
G01 X-32.9826 Y-1.1990
G01 X-33.0352 Y-1.2700
G01 X-33.0812 Y-1.3468
G01 X-33.1193 Y-1.4279
G01 X-33.1481 Y-1.5087
G01 X-33.1691 Y-1.5920
G01 X-33.1826 Y-1.6818
G01 X-33.1869 Y-1.7700
G01 X-33.1826 Y-1.8582
G01 X-33.1691 Y-1.9480
G01 X-33.1474 Y-2.0336
G01 X-33.1184 Y-2.1144
G01 X-33.0817 Y-2.1921
G01 X-33.0352 Y-2.2700
G01 X-32.9810 Y-2.3428
G01 X-32.9233 Y-2.4064
G01 X-32.8597 Y-2.4641
G01 X-32.7889 Y-2.5169
G01 X-32.7112 Y-2.5637
G01 X-32.6313 Y-2.6015
G01 X-32.5482 Y-2.6312
G01 X-32.4601 Y-2.6531
G00 Z2.0000
G00 X-32.4601 Y-0.1531
G01 F60.00
G01 Z-0.0000
G01 F60.00
G01 X-32.3751 Y-0.1657
G01 X-32.2881 Y-0.1700
G01 X-32.0357 Y-0.1700
G01 X-31.9499 Y-0.1658
G01 X-31.8589 Y-0.1522
G01 X-31.7756 Y-0.1312
G01 X-31.6936 Y-0.1019
G01 X-31.6126 Y-0.0637
G01 X-31.5390 Y-0.0196
G01 X-31.4641 Y0.0359
G01 X-31.4005 Y0.0936
G01 X-31.3412 Y0.1590
G01 X-31.2886 Y0.2300
G01 X-31.2426 Y0.3068
G01 X-31.2054 Y0.3856
G01 X-31.1757 Y0.4687
G01 X-31.1542 Y0.5544
G01 X-31.1412 Y0.6418
G01 X-31.1369 Y0.7300
G01 X-31.1412 Y0.8182
G01 X-31.1542 Y0.9056
G01 X-31.1757 Y0.9913
G01 X-31.2054 Y1.0744
G01 X-31.2432 Y1.1543
G01 X-31.2886 Y1.2300
G01 X-31.3412 Y1.3010
G01 X-31.4005 Y1.3664
G01 X-31.4659 Y1.4257
G01 X-31.5369 Y1.4783
G01 X-31.6137 Y1.5243
G01 X-31.6925 Y1.5615
G01 X-31.7756 Y1.5912
G01 X-31.8613 Y1.6127
G01 X-31.9499 Y1.6258
G01 X-32.0369 Y1.6300
G01 X-32.2881 Y1.6300
G01 X-32.3727 Y1.6258
G01 X-32.4625 Y1.6127
G01 X-32.5458 Y1.5919
G01 X-32.6313 Y1.5615
G01 X-32.7112 Y1.5237
G01 X-32.7869 Y1.4783
G01 X-32.8579 Y1.4257
G01 X-32.9233 Y1.3664
G01 X-32.9826 Y1.3010
G01 X-33.0352 Y1.2300
G01 X-33.0812 Y1.1532
G01 X-33.1193 Y1.0721
G01 X-33.1481 Y0.9913
G01 X-33.1691 Y0.9080
G01 X-33.1826 Y0.8182
G01 X-33.1869 Y0.7300
G01 X-33.1826 Y0.6418
G01 X-33.1691 Y0.5520
G01 X-33.1474 Y0.4664
G01 X-33.1184 Y0.3856
G01 X-33.0817 Y0.3079
G01 X-33.0352 Y0.2300
G01 X-32.9810 Y0.1572
G01 X-32.9215 Y0.0919
G01 X-32.8579 Y0.0343
G01 X-32.7889 Y-0.0169
G01 X-32.7112 Y-0.0637
G01 X-32.6313 Y-0.1015
G01 X-32.5482 Y-0.1312
G01 X-32.4601 Y-0.1531
G00 Z2.0000
G00 X-32.4601 Y2.3469
G01 F60.00
G01 Z-0.0000
G01 F60.00
G01 X-32.3751 Y2.3343
G01 X-32.2881 Y2.3300
G01 X-32.0357 Y2.3300
G01 X-31.9499 Y2.3342
G01 X-31.8589 Y2.3478
G01 X-31.7756 Y2.3688
G01 X-31.6936 Y2.3981
G01 X-31.6126 Y2.4363
G01 X-31.5390 Y2.4804
G01 X-31.4641 Y2.5359
G01 X-31.4005 Y2.5936
G01 X-31.3412 Y2.6590
G01 X-31.2886 Y2.7300
G01 X-31.2426 Y2.8068
G01 X-31.2054 Y2.8856
G01 X-31.1757 Y2.9687
G01 X-31.1542 Y3.0544
G01 X-31.1412 Y3.1418
G01 X-31.1369 Y3.2300
G01 X-31.1412 Y3.3182
G01 X-31.1542 Y3.4056
G01 X-31.1757 Y3.4913
G01 X-31.2054 Y3.5744
G01 X-31.2432 Y3.6543
G01 X-31.2886 Y3.7300
G01 X-31.3412 Y3.8010
G01 X-31.4005 Y3.8664
G01 X-31.4659 Y3.9257
G01 X-31.5369 Y3.9783
G01 X-31.6137 Y4.0243
G01 X-31.6925 Y4.0615
G01 X-31.7756 Y4.0912
G01 X-31.8613 Y4.1127
G01 X-31.9499 Y4.1258
G01 X-32.0369 Y4.1300
G01 X-32.2881 Y4.1300
G01 X-32.3727 Y4.1258
G01 X-32.4625 Y4.1127
G01 X-32.5458 Y4.0919
G01 X-32.6313 Y4.0615
G01 X-32.7112 Y4.0237
G01 X-32.7869 Y3.9783
G01 X-32.8579 Y3.9257
G01 X-32.9233 Y3.8664
G01 X-32.9826 Y3.8010
G01 X-33.0352 Y3.7300
G01 X-33.0812 Y3.6532
G01 X-33.1193 Y3.5721
G01 X-33.1481 Y3.4913
G01 X-33.1691 Y3.4080
G01 X-33.1826 Y3.3182
G01 X-33.1869 Y3.2300
G01 X-33.1826 Y3.1418
G01 X-33.1691 Y3.0520
G01 X-33.1474 Y2.9664
G01 X-33.1184 Y2.8856
G01 X-33.0817 Y2.8079
G01 X-33.0352 Y2.7300
G01 X-32.9810 Y2.6572
G01 X-32.9233 Y2.5936
G01 X-32.8597 Y2.5359
G01 X-32.7889 Y2.4831
G01 X-32.7112 Y2.4363
G01 X-32.6313 Y2.3985
G01 X-32.5482 Y2.3688
G01 X-32.4601 Y2.3469
G00 Z2.0000
G00 X-8.2676 Y-2.7052
G01 F60.00
G01 Z-0.0000
G01 F60.00
G01 X-8.1782 Y-2.7097
G01 X-8.0900 Y-2.7054
G01 X-8.0026 Y-2.6924
G01 X-7.9169 Y-2.6709
G01 X-7.8338 Y-2.6412
G01 X-7.7539 Y-2.6034
G01 X-7.6782 Y-2.5580
G01 X-7.6072 Y-2.5054
G01 X-7.5418 Y-2.4461
G01 X-7.4825 Y-2.3807
G01 X-7.4299 Y-2.3097
G01 X-7.3845 Y-2.2340
G01 X-7.3467 Y-2.1541
G01 X-7.3170 Y-2.0710
G01 X-7.2955 Y-1.9853
G01 X-7.2825 Y-1.8979
G01 X-7.2782 Y-1.8097
G01 X-7.2825 Y-1.7215
G01 X-7.2955 Y-1.6341
G01 X-7.3170 Y-1.5484
G01 X-7.3467 Y-1.4653
G01 X-7.3845 Y-1.3854
G01 X-7.4299 Y-1.3097
G01 X-7.4825 Y-1.2387
G01 X-7.5418 Y-1.1733
G01 X-7.6072 Y-1.1140
G01 X-7.6782 Y-1.0614
G01 X-7.7539 Y-1.0160
G01 X-7.8338 Y-0.9782
G01 X-7.9169 Y-0.9485
G01 X-8.0026 Y-0.9270
G01 X-8.0900 Y-0.9140
G01 X-8.1782 Y-0.9097
G01 X-8.2664 Y-0.9140
G01 X-8.3538 Y-0.9270
G01 X-8.4395 Y-0.9485
G01 X-8.5226 Y-0.9782
G01 X-8.6025 Y-1.0160
G01 X-8.6782 Y-1.0614
G01 X-8.7492 Y-1.1140
G01 X-8.8146 Y-1.1733
G01 X-8.8739 Y-1.2387
G01 X-8.9265 Y-1.3097
G01 X-8.9719 Y-1.3854
G01 X-9.0097 Y-1.4653
G01 X-9.0394 Y-1.5484
G01 X-9.0609 Y-1.6341
G01 X-9.0739 Y-1.7215
G01 X-9.0782 Y-1.8097
G01 X-9.0739 Y-1.8979
G01 X-9.0609 Y-1.9853
G01 X-9.0394 Y-2.0710
G01 X-9.0097 Y-2.1541
G01 X-8.9719 Y-2.2340
G01 X-8.9265 Y-2.3097
G01 X-8.8739 Y-2.3807
G01 X-8.8146 Y-2.4461
G01 X-8.7492 Y-2.5054
G01 X-8.6782 Y-2.5580
G01 X-8.6025 Y-2.6034
G01 X-8.5226 Y-2.6412
G01 X-8.4395 Y-2.6709
G01 X-8.3538 Y-2.6924
G01 X-8.2676 Y-2.7052
G00 Z2.0000
G00 X-8.2676 Y-5.2452
G01 F60.00
G01 Z-0.0000
G01 F60.00
G01 X-8.1782 Y-5.2497
G01 X-8.0900 Y-5.2454
G01 X-8.0026 Y-5.2324
G01 X-7.9169 Y-5.2109
G01 X-7.8338 Y-5.1812
G01 X-7.7539 Y-5.1434
G01 X-7.6782 Y-5.0980
G01 X-7.6072 Y-5.0454
G01 X-7.5418 Y-4.9861
G01 X-7.4825 Y-4.9207
G01 X-7.4299 Y-4.8497
G01 X-7.3845 Y-4.7740
G01 X-7.3467 Y-4.6941
G01 X-7.3170 Y-4.6110
G01 X-7.2955 Y-4.5253
G01 X-7.2825 Y-4.4379
G01 X-7.2782 Y-4.3497
G01 X-7.2825 Y-4.2615
G01 X-7.2955 Y-4.1741
G01 X-7.3170 Y-4.0884
G01 X-7.3467 Y-4.0053
G01 X-7.3845 Y-3.9254
G01 X-7.4299 Y-3.8497
G01 X-7.4825 Y-3.7787
G01 X-7.5418 Y-3.7133
G01 X-7.6072 Y-3.6540
G01 X-7.6782 Y-3.6014
G01 X-7.7539 Y-3.5560
G01 X-7.8338 Y-3.5182
G01 X-7.9169 Y-3.4885
G01 X-8.0026 Y-3.4670
G01 X-8.0900 Y-3.4540
G01 X-8.1782 Y-3.4497
G01 X-8.2664 Y-3.4540
G01 X-8.3538 Y-3.4670
G01 X-8.4395 Y-3.4885
G01 X-8.5226 Y-3.5182
G01 X-8.6025 Y-3.5560
G01 X-8.6782 Y-3.6014
G01 X-8.7492 Y-3.6540
G01 X-8.8146 Y-3.7133
G01 X-8.8739 Y-3.7787
G01 X-8.9265 Y-3.8497
G01 X-8.9719 Y-3.9254
G01 X-9.0097 Y-4.0053
G01 X-9.0394 Y-4.0884
G01 X-9.0609 Y-4.1741
G01 X-9.0739 Y-4.2615
G01 X-9.0782 Y-4.3497
G01 X-9.0739 Y-4.4379
G01 X-9.0609 Y-4.5253
G01 X-9.0394 Y-4.6110
G01 X-9.0097 Y-4.6941
G01 X-8.9719 Y-4.7740
G01 X-8.9265 Y-4.8497
G01 X-8.8739 Y-4.9207
G01 X-8.8146 Y-4.9861
G01 X-8.7492 Y-5.0454
G01 X-8.6782 Y-5.0980
G01 X-8.6025 Y-5.1434
G01 X-8.5226 Y-5.1812
G01 X-8.4395 Y-5.2109
G01 X-8.3538 Y-5.2324
G01 X-8.2676 Y-5.2452
G00 Z2.0000
G00 X-8.2676 Y-7.7852
G01 F60.00
G01 Z-0.0000
G01 F60.00
G01 X-8.1782 Y-7.7897
G01 X-8.0900 Y-7.7854
G01 X-8.0026 Y-7.7724
G01 X-7.9169 Y-7.7509
G01 X-7.8338 Y-7.7212
G01 X-7.7539 Y-7.6834
G01 X-7.6782 Y-7.6380
G01 X-7.6072 Y-7.5854
G01 X-7.5418 Y-7.5261
G01 X-7.4825 Y-7.4607
G01 X-7.4299 Y-7.3897
G01 X-7.3845 Y-7.3140
G01 X-7.3467 Y-7.2341
G01 X-7.3170 Y-7.1510
G01 X-7.2955 Y-7.0653
G01 X-7.2825 Y-6.9779
G01 X-7.2782 Y-6.8897
G01 X-7.2825 Y-6.8015
G01 X-7.2955 Y-6.7141
G01 X-7.3170 Y-6.6284
G01 X-7.3467 Y-6.5453
G01 X-7.3845 Y-6.4654
G01 X-7.4299 Y-6.3897
G01 X-7.4825 Y-6.3187
G01 X-7.5418 Y-6.2533
G01 X-7.6072 Y-6.1940
G01 X-7.6782 Y-6.1414
G01 X-7.7539 Y-6.0960
G01 X-7.8338 Y-6.0582
G01 X-7.9169 Y-6.0285
G01 X-8.0026 Y-6.0070
G01 X-8.0900 Y-5.9940
G01 X-8.1782 Y-5.9897
G01 X-8.2664 Y-5.9940
G01 X-8.3538 Y-6.0070
G01 X-8.4395 Y-6.0285
G01 X-8.5226 Y-6.0582
G01 X-8.6025 Y-6.0960
G01 X-8.6782 Y-6.1414
G01 X-8.7492 Y-6.1940
G01 X-8.8146 Y-6.2533
G01 X-8.8739 Y-6.3187
G01 X-8.9265 Y-6.3897
G01 X-8.9719 Y-6.4654
G01 X-9.0097 Y-6.5453
G01 X-9.0394 Y-6.6284
G01 X-9.0609 Y-6.7141
G01 X-9.0739 Y-6.8015
G01 X-9.0782 Y-6.8897
G01 X-9.0739 Y-6.9779
G01 X-9.0609 Y-7.0653
G01 X-9.0394 Y-7.1510
G01 X-9.0097 Y-7.2341
G01 X-8.9719 Y-7.3140
G01 X-8.9265 Y-7.3897
G01 X-8.8739 Y-7.4607
G01 X-8.8146 Y-7.5261
G01 X-8.7492 Y-7.5854
G01 X-8.6782 Y-7.6380
G01 X-8.6025 Y-7.6834
G01 X-8.5226 Y-7.7212
G01 X-8.4395 Y-7.7509
G01 X-8.3538 Y-7.7724
G01 X-8.2676 Y-7.7852
G00 Z2.0000
G00 X-8.2610 Y-23.7981
G01 F60.00
G01 Z-0.0000
G01 F60.00
G01 X-8.2631 Y-23.8127
G01 X-8.2640 Y-23.8298
G01 X-8.2640 Y-25.4298
G01 X-8.2631 Y-25.4470
G01 X-8.2606 Y-25.4640
G01 X-8.2564 Y-25.4806
G01 X-8.2506 Y-25.4968
G01 X-8.2433 Y-25.5123
G01 X-8.2345 Y-25.5271
G01 X-8.2242 Y-25.5409
G01 X-8.2127 Y-25.5536
G01 X-8.2000 Y-25.5651
G01 X-8.1862 Y-25.5754
G01 X-8.1714 Y-25.5842
G01 X-8.1559 Y-25.5915
G01 X-8.1397 Y-25.5973
G01 X-8.1231 Y-25.6015
G01 X-8.1061 Y-25.6040
G01 X-8.0889 Y-25.6049
G01 X-8.0717 Y-25.6040
G01 X-8.0524 Y-25.6010
G01 X-8.0381 Y-25.5973
G01 X-8.0219 Y-25.5915
G01 X-8.0064 Y-25.5842
G01 X-7.9937 Y-25.5767
G01 X-7.9760 Y-25.5635
G01 X-7.9651 Y-25.5536
G01 X-7.9536 Y-25.5409
G01 X-7.9433 Y-25.5271
G01 X-7.9357 Y-25.5145
G01 X-7.9263 Y-25.4945
G01 X-7.9214 Y-25.4806
G01 X-7.9172 Y-25.4640
G01 X-7.9147 Y-25.4470
G01 X-7.9138 Y-25.4298
G01 X-7.9138 Y-24.7668
G01 X-7.5543 Y-24.7668
G01 X-7.5384 Y-24.7659
G01 X-7.5238 Y-24.7638
G01 X-7.5048 Y-24.7592
G01 X-7.4863 Y-24.7525
G01 X-7.4730 Y-24.7461
G01 X-7.4583 Y-24.7373
G01 X-7.4427 Y-24.7254
G01 X-7.4318 Y-24.7155
G01 X-7.4202 Y-24.7028
G01 X-7.4087 Y-24.6869
G01 X-7.4012 Y-24.6742
G01 X-7.3938 Y-24.6587
G01 X-7.3880 Y-24.6425
G01 X-7.3844 Y-24.6283
G01 X-7.3814 Y-24.6089
G01 X-7.3805 Y-24.5917
G01 X-7.3812 Y-24.5770
G01 X-7.3844 Y-24.5552
G01 X-7.3880 Y-24.5409
G01 X-7.3938 Y-24.5247
G01 X-7.4012 Y-24.5092
G01 X-7.4087 Y-24.4965
G01 X-7.4218 Y-24.4788
G01 X-7.4318 Y-24.4679
G01 X-7.4445 Y-24.4564
G01 X-7.4583 Y-24.4462
G01 X-7.4709 Y-24.4385
G01 X-7.4909 Y-24.4291
G01 X-7.5048 Y-24.4242
G01 X-7.5214 Y-24.4200
G01 X-7.5384 Y-24.4175
G01 X-7.5543 Y-24.4167
G01 X-7.9138 Y-24.4166
G01 X-7.9138 Y-24.0049
G01 X-7.3270 Y-24.0049
G01 X-7.3074 Y-24.0037
G01 X-7.2928 Y-24.0015
G01 X-7.2785 Y-23.9980
G01 X-7.2611 Y-23.9920
G01 X-7.2467 Y-23.9853
G01 X-7.2277 Y-23.9740
G01 X-7.2159 Y-23.9651
G01 X-7.2032 Y-23.9536
G01 X-7.1917 Y-23.9409
G01 X-7.1814 Y-23.9271
G01 X-7.1726 Y-23.9123
G01 X-7.1663 Y-23.8990
G01 X-7.1588 Y-23.8783
G01 X-7.1553 Y-23.8640
G01 X-7.1528 Y-23.8470
G01 X-7.1519 Y-23.8298
G01 X-7.1528 Y-23.8127
G01 X-7.1553 Y-23.7957
G01 X-7.1595 Y-23.7790
G01 X-7.1653 Y-23.7628
G01 X-7.1715 Y-23.7495
G01 X-7.1829 Y-23.7305
G01 X-7.1925 Y-23.7178
G01 X-7.2050 Y-23.7043
G01 X-7.2159 Y-23.6945
G01 X-7.2297 Y-23.6843
G01 X-7.2445 Y-23.6754
G01 X-7.2600 Y-23.6681
G01 X-7.2762 Y-23.6623
G01 X-7.2928 Y-23.6581
G01 X-7.3098 Y-23.6556
G01 X-7.3258 Y-23.6548
G01 X-8.0889 Y-23.6547
G01 X-8.1061 Y-23.6556
G01 X-8.1206 Y-23.6577
G01 X-8.1420 Y-23.6631
G01 X-8.1559 Y-23.6681
G01 X-8.1714 Y-23.6754
G01 X-8.1882 Y-23.6857
G01 X-8.2000 Y-23.6945
G01 X-8.2127 Y-23.7060
G01 X-8.2257 Y-23.7207
G01 X-8.2345 Y-23.7326
G01 X-8.2433 Y-23.7473
G01 X-8.2506 Y-23.7628
G01 X-8.2557 Y-23.7767
G01 X-8.2610 Y-23.7981
G00 Z2.0000
G00 X-6.8914 Y-23.8102
G01 F60.00
G01 Z-0.0000
G01 F60.00
G01 X-6.8925 Y-23.8298
G01 X-6.8925 Y-25.4310
G01 X-6.8917 Y-25.4470
G01 X-6.8896 Y-25.4615
G01 X-6.8850 Y-25.4806
G01 X-6.8792 Y-25.4968
G01 X-6.8730 Y-25.5101
G01 X-6.8630 Y-25.5271
G01 X-6.8512 Y-25.5427
G01 X-6.8413 Y-25.5536
G01 X-6.8304 Y-25.5635
G01 X-6.8147 Y-25.5754
G01 X-6.8000 Y-25.5842
G01 X-6.7822 Y-25.5924
G01 X-6.7683 Y-25.5973
G01 X-6.7540 Y-25.6010
G01 X-6.7346 Y-25.6040
G01 X-6.7175 Y-25.6049
G01 X-6.7003 Y-25.6040
G01 X-6.6809 Y-25.6010
G01 X-6.6667 Y-25.5973
G01 X-6.6528 Y-25.5924
G01 X-6.6349 Y-25.5842
G01 X-6.6182 Y-25.5740
G01 X-6.6064 Y-25.5651
G01 X-6.5955 Y-25.5553
G01 X-6.5821 Y-25.5409
G01 X-6.5712 Y-25.5260
G01 X-6.5631 Y-25.5123
G01 X-6.5567 Y-25.4990
G01 X-6.5499 Y-25.4806
G01 X-6.5454 Y-25.4615
G01 X-6.5433 Y-25.4470
G01 X-6.5425 Y-25.4323
G01 X-6.5424 Y-24.8430
G01 X-6.4277 Y-24.8430
G01 X-5.9466 Y-25.5302
G01 X-5.9361 Y-25.5438
G01 X-5.9251 Y-25.5554
G01 X-5.9113 Y-25.5675
G01 X-5.8993 Y-25.5761
G01 X-5.8801 Y-25.5870
G01 X-5.8667 Y-25.5930
G01 X-5.8504 Y-25.5984
G01 X-5.8336 Y-25.6022
G01 X-5.8166 Y-25.6044
G01 X-5.7994 Y-25.6048
G01 X-5.7847 Y-25.6039
G01 X-5.7629 Y-25.6001
G01 X-5.7488 Y-25.5962
G01 X-5.7327 Y-25.5901
G01 X-5.7173 Y-25.5824
G01 X-5.7038 Y-25.5739
G01 X-5.6892 Y-25.5627
G01 X-5.6785 Y-25.5526
G01 X-5.6640 Y-25.5359
G01 X-5.6556 Y-25.5239
G01 X-5.6470 Y-25.5090
G01 X-5.6400 Y-25.4933
G01 X-5.6346 Y-25.4770
G01 X-5.6308 Y-25.4602
G01 X-5.6289 Y-25.4456
G01 X-5.6283 Y-25.4236
G01 X-5.6294 Y-25.4089
G01 X-5.6323 Y-25.3919
G01 X-5.6368 Y-25.3754
G01 X-5.6425 Y-25.3605
G01 X-5.6506 Y-25.3440
G01 X-5.6598 Y-25.3294
G01 X-6.0173 Y-24.8183
G01 X-5.8773 Y-24.7483
G01 X-5.8599 Y-24.7383
G01 X-5.8457 Y-24.7280
G01 X-5.8327 Y-24.7164
G01 X-5.7547 Y-24.6383
G01 X-5.7431 Y-24.6253
G01 X-5.7336 Y-24.6123
G01 X-5.7234 Y-24.5950
G01 X-5.6461 Y-24.4404
G01 X-5.6400 Y-24.4266
G01 X-5.6352 Y-24.4123
G01 X-5.6308 Y-24.3931
G01 X-5.6289 Y-24.3794
G01 X-5.6281 Y-24.3643
G01 X-5.6281 Y-24.1346
G01 X-5.6289 Y-24.1184
G01 X-5.6311 Y-24.1023
G01 X-5.6355 Y-24.0843
G01 X-5.6400 Y-24.0711
G01 X-5.6461 Y-24.0573
G01 X-5.7228 Y-23.9039
G01 X-5.7328 Y-23.8865
G01 X-5.7431 Y-23.8724
G01 X-5.7547 Y-23.8594
G01 X-5.8318 Y-23.7822
G01 X-5.8457 Y-23.7697
G01 X-5.8610 Y-23.7587
G01 X-5.8773 Y-23.7494
G01 X-6.0318 Y-23.6722
G01 X-6.0445 Y-23.6667
G01 X-6.0599 Y-23.6615
G01 X-6.0757 Y-23.6577
G01 X-6.0929 Y-23.6554
G01 X-6.1080 Y-23.6547
G01 X-6.7175 Y-23.6547
G01 X-6.7346 Y-23.6556
G01 X-6.7516 Y-23.6581
G01 X-6.7683 Y-23.6623
G01 X-6.7822 Y-23.6672
G01 X-6.8000 Y-23.6754
G01 X-6.8147 Y-23.6843
G01 X-6.8266 Y-23.6930
G01 X-6.8430 Y-23.7078
G01 X-6.8528 Y-23.7188
G01 X-6.8623 Y-23.7315
G01 X-6.8730 Y-23.7495
G01 X-6.8792 Y-23.7628
G01 X-6.8850 Y-23.7790
G01 X-6.8892 Y-23.7957
G01 X-6.8914 Y-23.8102
G00 Z2.0000
G00 X-6.0593 Y-24.0499
G01 F60.00
G01 Z-0.0000
G01 F60.00
G01 X-6.1493 Y-24.0049
G01 X-6.5424 Y-24.0049
G01 X-6.5424 Y-24.4928
G01 X-6.1493 Y-24.4928
G01 X-6.0593 Y-24.4478
G01 X-6.0233 Y-24.4118
G01 X-5.9783 Y-24.3218
G01 X-5.9783 Y-24.1759
G01 X-6.0233 Y-24.0859
G01 X-6.0593 Y-24.0499
G00 Z2.0000
G00 X-5.1371 Y-25.6037
G01 F60.00
G01 Z-0.0000
G01 F60.00
G01 X-5.1175 Y-25.6049
G01 X-4.3556 Y-25.6049
G01 X-4.3372 Y-25.6039
G01 X-4.3214 Y-25.6015
G01 X-4.3071 Y-25.5980
G01 X-4.2886 Y-25.5915
G01 X-4.2709 Y-25.5830
G01 X-4.2583 Y-25.5754
G01 X-4.2464 Y-25.5666
G01 X-4.2318 Y-25.5536
G01 X-4.2187 Y-25.5389
G01 X-4.2100 Y-25.5271
G01 X-4.2024 Y-25.5145
G01 X-4.1943 Y-25.4979
G01 X-4.1880 Y-25.4806
G01 X-4.1839 Y-25.4640
G01 X-4.1814 Y-25.4470
G01 X-4.1805 Y-25.4298
G01 X-4.1814 Y-25.4127
G01 X-4.1839 Y-25.3957
G01 X-4.1880 Y-25.3790
G01 X-4.1948 Y-25.3606
G01 X-4.2018 Y-25.3462
G01 X-4.2114 Y-25.3305
G01 X-4.2202 Y-25.3188
G01 X-4.2301 Y-25.3078
G01 X-4.2427 Y-25.2961
G01 X-4.2583 Y-25.2843
G01 X-4.2730 Y-25.2754
G01 X-4.2886 Y-25.2681
G01 X-4.3036 Y-25.2627
G01 X-4.3238 Y-25.2577
G01 X-4.3384 Y-25.2556
G01 X-4.3543 Y-25.2548
G01 X-4.9424 Y-25.2547
G01 X-4.9424 Y-24.7668
G01 X-4.5829 Y-24.7668
G01 X-4.5670 Y-24.7659
G01 X-4.5524 Y-24.7638
G01 X-4.5322 Y-24.7589
G01 X-4.5171 Y-24.7534
G01 X-4.5038 Y-24.7472
G01 X-4.4849 Y-24.7359
G01 X-4.4731 Y-24.7270
G01 X-4.4604 Y-24.7155
G01 X-4.4488 Y-24.7028
G01 X-4.4400 Y-24.6910
G01 X-4.4286 Y-24.6720
G01 X-4.4224 Y-24.6587
G01 X-4.4166 Y-24.6425
G01 X-4.4124 Y-24.6259
G01 X-4.4102 Y-24.6113
G01 X-4.4091 Y-24.5917
G01 X-4.4102 Y-24.5721
G01 X-4.4124 Y-24.5576
G01 X-4.4166 Y-24.5409
G01 X-4.4224 Y-24.5247
G01 X-4.4286 Y-24.5114
G01 X-4.4400 Y-24.4924
G01 X-4.4488 Y-24.4807
G01 X-4.4604 Y-24.4679
G01 X-4.4731 Y-24.4564
G01 X-4.4849 Y-24.4476
G01 X-4.5038 Y-24.4362
G01 X-4.5171 Y-24.4300
G01 X-4.5322 Y-24.4246
G01 X-4.5524 Y-24.4196
G01 X-4.5670 Y-24.4175
G01 X-4.5829 Y-24.4167
G01 X-4.9424 Y-24.4166
G01 X-4.9424 Y-24.0049
G01 X-4.3543 Y-24.0049
G01 X-4.3360 Y-24.0037
G01 X-4.3214 Y-24.0015
G01 X-4.3071 Y-23.9980
G01 X-4.2886 Y-23.9915
G01 X-4.2741 Y-23.9848
G01 X-4.2563 Y-23.9740
G01 X-4.2445 Y-23.9651
G01 X-4.2318 Y-23.9536
G01 X-4.2187 Y-23.9389
G01 X-4.2100 Y-23.9271
G01 X-4.2024 Y-23.9145
G01 X-4.1938 Y-23.8968
G01 X-4.1874 Y-23.8783
G01 X-4.1839 Y-23.8640
G01 X-4.1815 Y-23.8482
G01 X-4.1806 Y-23.8274
G01 X-4.1814 Y-23.8127
G01 X-4.1835 Y-23.7981
G01 X-4.1880 Y-23.7790
G01 X-4.1938 Y-23.7628
G01 X-4.2001 Y-23.7495
G01 X-4.2100 Y-23.7326
G01 X-4.2202 Y-23.7188
G01 X-4.2301 Y-23.7078
G01 X-4.2445 Y-23.6945
G01 X-4.2604 Y-23.6829
G01 X-4.2730 Y-23.6754
G01 X-4.2874 Y-23.6686
G01 X-4.3048 Y-23.6623
G01 X-4.3214 Y-23.6581
G01 X-4.3384 Y-23.6556
G01 X-4.3543 Y-23.6548
G01 X-5.1175 Y-23.6547
G01 X-5.1346 Y-23.6556
G01 X-5.1540 Y-23.6586
G01 X-5.1683 Y-23.6623
G01 X-5.1822 Y-23.6672
G01 X-5.2000 Y-23.6754
G01 X-5.2167 Y-23.6857
G01 X-5.2285 Y-23.6945
G01 X-5.2395 Y-23.7043
G01 X-5.2528 Y-23.7188
G01 X-5.2643 Y-23.7346
G01 X-5.2719 Y-23.7473
G01 X-5.2787 Y-23.7617
G01 X-5.2850 Y-23.7790
G01 X-5.2892 Y-23.7957
G01 X-5.2917 Y-23.8127
G01 X-5.2925 Y-23.8298
G01 X-5.2925 Y-25.4298
G01 X-5.2918 Y-25.4457
G01 X-5.2892 Y-25.4640
G01 X-5.2856 Y-25.4783
G01 X-5.2782 Y-25.4990
G01 X-5.2719 Y-25.5123
G01 X-5.2630 Y-25.5271
G01 X-5.2528 Y-25.5409
G01 X-5.2413 Y-25.5536
G01 X-5.2285 Y-25.5651
G01 X-5.2167 Y-25.5740
G01 X-5.1978 Y-25.5853
G01 X-5.1845 Y-25.5915
G01 X-5.1683 Y-25.5973
G01 X-5.1516 Y-25.6015
G01 X-5.1371 Y-25.6037
G00 Z2.0000
G00 X-5.4454 Y-26.3159
G01 F60.00
G01 Z-0.0000
G01 F60.00
G01 X-5.4624 Y-26.3232
G01 X-5.6148 Y-26.3994
G01 X-5.6311 Y-26.4087
G01 X-5.6463 Y-26.4197
G01 X-5.6603 Y-26.4322
G01 X-5.8127 Y-26.5846
G01 X-5.8218 Y-26.5945
G01 X-5.8329 Y-26.6088
G01 X-5.8412 Y-26.6221
G01 X-5.8484 Y-26.6362
G01 X-5.8538 Y-26.6498
G01 X-5.8587 Y-26.6659
G01 X-5.9349 Y-26.9707
G01 X-5.9390 Y-26.9933
G01 X-5.9402 Y-27.0131
G01 X-5.9402 Y-27.5465
G01 X-5.9388 Y-27.5679
G01 X-5.9353 Y-27.5874
G01 X-5.8585 Y-27.8948
G01 X-5.8542 Y-27.9088
G01 X-5.8493 Y-27.9214
G01 X-5.8418 Y-27.9365
G01 X-5.8315 Y-27.9527
G01 X-5.8233 Y-27.9634
G01 X-5.8135 Y-27.9742
G01 X-5.6603 Y-28.1274
G01 X-5.6453 Y-28.1408
G01 X-5.6311 Y-28.1509
G01 X-5.6160 Y-28.1596
G01 X-5.4614 Y-28.2369
G01 X-5.4476 Y-28.2430
G01 X-5.4344 Y-28.2475
G01 X-5.4164 Y-28.2519
G01 X-5.4004 Y-28.2541
G01 X-5.3841 Y-28.2549
G01 X-5.0794 Y-28.2549
G01 X-5.0632 Y-28.2541
G01 X-5.0460 Y-28.2516
G01 X-5.0313 Y-28.2481
G01 X-5.0181 Y-28.2438
G01 X-5.0011 Y-28.2364
G01 X-4.8475 Y-28.1596
G01 X-4.8324 Y-28.1509
G01 X-4.8182 Y-28.1408
G01 X-4.8032 Y-28.1274
G01 X-4.6493 Y-27.9734
G01 X-4.6402 Y-27.9634
G01 X-4.6300 Y-27.9499
G01 X-4.6223 Y-27.9375
G01 X-4.6143 Y-27.9214
G01 X-4.6093 Y-27.9088
G01 X-4.6048 Y-27.8937
G01 X-4.5286 Y-27.5889
G01 X-4.5245 Y-27.5663
G01 X-4.5234 Y-27.5465
G01 X-4.5234 Y-27.0131
G01 X-4.5247 Y-26.9917
G01 X-4.5282 Y-26.9722
G01 X-4.6051 Y-26.6648
G01 X-4.6101 Y-26.6487
G01 X-4.6151 Y-26.6362
G01 X-4.6217 Y-26.6231
G01 X-4.6320 Y-26.6070
G01 X-4.6402 Y-26.5962
G01 X-4.6508 Y-26.5846
G01 X-4.8042 Y-26.4313
G01 X-4.8172 Y-26.4197
G01 X-4.8302 Y-26.4102
G01 X-4.8487 Y-26.3994
G01 X-5.0021 Y-26.3227
G01 X-5.0159 Y-26.3167
G01 X-5.0291 Y-26.3122
G01 X-5.0482 Y-26.3075
G01 X-5.0632 Y-26.3055
G01 X-5.0794 Y-26.3047
G01 X-5.3853 Y-26.3048
G01 X-5.4004 Y-26.3055
G01 X-5.4164 Y-26.3077
G01 X-5.4322 Y-26.3115
G01 X-5.4454 Y-26.3159
G00 Z2.0000
G00 X-6.6307 Y-26.6999
G01 F60.00
G01 Z-0.0000
G01 F60.00
G01 X-6.7207 Y-26.6549
G01 X-7.1138 Y-26.6549
G01 X-7.1138 Y-27.1428
G01 X-6.7207 Y-27.1428
G01 X-6.6307 Y-27.0978
G01 X-6.5947 Y-27.0618
G01 X-6.5497 Y-26.9718
G01 X-6.5497 Y-26.8259
G01 X-6.5947 Y-26.7359
G01 X-6.6307 Y-26.6999
G00 Z2.0000
G00 X-7.4628 Y-26.4602
G01 F60.00
G01 Z-0.0000
G01 F60.00
G01 X-7.4640 Y-26.4798
G01 X-7.4640 Y-28.0798
G01 X-7.4631 Y-28.0970
G01 X-7.4606 Y-28.1140
G01 X-7.4564 Y-28.1306
G01 X-7.4506 Y-28.1468
G01 X-7.4433 Y-28.1623
G01 X-7.4345 Y-28.1771
G01 X-7.4242 Y-28.1909
G01 X-7.4127 Y-28.2036
G01 X-7.4000 Y-28.2151
G01 X-7.3862 Y-28.2254
G01 X-7.3714 Y-28.2342
G01 X-7.3559 Y-28.2415
G01 X-7.3397 Y-28.2473
G01 X-7.3231 Y-28.2515
G01 X-7.3061 Y-28.2540
G01 X-7.2889 Y-28.2549
G01 X-7.2717 Y-28.2540
G01 X-7.2524 Y-28.2510
G01 X-7.2381 Y-28.2473
G01 X-7.2219 Y-28.2415
G01 X-7.2064 Y-28.2342
G01 X-7.1937 Y-28.2267
G01 X-7.1760 Y-28.2135
G01 X-7.1651 Y-28.2036
G01 X-7.1536 Y-28.1909
G01 X-7.1433 Y-28.1771
G01 X-7.1357 Y-28.1645
G01 X-7.1263 Y-28.1445
G01 X-7.1214 Y-28.1306
G01 X-7.1172 Y-28.1140
G01 X-7.1147 Y-28.0970
G01 X-7.1138 Y-28.0798
G01 X-7.1138 Y-27.4930
G01 X-6.6794 Y-27.4930
G01 X-6.6632 Y-27.4922
G01 X-6.6482 Y-27.4902
G01 X-6.6291 Y-27.4855
G01 X-6.6159 Y-27.4811
G01 X-6.6021 Y-27.4750
G01 X-6.4475 Y-27.3977
G01 X-6.4324 Y-27.3890
G01 X-6.4172 Y-27.3780
G01 X-6.4032 Y-27.3655
G01 X-6.3261 Y-27.2883
G01 X-6.3145 Y-27.2753
G01 X-6.3042 Y-27.2612
G01 X-6.2942 Y-27.2438
G01 X-6.2180 Y-27.0914
G01 X-6.2111 Y-27.0755
G01 X-6.2063 Y-27.0612
G01 X-6.2026 Y-27.0454
G01 X-6.2003 Y-27.0294
G01 X-6.1996 Y-27.0143
G01 X-6.1996 Y-26.7846
G01 X-6.2004 Y-26.7672
G01 X-6.2026 Y-26.7523
G01 X-6.2063 Y-26.7365
G01 X-6.2115 Y-26.7211
G01 X-6.2180 Y-26.7063
G01 X-6.2948 Y-26.5527
G01 X-6.3050 Y-26.5354
G01 X-6.3145 Y-26.5224
G01 X-6.3261 Y-26.5094
G01 X-6.4042 Y-26.4313
G01 X-6.4172 Y-26.4197
G01 X-6.4324 Y-26.4087
G01 X-6.4487 Y-26.3994
G01 X-6.6011 Y-26.3232
G01 X-6.6159 Y-26.3167
G01 X-6.6335 Y-26.3109
G01 X-6.6471 Y-26.3077
G01 X-6.6609 Y-26.3058
G01 X-6.6794 Y-26.3047
G01 X-7.2889 Y-26.3047
G01 X-7.3061 Y-26.3056
G01 X-7.3218 Y-26.3079
G01 X-7.3420 Y-26.3131
G01 X-7.3559 Y-26.3181
G01 X-7.3714 Y-26.3254
G01 X-7.3862 Y-26.3343
G01 X-7.3980 Y-26.3430
G01 X-7.4144 Y-26.3578
G01 X-7.4242 Y-26.3688
G01 X-7.4338 Y-26.3815
G01 X-7.4444 Y-26.3995
G01 X-7.4506 Y-26.4128
G01 X-7.4564 Y-26.4290
G01 X-7.4606 Y-26.4457
G01 X-7.4628 Y-26.4602
G00 Z2.0000
G00 X-9.2897 Y-26.4486
G01 F60.00
G01 Z-0.0000
G01 F60.00
G01 X-9.2917 Y-26.4629
G01 X-9.2925 Y-26.4798
G01 X-9.2925 Y-28.0810
G01 X-9.2917 Y-28.0970
G01 X-9.2896 Y-28.1115
G01 X-9.2842 Y-28.1330
G01 X-9.2792 Y-28.1468
G01 X-9.2719 Y-28.1623
G01 X-9.2630 Y-28.1771
G01 X-9.2536 Y-28.1899
G01 X-9.2395 Y-28.2053
G01 X-9.2285 Y-28.2151
G01 X-9.2167 Y-28.2240
G01 X-9.2000 Y-28.2342
G01 X-9.1822 Y-28.2424
G01 X-9.1683 Y-28.2473
G01 X-9.1540 Y-28.2510
G01 X-9.1346 Y-28.2540
G01 X-9.1175 Y-28.2549
G01 X-9.1028 Y-28.2542
G01 X-9.0833 Y-28.2515
G01 X-9.0643 Y-28.2466
G01 X-9.0505 Y-28.2415
G01 X-9.0371 Y-28.2353
G01 X-9.0202 Y-28.2254
G01 X-9.0046 Y-28.2135
G01 X-8.9937 Y-28.2036
G01 X-8.9837 Y-28.1927
G01 X-8.9719 Y-28.1771
G01 X-8.9620 Y-28.1601
G01 X-8.9557 Y-28.1468
G01 X-8.9503 Y-28.1318
G01 X-8.9454 Y-28.1115
G01 X-8.9433 Y-28.0970
G01 X-8.9424 Y-28.0798
G01 X-8.9424 Y-27.2689
G01 X-8.7428 Y-27.6967
G01 X-8.7347 Y-27.7120
G01 X-8.7259 Y-27.7254
G01 X-8.7143 Y-27.7397
G01 X-8.7003 Y-27.7536
G01 X-8.6888 Y-27.7630
G01 X-8.6766 Y-27.7713
G01 X-8.6593 Y-27.7808
G01 X-8.6434 Y-27.7874
G01 X-8.6245 Y-27.7930
G01 X-8.6075 Y-27.7961
G01 X-8.5928 Y-27.7975
G01 X-8.5780 Y-27.7976
G01 X-8.5583 Y-27.7958
G01 X-8.5414 Y-27.7924
G01 X-8.5249 Y-27.7874
G01 X-8.5068 Y-27.7797
G01 X-8.4938 Y-27.7726
G01 X-8.4815 Y-27.7644
G01 X-8.4671 Y-27.7528
G01 X-8.4540 Y-27.7397
G01 X-8.4417 Y-27.7243
G01 X-8.4336 Y-27.7120
G01 X-8.4255 Y-27.6967
G01 X-8.2259 Y-27.2689
G01 X-8.2259 Y-28.0798
G01 X-8.2247 Y-28.0994
G01 X-8.2225 Y-28.1140
G01 X-8.2183 Y-28.1306
G01 X-8.2125 Y-28.1468
G01 X-8.2040 Y-28.1645
G01 X-8.1964 Y-28.1771
G01 X-8.1876 Y-28.1889
G01 X-8.1746 Y-28.2036
G01 X-8.1599 Y-28.2166
G01 X-8.1481 Y-28.2254
G01 X-8.1355 Y-28.2330
G01 X-8.1178 Y-28.2415
G01 X-8.1016 Y-28.2473
G01 X-8.0825 Y-28.2519
G01 X-8.0680 Y-28.2540
G01 X-8.0533 Y-28.2548
G01 X-8.0337 Y-28.2540
G01 X-8.0167 Y-28.2515
G01 X-8.0000 Y-28.2473
G01 X-7.9816 Y-28.2406
G01 X-7.9683 Y-28.2342
G01 X-7.9556 Y-28.2267
G01 X-7.9407 Y-28.2159
G01 X-7.9270 Y-28.2036
G01 X-7.9155 Y-28.1909
G01 X-7.9053 Y-28.1771
G01 X-7.8953 Y-28.1601
G01 X-7.8891 Y-28.1468
G01 X-7.8841 Y-28.1330
G01 X-7.8796 Y-28.1164
G01 X-7.8766 Y-28.0970
G01 X-7.8758 Y-28.0810
G01 X-7.8758 Y-26.4786
G01 X-7.8766 Y-26.4629
G01 X-7.8786 Y-26.4486
G01 X-7.8838 Y-26.4275
G01 X-7.8887 Y-26.4138
G01 X-7.8958 Y-26.3985
G01 X-7.9043 Y-26.3839
G01 X-7.9135 Y-26.3712
G01 X-7.9255 Y-26.3576
G01 X-7.9397 Y-26.3446
G01 X-7.9533 Y-26.3345
G01 X-7.9656 Y-26.3269
G01 X-7.9786 Y-26.3204
G01 X-7.9966 Y-26.3134
G01 X-8.0129 Y-26.3089
G01 X-8.0296 Y-26.3060
G01 X-8.0488 Y-26.3048
G01 X-8.0633 Y-26.3052
G01 X-8.0777 Y-26.3069
G01 X-8.0943 Y-26.3103
G01 X-8.1127 Y-26.3161
G01 X-8.1282 Y-26.3228
G01 X-8.1430 Y-26.3310
G01 X-8.1588 Y-26.3421
G01 X-8.1716 Y-26.3531
G01 X-8.1817 Y-26.3635
G01 X-8.1908 Y-26.3748
G01 X-8.2016 Y-26.3908
G01 X-8.2094 Y-26.4058
G01 X-8.5841 Y-27.2087
G01 X-8.9588 Y-26.4058
G01 X-8.9667 Y-26.3908
G01 X-8.9746 Y-26.3787
G01 X-8.9874 Y-26.3626
G01 X-8.9984 Y-26.3515
G01 X-9.0095 Y-26.3421
G01 X-9.0253 Y-26.3310
G01 X-9.0423 Y-26.3218
G01 X-9.0556 Y-26.3161
G01 X-9.0717 Y-26.3108
G01 X-9.0906 Y-26.3069
G01 X-9.1050 Y-26.3052
G01 X-9.1219 Y-26.3048
G01 X-9.1411 Y-26.3064
G01 X-9.1554 Y-26.3089
G01 X-9.1694 Y-26.3127
G01 X-9.1886 Y-26.3199
G01 X-9.2026 Y-26.3269
G01 X-9.2150 Y-26.3345
G01 X-9.2304 Y-26.3461
G01 X-9.2444 Y-26.3594
G01 X-9.2540 Y-26.3702
G01 X-9.2626 Y-26.3819
G01 X-9.2731 Y-26.3996
G01 X-9.2796 Y-26.4138
G01 X-9.2845 Y-26.4275
G01 X-9.2897 Y-26.4486
G00 Z2.0000
G00 X-10.5392 Y-26.3122
G01 F60.00
G01 Z-0.0000
G01 F60.00
G01 X-10.5524 Y-26.3167
G01 X-10.5661 Y-26.3227
G01 X-10.7196 Y-26.3994
G01 X-10.7359 Y-26.4087
G01 X-10.7511 Y-26.4197
G01 X-10.7651 Y-26.4322
G01 X-10.9174 Y-26.5846
G01 X-10.9266 Y-26.5945
G01 X-10.9376 Y-26.6088
G01 X-10.9454 Y-26.6212
G01 X-10.9531 Y-26.6362
G01 X-10.9582 Y-26.6487
G01 X-10.9635 Y-26.6659
G01 X-11.0397 Y-26.9707
G01 X-11.0438 Y-26.9933
G01 X-11.0449 Y-27.0131
G01 X-11.0449 Y-27.5465
G01 X-11.0436 Y-27.5679
G01 X-11.0403 Y-27.5859
G01 X-10.9632 Y-27.8948
G01 X-10.9582 Y-27.9109
G01 X-10.9531 Y-27.9234
G01 X-10.9465 Y-27.9365
G01 X-10.9363 Y-27.9527
G01 X-10.9281 Y-27.9634
G01 X-10.9182 Y-27.9742
G01 X-10.7651 Y-28.1274
G01 X-10.7501 Y-28.1408
G01 X-10.7359 Y-28.1509
G01 X-10.7208 Y-28.1596
G01 X-10.5661 Y-28.2369
G01 X-10.5524 Y-28.2430
G01 X-10.5392 Y-28.2475
G01 X-10.5212 Y-28.2519
G01 X-10.5051 Y-28.2541
G01 X-10.4889 Y-28.2549
G01 X-10.1841 Y-28.2549
G01 X-10.1679 Y-28.2541
G01 X-10.1507 Y-28.2516
G01 X-10.1361 Y-28.2481
G01 X-10.1229 Y-28.2438
G01 X-10.1058 Y-28.2364
G01 X-9.9523 Y-28.1596
G01 X-9.9372 Y-28.1509
G01 X-9.9230 Y-28.1408
G01 X-9.9080 Y-28.1274
G01 X-9.7540 Y-27.9734
G01 X-9.7450 Y-27.9634
G01 X-9.7348 Y-27.9499
G01 X-9.7270 Y-27.9375
G01 X-9.7190 Y-27.9214
G01 X-9.7141 Y-27.9088
G01 X-9.7095 Y-27.8937
G01 X-9.6334 Y-27.5889
G01 X-9.6293 Y-27.5663
G01 X-9.6281 Y-27.5465
G01 X-9.6281 Y-27.0131
G01 X-9.6294 Y-26.9918
G01 X-9.6327 Y-26.9737
G01 X-9.7098 Y-26.6648
G01 X-9.7148 Y-26.6487
G01 X-9.7199 Y-26.6362
G01 X-9.7265 Y-26.6231
G01 X-9.7367 Y-26.6070
G01 X-9.7450 Y-26.5962
G01 X-9.7548 Y-26.5854
G01 X-9.9080 Y-26.4322
G01 X-9.9241 Y-26.4180
G01 X-9.9372 Y-26.4087
G01 X-9.9523 Y-26.4000
G01 X-10.1069 Y-26.3227
G01 X-10.1207 Y-26.3167
G01 X-10.1339 Y-26.3122
G01 X-10.1530 Y-26.3075
G01 X-10.1679 Y-26.3055
G01 X-10.1841 Y-26.3047
G01 X-10.4901 Y-26.3048
G01 X-10.5051 Y-26.3055
G01 X-10.5189 Y-26.3074
G01 X-10.5392 Y-26.3122
G00 Z2.0000
G00 X-10.2255 Y-27.9047
G01 F60.00
G01 Z-0.0000
G01 F60.00
G01 X-10.1355 Y-27.8597
G01 X-10.0375 Y-27.7617
G01 X-9.9783 Y-27.5249
G01 X-9.9783 Y-27.0347
G01 X-10.0375 Y-26.7979
G01 X-10.1355 Y-26.6999
G01 X-10.2255 Y-26.6549
G01 X-10.4476 Y-26.6549
G01 X-10.5376 Y-26.6999
G01 X-10.6356 Y-26.7979
G01 X-10.6948 Y-27.0347
G01 X-10.6948 Y-27.5249
G01 X-10.6356 Y-27.7617
G01 X-10.5376 Y-27.8597
G01 X-10.4476 Y-27.9047
G01 X-10.2255 Y-27.9047
G00 Z2.0000
G00 X-11.4548 Y-28.1468
G01 F60.00
G01 Z-0.0000
G01 F60.00
G01 X-11.4438 Y-28.1383
G01 X-11.4326 Y-28.1282
G01 X-11.3556 Y-28.0512
G01 X-11.3448 Y-28.0394
G01 X-11.3338 Y-28.0247
G01 X-11.3250 Y-28.0100
G01 X-11.3176 Y-27.9944
G01 X-11.3122 Y-27.9794
G01 X-11.3077 Y-27.9616
G01 X-11.3050 Y-27.9421
G01 X-11.3043 Y-27.9274
G01 X-11.3050 Y-27.9127
G01 X-11.3077 Y-27.8933
G01 X-11.3126 Y-27.8743
G01 X-11.3176 Y-27.8604
G01 X-11.3239 Y-27.8471
G01 X-11.3338 Y-27.8302
G01 X-11.3448 Y-27.8154
G01 X-11.3556 Y-27.8036
G01 X-11.3703 Y-27.7906
G01 X-11.3842 Y-27.7806
G01 X-11.3969 Y-27.7730
G01 X-11.4101 Y-27.7667
G01 X-11.4286 Y-27.7599
G01 X-11.4452 Y-27.7557
G01 X-11.4622 Y-27.7532
G01 X-11.4818 Y-27.7524
G01 X-11.4965 Y-27.7532
G01 X-11.5111 Y-27.7553
G01 X-11.5290 Y-27.7596
G01 X-11.5464 Y-27.7657
G01 X-11.5640 Y-27.7742
G01 X-11.5777 Y-27.7826
G01 X-11.5923 Y-27.7937
G01 X-11.6032 Y-27.8036
G01 X-11.6501 Y-27.8506
G01 X-11.8125 Y-27.9047
G01 X-11.9081 Y-27.9047
G01 X-12.0705 Y-27.8506
G01 X-12.1736 Y-27.7475
G01 X-12.2285 Y-27.6378
G01 X-12.2948 Y-27.3725
G01 X-12.2948 Y-27.1871
G01 X-12.2285 Y-26.9219
G01 X-12.1736 Y-26.8121
G01 X-12.0705 Y-26.7090
G01 X-11.9081 Y-26.6549
G01 X-11.8125 Y-26.6549
G01 X-11.6501 Y-26.7090
G01 X-11.6032 Y-26.7560
G01 X-11.5904 Y-26.7675
G01 X-11.5766 Y-26.7777
G01 X-11.5640 Y-26.7854
G01 X-11.5464 Y-26.7939
G01 X-11.5302 Y-26.7997
G01 X-11.5159 Y-26.8034
G01 X-11.4965 Y-26.8064
G01 X-11.4794 Y-26.8073
G01 X-11.4647 Y-26.8066
G01 X-11.4452 Y-26.8039
G01 X-11.4286 Y-26.7997
G01 X-11.4101 Y-26.7929
G01 X-11.3969 Y-26.7866
G01 X-11.3842 Y-26.7791
G01 X-11.3703 Y-26.7690
G01 X-11.3556 Y-26.7560
G01 X-11.3441 Y-26.7432
G01 X-11.3338 Y-26.7294
G01 X-11.3250 Y-26.7147
G01 X-11.3176 Y-26.6992
G01 X-11.3112 Y-26.6806
G01 X-11.3077 Y-26.6663
G01 X-11.3055 Y-26.6518
G01 X-11.3044 Y-26.6346
G01 X-11.3052 Y-26.6150
G01 X-11.3077 Y-26.5980
G01 X-11.3119 Y-26.5814
G01 X-11.3181 Y-26.5641
G01 X-11.3250 Y-26.5497
G01 X-11.3338 Y-26.5349
G01 X-11.3441 Y-26.5211
G01 X-11.3547 Y-26.5093
G01 X-11.4335 Y-26.4306
G01 X-11.4438 Y-26.4213
G01 X-11.4548 Y-26.4129
G01 X-11.4695 Y-26.4036
G01 X-11.4851 Y-26.3958
G01 X-11.5002 Y-26.3899
G01 X-11.7288 Y-26.3137
G01 X-11.7482 Y-26.3085
G01 X-11.7654 Y-26.3058
G01 X-11.7841 Y-26.3047
G01 X-11.9379 Y-26.3048
G01 X-11.9553 Y-26.3058
G01 X-11.9725 Y-26.3085
G01 X-11.9919 Y-26.3137
G01 X-12.2204 Y-26.3899
G01 X-12.2356 Y-26.3958
G01 X-12.2501 Y-26.4030
G01 X-12.2639 Y-26.4115
G01 X-12.2769 Y-26.4213
G01 X-12.2889 Y-26.4322
G01 X-12.4422 Y-26.5856
G01 X-12.4554 Y-26.6007
G01 X-12.4648 Y-26.6138
G01 X-12.4728 Y-26.6277
G01 X-12.5502 Y-26.7825
G01 X-12.5583 Y-26.8013
G01 X-12.5635 Y-26.8183
G01 X-12.6400 Y-27.1246
G01 X-12.6436 Y-27.1441
G01 X-12.6449 Y-27.1655
G01 X-12.6449 Y-27.3941
G01 X-12.6436 Y-27.4155
G01 X-12.6397 Y-27.4366
G01 X-12.5635 Y-27.7413
G01 X-12.5578 Y-27.7596
G01 X-12.5514 Y-27.7747
G01 X-12.4734 Y-27.9307
G01 X-12.4648 Y-27.9458
G01 X-12.4529 Y-27.9621
G01 X-12.4413 Y-27.9750
G01 X-12.2889 Y-28.1274
G01 X-12.2786 Y-28.1368
G01 X-12.2639 Y-28.1481
G01 X-12.2501 Y-28.1566
G01 X-12.2356 Y-28.1639
G01 X-12.2204 Y-28.1697
G01 X-11.9919 Y-28.2459
G01 X-11.9725 Y-28.2511
G01 X-11.9553 Y-28.2539
G01 X-11.9379 Y-28.2549
G01 X-11.7828 Y-28.2549
G01 X-11.7654 Y-28.2539
G01 X-11.7495 Y-28.2514
G01 X-11.7288 Y-28.2459
G01 X-11.4991 Y-28.1693
G01 X-11.4851 Y-28.1639
G01 X-11.4726 Y-28.1577
G01 X-11.4548 Y-28.1468
G00 Z2.0000
G00 X-5.3428 Y-27.9047
G01 F60.00
G01 Z-0.0000
G01 F60.00
G01 X-5.1207 Y-27.9047
G01 X-5.0307 Y-27.8597
G01 X-4.9327 Y-27.7617
G01 X-4.8735 Y-27.5249
G01 X-4.8735 Y-27.0347
G01 X-4.9327 Y-26.7979
G01 X-5.0307 Y-26.6999
G01 X-5.1207 Y-26.6549
G01 X-5.3428 Y-26.6549
G01 X-5.4328 Y-26.6999
G01 X-5.5308 Y-26.7979
G01 X-5.5900 Y-27.0347
G01 X-5.5900 Y-27.5249
G01 X-5.5308 Y-27.7617
G01 X-5.4328 Y-27.8597
G01 X-5.3428 Y-27.9047
G00 Z2.0000
G00 X-4.1867 Y-26.4604
G01 F60.00
G01 Z-0.0000
G01 F60.00
G01 X-4.1878 Y-26.4798
G01 X-4.1878 Y-28.0810
G01 X-4.1869 Y-28.0970
G01 X-4.1848 Y-28.1115
G01 X-4.1802 Y-28.1306
G01 X-4.1744 Y-28.1468
G01 X-4.1682 Y-28.1601
G01 X-4.1583 Y-28.1771
G01 X-4.1480 Y-28.1909
G01 X-4.1382 Y-28.2018
G01 X-4.1238 Y-28.2151
G01 X-4.1100 Y-28.2254
G01 X-4.0974 Y-28.2330
G01 X-4.0797 Y-28.2415
G01 X-4.0635 Y-28.2473
G01 X-4.0493 Y-28.2510
G01 X-4.0299 Y-28.2540
G01 X-4.0103 Y-28.2548
G01 X-3.9956 Y-28.2540
G01 X-3.9810 Y-28.2519
G01 X-3.9607 Y-28.2470
G01 X-3.9457 Y-28.2415
G01 X-3.9324 Y-28.2353
G01 X-3.9155 Y-28.2254
G01 X-3.8998 Y-28.2135
G01 X-3.8889 Y-28.2036
G01 X-3.8790 Y-28.1927
G01 X-3.8672 Y-28.1771
G01 X-3.8583 Y-28.1623
G01 X-3.8520 Y-28.1490
G01 X-3.8452 Y-28.1306
G01 X-3.8410 Y-28.1140
G01 X-3.8388 Y-28.0994
G01 X-3.8376 Y-28.0798
G01 X-3.8376 Y-27.1390
G01 X-3.2504 Y-28.1667
G01 X-3.2398 Y-28.1829
G01 X-3.2308 Y-28.1944
G01 X-3.2191 Y-28.2067
G01 X-3.2062 Y-28.2178
G01 X-3.1923 Y-28.2276
G01 X-3.1775 Y-28.2360
G01 X-3.1620 Y-28.2429
G01 X-3.1459 Y-28.2483
G01 X-3.1293 Y-28.2521
G01 X-3.1125 Y-28.2543
G01 X-3.0955 Y-28.2548
G01 X-3.0785 Y-28.2537
G01 X-3.0618 Y-28.2510
G01 X-3.0453 Y-28.2466
G01 X-3.0294 Y-28.2407
G01 X-3.0141 Y-28.2332
G01 X-2.9996 Y-28.2243
G01 X-2.9861 Y-28.2141
G01 X-2.9719 Y-28.2008
G01 X-2.9623 Y-28.1899
G01 X-2.9536 Y-28.1781
G01 X-2.9436 Y-28.1615
G01 X-2.9364 Y-28.1461
G01 X-2.9301 Y-28.1278
G01 X-2.9267 Y-28.1136
G01 X-2.9245 Y-28.0992
G01 X-2.9234 Y-28.0810
G01 X-2.9234 Y-26.4786
G01 X-2.9242 Y-26.4627
G01 X-2.9263 Y-26.4481
G01 X-2.9309 Y-26.4290
G01 X-2.9377 Y-26.4106
G01 X-2.9440 Y-26.3973
G01 X-2.9529 Y-26.3826
G01 X-2.9647 Y-26.3669
G01 X-2.9746 Y-26.3560
G01 X-2.9874 Y-26.3445
G01 X-3.0032 Y-26.3329
G01 X-3.0159 Y-26.3254
G01 X-3.0314 Y-26.3181
G01 X-3.0500 Y-26.3116
G01 X-3.0643 Y-26.3081
G01 X-3.0813 Y-26.3056
G01 X-3.1009 Y-26.3048
G01 X-3.1156 Y-26.3056
G01 X-3.1302 Y-26.3077
G01 X-3.1504 Y-26.3127
G01 X-3.1654 Y-26.3181
G01 X-3.1788 Y-26.3243
G01 X-3.1957 Y-26.3343
G01 X-3.2113 Y-26.3461
G01 X-3.2222 Y-26.3560
G01 X-3.2321 Y-26.3669
G01 X-3.2440 Y-26.3826
G01 X-3.2528 Y-26.3973
G01 X-3.2592 Y-26.4106
G01 X-3.2659 Y-26.4290
G01 X-3.2701 Y-26.4457
G01 X-3.2723 Y-26.4602
G01 X-3.2735 Y-26.4798
G01 X-3.2735 Y-27.4206
G01 X-3.8607 Y-26.3930
G01 X-3.8699 Y-26.3786
G01 X-3.8820 Y-26.3635
G01 X-3.8921 Y-26.3530
G01 X-3.9031 Y-26.3434
G01 X-3.9188 Y-26.3320
G01 X-3.9358 Y-26.3226
G01 X-3.9491 Y-26.3167
G01 X-3.9652 Y-26.3113
G01 X-3.9818 Y-26.3075
G01 X-3.9962 Y-26.3056
G01 X-4.0156 Y-26.3048
G01 X-4.0326 Y-26.3059
G01 X-4.0470 Y-26.3082
G01 X-4.0658 Y-26.3130
G01 X-4.0839 Y-26.3199
G01 X-4.0970 Y-26.3264
G01 X-4.1115 Y-26.3353
G01 X-4.1269 Y-26.3471
G01 X-4.1375 Y-26.3571
G01 X-4.1488 Y-26.3697
G01 X-4.1589 Y-26.3835
G01 X-4.1663 Y-26.3960
G01 X-4.1747 Y-26.4135
G01 X-4.1810 Y-26.4319
G01 X-4.1845 Y-26.4460
G01 X-4.1867 Y-26.4604
G00 Z2.0000
G00 X-2.3561 Y-28.2537
G01 F60.00
G01 Z-0.0000
G01 F60.00
G01 X-2.3365 Y-28.2549
G01 X-1.5746 Y-28.2549
G01 X-1.5562 Y-28.2539
G01 X-1.5381 Y-28.2510
G01 X-1.5238 Y-28.2473
G01 X-1.5099 Y-28.2424
G01 X-1.4921 Y-28.2342
G01 X-1.4754 Y-28.2240
G01 X-1.4636 Y-28.2151
G01 X-1.4526 Y-28.2053
G01 X-1.4393 Y-28.1909
G01 X-1.4277 Y-28.1750
G01 X-1.4202 Y-28.1623
G01 X-1.4134 Y-28.1479
G01 X-1.4071 Y-28.1306
G01 X-1.4029 Y-28.1140
G01 X-1.4004 Y-28.0970
G01 X-1.3996 Y-28.0798
G01 X-1.4004 Y-28.0627
G01 X-1.4029 Y-28.0457
G01 X-1.4071 Y-28.0290
G01 X-1.4139 Y-28.0106
G01 X-1.4208 Y-27.9962
G01 X-1.4305 Y-27.9805
G01 X-1.4393 Y-27.9688
G01 X-1.4491 Y-27.9578
G01 X-1.4617 Y-27.9461
G01 X-1.4774 Y-27.9343
G01 X-1.4921 Y-27.9254
G01 X-1.5076 Y-27.9181
G01 X-1.5226 Y-27.9127
G01 X-1.5429 Y-27.9077
G01 X-1.5575 Y-27.9056
G01 X-1.5734 Y-27.9048
G01 X-2.1615 Y-27.9047
G01 X-2.1615 Y-27.4168
G01 X-1.8020 Y-27.4168
G01 X-1.7860 Y-27.4159
G01 X-1.7715 Y-27.4138
G01 X-1.7512 Y-27.4089
G01 X-1.7362 Y-27.4034
G01 X-1.7229 Y-27.3972
G01 X-1.7039 Y-27.3859
G01 X-1.6921 Y-27.3770
G01 X-1.6794 Y-27.3655
G01 X-1.6679 Y-27.3528
G01 X-1.6590 Y-27.3410
G01 X-1.6477 Y-27.3220
G01 X-1.6415 Y-27.3087
G01 X-1.6357 Y-27.2925
G01 X-1.6315 Y-27.2759
G01 X-1.6293 Y-27.2613
G01 X-1.6281 Y-27.2417
G01 X-1.6293 Y-27.2221
G01 X-1.6315 Y-27.2076
G01 X-1.6357 Y-27.1909
G01 X-1.6415 Y-27.1747
G01 X-1.6477 Y-27.1614
G01 X-1.6590 Y-27.1424
G01 X-1.6679 Y-27.1307
G01 X-1.6794 Y-27.1179
G01 X-1.6921 Y-27.1064
G01 X-1.7039 Y-27.0976
G01 X-1.7229 Y-27.0862
G01 X-1.7362 Y-27.0800
G01 X-1.7512 Y-27.0746
G01 X-1.7715 Y-27.0696
G01 X-1.7860 Y-27.0675
G01 X-1.8020 Y-27.0667
G01 X-2.1615 Y-27.0666
G01 X-2.1615 Y-26.6549
G01 X-1.5734 Y-26.6549
G01 X-1.5550 Y-26.6537
G01 X-1.5405 Y-26.6515
G01 X-1.5262 Y-26.6480
G01 X-1.5076 Y-26.6415
G01 X-1.4932 Y-26.6348
G01 X-1.4754 Y-26.6240
G01 X-1.4636 Y-26.6151
G01 X-1.4508 Y-26.6036
G01 X-1.4378 Y-26.5889
G01 X-1.4291 Y-26.5771
G01 X-1.4214 Y-26.5645
G01 X-1.4129 Y-26.5468
G01 X-1.4064 Y-26.5283
G01 X-1.4029 Y-26.5140
G01 X-1.4005 Y-26.4982
G01 X-1.3996 Y-26.4774
G01 X-1.4004 Y-26.4627
G01 X-1.4025 Y-26.4481
G01 X-1.4071 Y-26.4290
G01 X-1.4139 Y-26.4106
G01 X-1.4202 Y-26.3973
G01 X-1.4291 Y-26.3826
G01 X-1.4393 Y-26.3688
G01 X-1.4491 Y-26.3578
G01 X-1.4636 Y-26.3445
G01 X-1.4794 Y-26.3329
G01 X-1.4921 Y-26.3254
G01 X-1.5065 Y-26.3186
G01 X-1.5238 Y-26.3123
G01 X-1.5405 Y-26.3081
G01 X-1.5575 Y-26.3056
G01 X-1.5734 Y-26.3048
G01 X-2.3365 Y-26.3047
G01 X-2.3537 Y-26.3056
G01 X-2.3731 Y-26.3086
G01 X-2.3873 Y-26.3123
G01 X-2.4012 Y-26.3172
G01 X-2.4190 Y-26.3254
G01 X-2.4358 Y-26.3357
G01 X-2.4476 Y-26.3445
G01 X-2.4585 Y-26.3543
G01 X-2.4718 Y-26.3688
G01 X-2.4834 Y-26.3846
G01 X-2.4909 Y-26.3973
G01 X-2.4978 Y-26.4117
G01 X-2.5040 Y-26.4290
G01 X-2.5082 Y-26.4457
G01 X-2.5107 Y-26.4627
G01 X-2.5116 Y-26.4798
G01 X-2.5116 Y-28.0798
G01 X-2.5108 Y-28.0957
G01 X-2.5082 Y-28.1140
G01 X-2.5047 Y-28.1283
G01 X-2.4973 Y-28.1490
G01 X-2.4909 Y-28.1623
G01 X-2.4821 Y-28.1771
G01 X-2.4718 Y-28.1909
G01 X-2.4603 Y-28.2036
G01 X-2.4476 Y-28.2151
G01 X-2.4358 Y-28.2240
G01 X-2.4169 Y-28.2353
G01 X-2.4035 Y-28.2415
G01 X-2.3873 Y-28.2473
G01 X-2.3707 Y-28.2515
G01 X-2.3561 Y-28.2537
G00 Z2.0000
G00 X-1.0628 Y-26.4604
G01 F60.00
G01 Z-0.0000
G01 F60.00
G01 X-1.0640 Y-26.4798
G01 X-1.0639 Y-28.0810
G01 X-1.0631 Y-28.0970
G01 X-1.0610 Y-28.1115
G01 X-1.0564 Y-28.1306
G01 X-1.0506 Y-28.1468
G01 X-1.0444 Y-28.1601
G01 X-1.0345 Y-28.1771
G01 X-1.0242 Y-28.1909
G01 X-1.0144 Y-28.2018
G01 X-1.0000 Y-28.2151
G01 X-0.9862 Y-28.2254
G01 X-0.9736 Y-28.2330
G01 X-0.9559 Y-28.2415
G01 X-0.9397 Y-28.2473
G01 X-0.9254 Y-28.2510
G01 X-0.9061 Y-28.2540
G01 X-0.8864 Y-28.2548
G01 X-0.8717 Y-28.2540
G01 X-0.8572 Y-28.2519
G01 X-0.8369 Y-28.2470
G01 X-0.8219 Y-28.2415
G01 X-0.8086 Y-28.2353
G01 X-0.7916 Y-28.2254
G01 X-0.7760 Y-28.2135
G01 X-0.7651 Y-28.2036
G01 X-0.7552 Y-28.1927
G01 X-0.7433 Y-28.1771
G01 X-0.7345 Y-28.1623
G01 X-0.7282 Y-28.1490
G01 X-0.7214 Y-28.1306
G01 X-0.7172 Y-28.1140
G01 X-0.7150 Y-28.0994
G01 X-0.7138 Y-28.0798
G01 X-0.7138 Y-27.1390
G01 X-0.1266 Y-28.1667
G01 X-0.1160 Y-28.1829
G01 X-0.1070 Y-28.1944
G01 X-0.0953 Y-28.2067
G01 X-0.0824 Y-28.2178
G01 X-0.0685 Y-28.2276
G01 X-0.0537 Y-28.2360
G01 X-0.0382 Y-28.2429
G01 X-0.0221 Y-28.2483
G01 X-0.0055 Y-28.2521
G01 X0.0113 Y-28.2543
G01 X0.0283 Y-28.2548
G01 X0.0453 Y-28.2537
G01 X0.0620 Y-28.2510
G01 X0.0785 Y-28.2466
G01 X0.0944 Y-28.2407
G01 X0.1097 Y-28.2332
G01 X0.1242 Y-28.2243
G01 X0.1377 Y-28.2141
G01 X0.1519 Y-28.2008
G01 X0.1615 Y-28.1899
G01 X0.1702 Y-28.1781
G01 X0.1802 Y-28.1615
G01 X0.1874 Y-28.1461
G01 X0.1937 Y-28.1278
G01 X0.1971 Y-28.1136
G01 X0.1993 Y-28.0992
G01 X0.2004 Y-28.0810
G01 X0.2004 Y-26.4786
G01 X0.1996 Y-26.4627
G01 X0.1975 Y-26.4481
G01 X0.1929 Y-26.4290
G01 X0.1871 Y-26.4128
G01 X0.1809 Y-26.3995
G01 X0.1709 Y-26.3826
G01 X0.1607 Y-26.3688
G01 X0.1509 Y-26.3578
G01 X0.1364 Y-26.3445
G01 X0.1226 Y-26.3343
G01 X0.1100 Y-26.3266
G01 X0.0924 Y-26.3181
G01 X0.0762 Y-26.3123
G01 X0.0619 Y-26.3086
G01 X0.0425 Y-26.3056
G01 X0.0229 Y-26.3048
G01 X0.0082 Y-26.3056
G01 X-0.0064 Y-26.3077
G01 X-0.0266 Y-26.3127
G01 X-0.0416 Y-26.3181
G01 X-0.0550 Y-26.3243
G01 X-0.0719 Y-26.3343
G01 X-0.0875 Y-26.3461
G01 X-0.0984 Y-26.3560
G01 X-0.1083 Y-26.3669
G01 X-0.1202 Y-26.3826
G01 X-0.1301 Y-26.3995
G01 X-0.1364 Y-26.4128
G01 X-0.1421 Y-26.4290
G01 X-0.1463 Y-26.4457
G01 X-0.1485 Y-26.4602
G01 X-0.1497 Y-26.4798
G01 X-0.1497 Y-27.4206
G01 X-0.7369 Y-26.3930
G01 X-0.7460 Y-26.3786
G01 X-0.7582 Y-26.3635
G01 X-0.7683 Y-26.3530
G01 X-0.7793 Y-26.3434
G01 X-0.7950 Y-26.3320
G01 X-0.8120 Y-26.3226
G01 X-0.8253 Y-26.3167
G01 X-0.8414 Y-26.3113
G01 X-0.8580 Y-26.3075
G01 X-0.8724 Y-26.3056
G01 X-0.8918 Y-26.3048
G01 X-0.9088 Y-26.3059
G01 X-0.9232 Y-26.3082
G01 X-0.9420 Y-26.3130
G01 X-0.9601 Y-26.3199
G01 X-0.9732 Y-26.3264
G01 X-0.9877 Y-26.3353
G01 X-1.0031 Y-26.3471
G01 X-1.0137 Y-26.3571
G01 X-1.0250 Y-26.3697
G01 X-1.0364 Y-26.3855
G01 X-1.0437 Y-26.3981
G01 X-1.0509 Y-26.4135
G01 X-1.0572 Y-26.4319
G01 X-1.0607 Y-26.4460
G01 X-1.0628 Y-26.4604
G00 Z2.0000
G00 X-0.7942 Y-25.6037
G01 F60.00
G01 Z-0.0000
G01 F60.00
G01 X-0.7746 Y-25.6049
G01 X-0.0127 Y-25.6049
G01 X0.0057 Y-25.6039
G01 X0.0214 Y-25.6015
G01 X0.0357 Y-25.5980
G01 X0.0543 Y-25.5915
G01 X0.0719 Y-25.5830
G01 X0.0845 Y-25.5754
G01 X0.0964 Y-25.5666
G01 X0.1111 Y-25.5536
G01 X0.1241 Y-25.5389
G01 X0.1328 Y-25.5271
G01 X0.1405 Y-25.5145
G01 X0.1485 Y-25.4979
G01 X0.1548 Y-25.4806
G01 X0.1590 Y-25.4640
G01 X0.1615 Y-25.4470
G01 X0.1624 Y-25.4298
G01 X0.1615 Y-25.4127
G01 X0.1590 Y-25.3957
G01 X0.1548 Y-25.3790
G01 X0.1480 Y-25.3606
G01 X0.1411 Y-25.3462
G01 X0.1314 Y-25.3305
G01 X0.1226 Y-25.3188
G01 X0.1128 Y-25.3078
G01 X0.1002 Y-25.2961
G01 X0.0845 Y-25.2843
G01 X0.0698 Y-25.2754
G01 X0.0543 Y-25.2681
G01 X0.0393 Y-25.2627
G01 X0.0190 Y-25.2577
G01 X0.0044 Y-25.2556
G01 X-0.0115 Y-25.2548
G01 X-0.5996 Y-25.2547
G01 X-0.5996 Y-24.7668
G01 X-0.2401 Y-24.7668
G01 X-0.2241 Y-24.7659
G01 X-0.2095 Y-24.7638
G01 X-0.1893 Y-24.7589
G01 X-0.1743 Y-24.7534
G01 X-0.1609 Y-24.7472
G01 X-0.1420 Y-24.7359
G01 X-0.1302 Y-24.7270
G01 X-0.1175 Y-24.7155
G01 X-0.1060 Y-24.7028
G01 X-0.0971 Y-24.6910
G01 X-0.0858 Y-24.6720
G01 X-0.0795 Y-24.6587
G01 X-0.0738 Y-24.6425
G01 X-0.0696 Y-24.6259
G01 X-0.0674 Y-24.6113
G01 X-0.0662 Y-24.5917
G01 X-0.0674 Y-24.5721
G01 X-0.0696 Y-24.5576
G01 X-0.0738 Y-24.5409
G01 X-0.0795 Y-24.5247
G01 X-0.0858 Y-24.5114
G01 X-0.0971 Y-24.4924
G01 X-0.1060 Y-24.4807
G01 X-0.1175 Y-24.4679
G01 X-0.1302 Y-24.4564
G01 X-0.1420 Y-24.4476
G01 X-0.1609 Y-24.4362
G01 X-0.1743 Y-24.4300
G01 X-0.1893 Y-24.4246
G01 X-0.2095 Y-24.4196
G01 X-0.2241 Y-24.4175
G01 X-0.2401 Y-24.4167
G01 X-0.5996 Y-24.4166
G01 X-0.5996 Y-24.0049
G01 X-0.0115 Y-24.0049
G01 X0.0069 Y-24.0037
G01 X0.0214 Y-24.0015
G01 X0.0357 Y-23.9980
G01 X0.0543 Y-23.9915
G01 X0.0687 Y-23.9848
G01 X0.0866 Y-23.9740
G01 X0.0983 Y-23.9651
G01 X0.1111 Y-23.9536
G01 X0.1241 Y-23.9389
G01 X0.1328 Y-23.9271
G01 X0.1405 Y-23.9145
G01 X0.1490 Y-23.8968
G01 X0.1555 Y-23.8783
G01 X0.1590 Y-23.8640
G01 X0.1614 Y-23.8482
G01 X0.1623 Y-23.8274
G01 X0.1615 Y-23.8127
G01 X0.1594 Y-23.7981
G01 X0.1548 Y-23.7790
G01 X0.1490 Y-23.7628
G01 X0.1428 Y-23.7495
G01 X0.1328 Y-23.7326
G01 X0.1226 Y-23.7188
G01 X0.1128 Y-23.7078
G01 X0.0983 Y-23.6945
G01 X0.0825 Y-23.6829
G01 X0.0698 Y-23.6754
G01 X0.0554 Y-23.6686
G01 X0.0381 Y-23.6623
G01 X0.0214 Y-23.6581
G01 X0.0044 Y-23.6556
G01 X-0.0115 Y-23.6548
G01 X-0.7746 Y-23.6547
G01 X-0.7918 Y-23.6556
G01 X-0.8112 Y-23.6586
G01 X-0.8254 Y-23.6623
G01 X-0.8393 Y-23.6672
G01 X-0.8571 Y-23.6754
