(G-CODE GENERATED BY FLATCAM v8.994 - www.flatcam.org - Version Date: 2020/11/7)

(Name: OFICINA-TELE-ENCHUFES-RELES-PTH.drl_1_cnc)
(Type: G-code from Geometry)
(Units: MM)

(Created on lunes, 19 julio 2021 at 21:41)

(This preprocessor is the default preprocessor used by FlatCAM.)
(It is made to work with MACH3 compatible motion controllers.)


(TOOLS DIAMETER: )
(Tool: 1 -> Dia: 0.95)
(Tool: 2 -> Dia: 1.0008)

(FEEDRATE Z: )
(Tool: 1 -> Feedrate: 100.0)
(Tool: 2 -> Feedrate: 100.0)

(FEEDRATE RAPIDS: )
(Tool: 1 -> Feedrate Rapids: 1500)
(Tool: 2 -> Feedrate Rapids: 1500)

(Z_CUT: )
(Tool: 1 -> Z_Cut: -2.0)
(Tool: 2 -> Z_Cut: -2.0)

(Tools Offset: )
(Tool: 1 -> Offset Z: 0.0)
(Tool: 2 -> Offset Z: 0.0)

(Z_MOVE: )
(Tool: 1 -> Z_Move: 2.0)
(Tool: 2 -> Z_Move: 2.0)

(Z Toolchange: 15 mm)
(X,Y Toolchange: 0.0000, 0.0000 mm)
(Z Start: None mm)
(Z End: 0.5 mm)
(X,Y End: None mm)
(Steps per circle: 64)
(Preprocessor Excellon: default)

(X range:  -33.4323 ...   18.3812  mm)
(Y range:  -20.3014 ...   23.9277  mm)

(Spindle Speed: 10000 RPM)
G21
G90
G94

G01 F100.00

M5
G00 Z15.0000
T1
G00 X0.0000 Y0.0000                
M6
(MSG, Change to Tool Dia = 0.9500 ||| Total drills for tool T1 = 45)
M0
G00 Z15.0000

G01 F100.00
M03 S10000
G4 P1
G00 X-32.1623 Y3.2394
G01 Z-2.0000
G01 Z0
G00 Z2.0000
G00 X-32.1623 Y0.7375
G01 Z-2.0000
G01 Z0
G00 Z2.0000
G00 X-32.1623 Y-1.7619
G01 Z-2.0000
G01 Z0
G00 Z2.0000
G00 X-32.1623 Y-4.2613
G01 Z-2.0000
G01 Z0
G00 Z2.0000
G00 X-32.1623 Y-6.7606
G01 Z-2.0000
G01 Z0
G00 Z2.0000
G00 X-32.1623 Y-9.2625
G01 Z-2.0000
G01 Z0
G00 Z2.0000
G00 X-23.4196 Y-14.5203
G01 Z-2.0000
G01 Z0
G00 Z2.0000
G00 X-23.4196 Y-11.9803
G01 Z-2.0000
G01 Z0
G00 Z2.0000
G00 X-23.4196 Y-9.4403
G01 Z-2.0000
G01 Z0
G00 Z2.0000
G00 X-23.4196 Y-6.9003
G01 Z-2.0000
G01 Z0
G00 Z2.0000
G00 X-23.4196 Y-4.3603
G01 Z-2.0000
G01 Z0
G00 Z2.0000
G00 X-23.4196 Y-1.8203
G01 Z-2.0000
G01 Z0
G00 Z2.0000
G00 X-23.4196 Y0.7197
G01 Z-2.0000
G01 Z0
G00 Z2.0000
G00 X-8.1796 Y0.7375
G01 Z-2.0000
G01 Z0
G00 Z2.0000
G00 X-8.1796 Y-1.8026
G01 Z-2.0000
G01 Z0
G00 Z2.0000
G00 X-8.1796 Y-4.3425
G01 Z-2.0000
G01 Z0
G00 Z2.0000
G00 X-8.1796 Y-6.8825
G01 Z-2.0000
G01 Z0
G00 Z2.0000
G00 X17.8808 Y-19.8010
G01 Z-2.0000
G01 Z0
G00 Z2.0000
G00 X17.8808 Y-17.2610
G01 Z-2.0000
G01 Z0
G00 Z2.0000
G00 X17.8808 Y-14.7210
G01 Z-2.0000
G01 Z0
G00 Z2.0000
G00 X17.8808 Y-12.1810
G01 Z-2.0000
G01 Z0
G00 Z2.0000
G00 X17.8808 Y-8.3710
G01 Z-2.0000
G01 Z0
G00 Z2.0000
G00 X17.8808 Y-5.8310
G01 Z-2.0000
G01 Z0
G00 Z2.0000
G00 X17.8808 Y-3.2910
G01 Z-2.0000
G01 Z0
G00 Z2.0000
G00 X17.8808 Y-0.7510
G01 Z-2.0000
G01 Z0
G00 Z2.0000
G00 X17.8808 Y3.0590
G01 Z-2.0000
G01 Z0
G00 Z2.0000
G00 X17.8808 Y5.5990
G01 Z-2.0000
G01 Z0
G00 Z2.0000
G00 X17.8808 Y8.1390
G01 Z-2.0000
G01 Z0
G00 Z2.0000
G00 X17.8808 Y10.6790
G01 Z-2.0000
G01 Z0
G00 Z2.0000
G00 X17.8808 Y14.4890
G01 Z-2.0000
G01 Z0
G00 Z2.0000
G00 X17.8808 Y17.0290
G01 Z-2.0000
G01 Z0
G00 Z2.0000
G00 X17.8808 Y19.5690
G01 Z-2.0000
G01 Z0
G00 Z2.0000
G00 X0.0000 Y0.0000
G01 Z-2.0000
G01 Z0
G00 Z2.0000
G00 X-8.1796 Y3.2775
G01 Z-2.0000
G01 Z0
G00 Z2.0000
G00 X-8.1796 Y5.8175
G01 Z-2.0000
G01 Z0
G00 Z2.0000
G00 X-8.1796 Y8.3575
G01 Z-2.0000
G01 Z0
G00 Z2.0000
G00 X-8.1796 Y10.8974
G01 Z-2.0000
G01 Z0
G00 Z2.0000
G00 X-8.1796 Y13.4375
G01 Z-2.0000
G01 Z0
G00 Z2.0000
G00 X-32.9319 Y23.4273
G01 Z-2.0000
G01 Z0
G00 Z2.0000
G00 X-32.9319 Y15.8276
G01 Z-2.0000
G01 Z0
G00 Z2.0000
G00 X-23.4196 Y13.4197
G01 Z-2.0000
G01 Z0
G00 Z2.0000
G00 X-23.4196 Y10.8797
G01 Z-2.0000
G01 Z0
G00 Z2.0000
G00 X-23.4196 Y8.3397
G01 Z-2.0000
G01 Z0
G00 Z2.0000
G00 X-23.4196 Y5.7997
G01 Z-2.0000
G01 Z0
G00 Z2.0000
G00 X-23.4196 Y3.2597
G01 Z-2.0000
G01 Z0
G00 Z2.0000
M05
G00 Z0.50


