(G-CODE GENERATED BY FLATCAM v8.994 - www.flatcam.org - Version Date: 2020/11/7)

(Name: OFICINA-TELE-ENCHUFES-INTERFAZ-PTH.drl_cnc)
(Type: G-code from Geometry)
(Units: MM)

(Created on miércoles, 21 julio 2021 at 16:27)

(This preprocessor is the default preprocessor used by FlatCAM.)
(It is made to work with MACH3 compatible motion controllers.)


(TOOLS DIAMETER: )
(Tool: 1 -> Dia: 0.39877999999999997)
(Tool: 2 -> Dia: 0.8000999999999999)
(Tool: 3 -> Dia: 0.94996)
(Tool: 4 -> Dia: 1.30048)

(FEEDRATE Z: )
(Tool: 1 -> Feedrate: 100.0)
(Tool: 2 -> Feedrate: 300)
(Tool: 3 -> Feedrate: 300)
(Tool: 4 -> Feedrate: 300)

(FEEDRATE RAPIDS: )
(Tool: 1 -> Feedrate Rapids: 1500)
(Tool: 2 -> Feedrate Rapids: 1500)
(Tool: 3 -> Feedrate Rapids: 1500)
(Tool: 4 -> Feedrate Rapids: 1500)

(Z_CUT: )
(Tool: 1 -> Z_Cut: -1.8)
(Tool: 2 -> Z_Cut: -1.7)
(Tool: 3 -> Z_Cut: -1.7)
(Tool: 4 -> Z_Cut: -1.7)

(Tools Offset: )
(Tool: 1 -> Offset Z: 0.0)

(Z_MOVE: )
(Tool: 1 -> Z_Move: 2)
(Tool: 2 -> Z_Move: 2)
(Tool: 3 -> Z_Move: 2)
(Tool: 4 -> Z_Move: 2)

(Z Toolchange: 15 mm)
(X,Y Toolchange: 0.0000, 0.0000 mm)
(Z Start: None mm)
(Z End: 0.5 mm)
(X,Y End: None mm)
(Steps per circle: 64)
(Preprocessor Excellon: default)

(X range:  -38.2843 ...   40.8011  mm)
(Y range:  -31.2464 ...   33.7763  mm)

(Spindle Speed: 10000 RPM)
G21
G90
G94

G01 F100.00

M5
G00 Z15.0000
T1
G00 X0.0000 Y0.0000                
M6
(MSG, Change to Tool Dia = 0.3988 ||| Total drills for tool T1 = 15)
M0
G00 Z15.0000

G01 F100.00
M03 S10000
G4 P1
G00 X-21.9572 Y-18.1261
G01 Z-1.8000
G01 Z0
G00 Z2.0000
G00 X-19.9811 Y-19.9574
G01 Z-1.8000
G01 Z0
G00 Z2.0000
G00 X-17.1871 Y-20.6762
G01 Z-1.8000
G01 Z0
G00 Z2.0000
G00 X-17.1566 Y-23.2213
G01 Z-1.8000
G01 Z0
G00 Z2.0000
G00 X-17.3141 Y-28.3064
G01 Z-1.8000
G01 Z0
G00 Z2.0000
G00 X-18.9016 Y-30.8464
G01 Z-1.8000
G01 Z0
G00 Z2.0000
G00 X0.9434 Y-24.6183
G01 Z-1.8000
G01 Z0
G00 Z2.0000
G00 X0.8393 Y-27.1380
G01 Z-1.8000
G01 Z0
G00 Z2.0000
G00 X5.9193 Y-30.8413
G01 Z-1.8000
G01 Z0
G00 Z2.0000
G00 X34.0498 Y-30.8337
G01 Z-1.8000
G01 Z0
G00 Z2.0000
G00 X34.0600 Y-21.1893
G01 Z-1.8000
G01 Z0
G00 Z2.0000
G00 X32.0000 Y-19.0100
G01 Z-1.8000
G01 Z0
G00 Z2.0000
G00 X31.0297 Y-8.0880
G01 Z-1.8000
G01 Z0
G00 Z2.0000
G00 X1.3829 Y-18.1565
G01 Z-1.8000
G01 Z0
G00 Z2.0000
G00 X1.3067 Y-22.1088
G01 Z-1.8000
G01 Z0
G00 Z2.0000
M05
G00 Z0.50


