(G-CODE GENERATED BY FLATCAM v8.994 - www.flatcam.org - Version Date: 2020/11/7)

(Name: OFICINA-TELE-ENCHUFES-INTERFAZ-PTH.drl_cnc)
(Type: G-code from Geometry)
(Units: MM)

(Created on miércoles, 21 julio 2021 at 16:28)

(This preprocessor is the default preprocessor used by FlatCAM.)
(It is made to work with MACH3 compatible motion controllers.)


(TOOLS DIAMETER: )
(Tool: 1 -> Dia: 0.39877999999999997)
(Tool: 2 -> Dia: 0.8000999999999999)
(Tool: 3 -> Dia: 0.94996)
(Tool: 4 -> Dia: 1.30048)

(FEEDRATE Z: )
(Tool: 1 -> Feedrate: 100.0)
(Tool: 2 -> Feedrate: 100.0)
(Tool: 3 -> Feedrate: 100.0)
(Tool: 4 -> Feedrate: 100.0)

(FEEDRATE RAPIDS: )
(Tool: 1 -> Feedrate Rapids: 1500)
(Tool: 2 -> Feedrate Rapids: 1500)
(Tool: 3 -> Feedrate Rapids: 1500)
(Tool: 4 -> Feedrate Rapids: 1500)

(Z_CUT: )
(Tool: 1 -> Z_Cut: -1.8)
(Tool: 2 -> Z_Cut: -1.8)
(Tool: 3 -> Z_Cut: -1.8)
(Tool: 4 -> Z_Cut: -1.8)

(Tools Offset: )
(Tool: 2 -> Offset Z: 0.0)

(Z_MOVE: )
(Tool: 1 -> Z_Move: 2.0)
(Tool: 2 -> Z_Move: 2.0)
(Tool: 3 -> Z_Move: 2.0)
(Tool: 4 -> Z_Move: 2.0)

(Z Toolchange: 15 mm)
(X,Y Toolchange: 0.0000, 0.0000 mm)
(Z Start: None mm)
(Z End: 0.5 mm)
(X,Y End: None mm)
(Steps per circle: 64)
(Preprocessor Excellon: default)

(X range:  -38.2843 ...   40.8011  mm)
(Y range:  -31.2464 ...   33.7763  mm)

(Spindle Speed: 10000 RPM)
G21
G90
G94

G01 F100.00

M5
G00 Z15.0000
T2
G00 X0.0000 Y0.0000                
M6
(MSG, Change to Tool Dia = 0.8001 ||| Total drills for tool T2 = 32)
M0
G00 Z15.0000

G01 F100.00
M03 S10000
G4 P1
G00 X-12.6151 Y-13.0664
G01 Z-1.8000
G01 Z0
G00 Z2.0000
G00 X-12.6151 Y-15.6064
G01 Z-1.8000
G01 Z0
G00 Z2.0000
G00 X-12.6151 Y-18.1464
G01 Z-1.8000
G01 Z0
G00 Z2.0000
G00 X-12.6151 Y-20.6864
G01 Z-1.8000
G01 Z0
G00 Z2.0000
G00 X-12.6151 Y-23.2264
G01 Z-1.8000
G01 Z0
G00 Z2.0000
G00 X-12.6151 Y-25.7664
G01 Z-1.8000
G01 Z0
G00 Z2.0000
G00 X-12.6151 Y-28.3064
G01 Z-1.8000
G01 Z0
G00 Z2.0000
G00 X-12.6151 Y-30.8464
G01 Z-1.8000
G01 Z0
G00 Z2.0000
G00 X-2.4551 Y-30.8464
G01 Z-1.8000
G01 Z0
G00 Z2.0000
G00 X-2.4551 Y-28.3064
G01 Z-1.8000
G01 Z0
G00 Z2.0000
G00 X-2.4551 Y-25.7664
G01 Z-1.8000
G01 Z0
G00 Z2.0000
G00 X-2.4551 Y-23.2264
G01 Z-1.8000
G01 Z0
G00 Z2.0000
G00 X-2.4551 Y-20.6864
G01 Z-1.8000
G01 Z0
G00 Z2.0000
G00 X17.4204 Y-20.6864
G01 Z-1.8000
G01 Z0
G00 Z2.0000
G00 X17.4204 Y-23.2264
G01 Z-1.8000
G01 Z0
G00 Z2.0000
G00 X17.4204 Y-25.7664
G01 Z-1.8000
G01 Z0
G00 Z2.0000
G00 X17.4204 Y-28.3064
G01 Z-1.8000
G01 Z0
G00 Z2.0000
G00 X17.4204 Y-30.8464
G01 Z-1.8000
G01 Z0
G00 Z2.0000
G00 X27.5804 Y-30.8464
G01 Z-1.8000
G01 Z0
G00 Z2.0000
G00 X27.5804 Y-28.3064
G01 Z-1.8000
G01 Z0
G00 Z2.0000
G00 X27.5804 Y-25.7664
G01 Z-1.8000
G01 Z0
G00 Z2.0000
G00 X27.5804 Y-23.2264
G01 Z-1.8000
G01 Z0
G00 Z2.0000
G00 X27.5804 Y-20.6864
G01 Z-1.8000
G01 Z0
G00 Z2.0000
G00 X27.5804 Y-18.1464
G01 Z-1.8000
G01 Z0
G00 Z2.0000
G00 X27.5804 Y-15.6064
G01 Z-1.8000
G01 Z0
G00 Z2.0000
G00 X27.5804 Y-13.0664
G01 Z-1.8000
G01 Z0
G00 Z2.0000
G00 X17.4204 Y-18.1464
G01 Z-1.8000
G01 Z0
G00 Z2.0000
G00 X17.4204 Y-15.6064
G01 Z-1.8000
G01 Z0
G00 Z2.0000
G00 X17.4204 Y-13.0664
G01 Z-1.8000
G01 Z0
G00 Z2.0000
G00 X-2.4551 Y-13.0664
G01 Z-1.8000
G01 Z0
G00 Z2.0000
G00 X-2.4551 Y-15.6064
G01 Z-1.8000
G01 Z0
G00 Z2.0000
G00 X-2.4551 Y-18.1464
G01 Z-1.8000
G01 Z0
G00 Z2.0000
M05
G00 Z0.50


