(G-CODE GENERATED BY FLATCAM v8.994 - www.flatcam.org - Version Date: 2020/11/7)

(Name: OFICINA-TELE-ENCHUFES-INTERFAZ-PTH.drl_cnc)
(Type: G-code from Geometry)
(Units: MM)

(Created on miércoles, 21 julio 2021 at 16:29)

(This preprocessor is the default preprocessor used by FlatCAM.)
(It is made to work with MACH3 compatible motion controllers.)


(TOOLS DIAMETER: )
(Tool: 1 -> Dia: 0.39877999999999997)
(Tool: 2 -> Dia: 0.8000999999999999)
(Tool: 3 -> Dia: 0.94996)
(Tool: 4 -> Dia: 1.30048)

(FEEDRATE Z: )
(Tool: 1 -> Feedrate: 300)
(Tool: 2 -> Feedrate: 300)
(Tool: 3 -> Feedrate: 300)
(Tool: 4 -> Feedrate: 100.0)

(FEEDRATE RAPIDS: )
(Tool: 1 -> Feedrate Rapids: 1500)
(Tool: 2 -> Feedrate Rapids: 1500)
(Tool: 3 -> Feedrate Rapids: 1500)
(Tool: 4 -> Feedrate Rapids: 1500)

(Z_CUT: )
(Tool: 1 -> Z_Cut: -1.7)
(Tool: 2 -> Z_Cut: -1.7)
(Tool: 3 -> Z_Cut: -1.7)
(Tool: 4 -> Z_Cut: -1.8)

(Tools Offset: )
(Tool: 4 -> Offset Z: 0.0)

(Z_MOVE: )
(Tool: 1 -> Z_Move: 2)
(Tool: 2 -> Z_Move: 2)
(Tool: 3 -> Z_Move: 2)
(Tool: 4 -> Z_Move: 2)

(Z Toolchange: 15 mm)
(X,Y Toolchange: 0.0000, 0.0000 mm)
(Z Start: None mm)
(Z End: 0.5 mm)
(X,Y End: None mm)
(Steps per circle: 64)
(Preprocessor Excellon: default)

(X range:  -38.2843 ...   40.8011  mm)
(Y range:  -31.2464 ...   33.7763  mm)

(Spindle Speed: 10000 RPM)
G21
G90
G94

G01 F100.00

M5
G00 Z15.0000
T4
G00 X0.0000 Y0.0000                
M6
(MSG, Change to Tool Dia = 1.3005 ||| Total drills for tool T4 = 32)
M0
G00 Z15.0000

G01 F100.00
M03 S10000
G4 P1
G00 X-37.6341 Y33.1261
G01 Z-1.8000
G01 Z0
G00 Z2.0000
G00 X-37.6341 Y28.1248
G01 Z-1.8000
G01 Z0
G00 Z2.0000
G00 X-37.6341 Y7.4721
G01 Z-1.8000
G01 Z0
G00 Z2.0000
G00 X-37.6341 Y2.4708
G01 Z-1.8000
G01 Z0
G00 Z2.0000
G00 X-37.6341 Y-18.1819
G01 Z-1.8000
G01 Z0
G00 Z2.0000
G00 X-37.6341 Y-23.1832
G01 Z-1.8000
G01 Z0
G00 Z2.0000
G00 X-25.1347 Y-23.1832
G01 Z-1.8000
G01 Z0
G00 Z2.0000
G00 X-25.1347 Y-18.1819
G01 Z-1.8000
G01 Z0
G00 Z2.0000
G00 X-25.1347 Y2.4708
G01 Z-1.8000
G01 Z0
G00 Z2.0000
G00 X-25.1347 Y7.4721
G01 Z-1.8000
G01 Z0
G00 Z2.0000
G00 X-16.8061 Y7.4721
G01 Z-1.8000
G01 Z0
G00 Z2.0000
G00 X-16.8061 Y2.4708
G01 Z-1.8000
G01 Z0
G00 Z2.0000
G00 X-4.3067 Y2.4708
G01 Z-1.8000
G01 Z0
G00 Z2.0000
G00 X-4.3067 Y7.4721
G01 Z-1.8000
G01 Z0
G00 Z2.0000
G00 X4.5299 Y7.4721
G01 Z-1.8000
G01 Z0
G00 Z2.0000
G00 X4.5299 Y2.4708
G01 Z-1.8000
G01 Z0
G00 Z2.0000
G00 X17.0293 Y2.4708
G01 Z-1.8000
G01 Z0
G00 Z2.0000
G00 X17.0293 Y7.4721
G01 Z-1.8000
G01 Z0
G00 Z2.0000
G00 X25.3579 Y28.1248
G01 Z-1.8000
G01 Z0
G00 Z2.0000
G00 X37.8573 Y28.1248
G01 Z-1.8000
G01 Z0
G00 Z2.0000
G00 X37.8573 Y33.1261
G01 Z-1.8000
G01 Z0
G00 Z2.0000
G00 X25.3579 Y33.1261
G01 Z-1.8000
G01 Z0
G00 Z2.0000
G00 X17.0293 Y33.1261
G01 Z-1.8000
G01 Z0
G00 Z2.0000
G00 X17.0293 Y28.1248
G01 Z-1.8000
G01 Z0
G00 Z2.0000
G00 X4.5299 Y28.1248
G01 Z-1.8000
G01 Z0
G00 Z2.0000
G00 X4.5299 Y33.1261
G01 Z-1.8000
G01 Z0
G00 Z2.0000
G00 X-4.3067 Y33.1261
G01 Z-1.8000
G01 Z0
G00 Z2.0000
G00 X-4.3067 Y28.1248
G01 Z-1.8000
G01 Z0
G00 Z2.0000
G00 X-16.8061 Y28.1248
G01 Z-1.8000
G01 Z0
G00 Z2.0000
G00 X-16.8061 Y33.1261
G01 Z-1.8000
G01 Z0
G00 Z2.0000
G00 X-25.1347 Y33.1261
G01 Z-1.8000
G01 Z0
G00 Z2.0000
G00 X-25.1347 Y28.1248
G01 Z-1.8000
G01 Z0
G00 Z2.0000
M05
G00 Z0.50


