(G-CODE GENERATED BY FLATCAM v8.994 - www.flatcam.org - Version Date: 2020/11/7)

(Name: OFICINA-TELE-ENCHUFES-INTERFAZ-F_Mask.gbr_iso_combined_cnc)
(Type: G-code from Geometry)
(Units: MM)

(Created on lunes, 26 julio 2021 at 04:28)

(This preprocessor is the default preprocessor used by FlatCAM.)
(It is made to work with MACH3 compatible motion controllers.)

(TOOL DIAMETER: 0.1 mm)
(Feedrate_XY: 120.0 mm/min)
(Feedrate_Z: 60.0 mm/min)
(Feedrate rapids 1500.0 mm/min)

(Z_Cut: -0.0 mm)
(Z_Move: 2.0 mm)
(Z Start: None mm)
(Z End: 15.0 mm)
(X,Y End: None mm)
(Steps per circle: 64)
(Preprocessor Geometry: default)

(X range:    0.7938 ...   81.3528  mm)
(Y range:    3.3053 ...   69.1003  mm)

(Spindle Speed: 0.0 RPM)
G21
G90
G94

G01 F120.00

M5
G00 Z15.0000
G00 X0.0000 Y0.0000
T1
M6    
(MSG, Change to Tool Dia = 0.1000)
M0
G00 Z15.0000

M03
G01 F120.00
G00 X1.6708 Y10.8473
G01 F60.00
G01 Z-0.0000
G01 F120.00
G01 X1.7688 Y10.8423
G01 X2.9668 Y10.8423
G01 X3.0636 Y10.8471
G01 X3.1570 Y10.8610
G01 X3.2475 Y10.8836
G01 X3.3399 Y10.9165
G01 X3.4285 Y10.9586
G01 X3.5085 Y11.0066
G01 X3.5844 Y11.0628
G01 X3.6562 Y11.1279
G01 X3.7205 Y11.1988
G01 X3.7775 Y11.2756
G01 X3.8267 Y11.3577
G01 X3.8676 Y11.4442
G01 X3.8998 Y11.5343
G01 X3.9231 Y11.6271
G01 X3.9371 Y11.7217
G01 X3.9418 Y11.8173
G01 X3.9371 Y11.9129
G01 X3.9231 Y12.0075
G01 X3.8998 Y12.1003
G01 X3.8676 Y12.1904
G01 X3.8267 Y12.2769
G01 X3.7775 Y12.3590
G01 X3.7213 Y12.4349
G01 X3.6562 Y12.5067
G01 X3.5853 Y12.5710
G01 X3.5085 Y12.6280
G01 X3.4264 Y12.6772
G01 X3.3399 Y12.7181
G01 X3.2498 Y12.7503
G01 X3.1570 Y12.7736
G01 X3.0599 Y12.7878
G01 X2.9668 Y12.7923
G01 X1.7688 Y12.7923
G01 X1.6720 Y12.7875
G01 X1.5786 Y12.7736
G01 X1.4881 Y12.7510
G01 X1.3957 Y12.7181
G01 X1.3071 Y12.6760
G01 X1.2271 Y12.6280
G01 X1.1512 Y12.5718
G01 X1.0777 Y12.5050
G01 X1.0151 Y12.4358
G01 X0.9581 Y12.3590
G01 X0.9078 Y12.2747
G01 X0.8680 Y12.1904
G01 X0.8358 Y12.1003
G01 X0.8121 Y12.0051
G01 X0.7985 Y11.9129
G01 X0.7938 Y11.8173
G01 X0.7988 Y11.7193
G01 X0.8125 Y11.6271
G01 X0.8358 Y11.5343
G01 X0.8680 Y11.4442
G01 X0.9078 Y11.3599
G01 X0.9581 Y11.2756
G01 X1.0151 Y11.1988
G01 X1.0777 Y11.1296
G01 X1.1503 Y11.0636
G01 X1.2271 Y11.0066
G01 X1.3071 Y10.9586
G01 X1.3957 Y10.9165
G01 X1.4881 Y10.8836
G01 X1.5786 Y10.8610
G01 X1.6708 Y10.8473
G00 Z2.0000
G00 X1.6708 Y15.8473
G01 F60.00
G01 Z-0.0000
G01 F120.00
G01 X1.7688 Y15.8423
G01 X2.9668 Y15.8423
G01 X3.0636 Y15.8471
G01 X3.1570 Y15.8610
G01 X3.2475 Y15.8836
G01 X3.3399 Y15.9165
G01 X3.4285 Y15.9586
G01 X3.5085 Y16.0066
G01 X3.5844 Y16.0628
G01 X3.6562 Y16.1279
G01 X3.7205 Y16.1988
G01 X3.7775 Y16.2756
G01 X3.8267 Y16.3577
G01 X3.8676 Y16.4442
G01 X3.8998 Y16.5343
G01 X3.9231 Y16.6271
G01 X3.9371 Y16.7217
G01 X3.9418 Y16.8173
G01 X3.9371 Y16.9129
G01 X3.9231 Y17.0075
G01 X3.8998 Y17.1003
G01 X3.8676 Y17.1904
G01 X3.8267 Y17.2769
G01 X3.7775 Y17.3590
G01 X3.7213 Y17.4349
G01 X3.6562 Y17.5067
G01 X3.5853 Y17.5710
G01 X3.5085 Y17.6280
G01 X3.4264 Y17.6772
G01 X3.3399 Y17.7181
G01 X3.2498 Y17.7503
G01 X3.1570 Y17.7736
G01 X3.0599 Y17.7878
G01 X2.9668 Y17.7923
G01 X1.7688 Y17.7923
G01 X1.6720 Y17.7875
G01 X1.5786 Y17.7736
G01 X1.4881 Y17.7510
G01 X1.3957 Y17.7181
G01 X1.3071 Y17.6760
G01 X1.2271 Y17.6280
G01 X1.1512 Y17.5718
G01 X1.0777 Y17.5050
G01 X1.0151 Y17.4358
G01 X0.9581 Y17.3590
G01 X0.9078 Y17.2747
G01 X0.8680 Y17.1904
G01 X0.8358 Y17.1003
G01 X0.8121 Y17.0051
G01 X0.7985 Y16.9129
G01 X0.7938 Y16.8173
G01 X0.7988 Y16.7193
G01 X0.8125 Y16.6271
G01 X0.8358 Y16.5343
G01 X0.8680 Y16.4442
G01 X0.9078 Y16.3599
G01 X0.9581 Y16.2756
G01 X1.0151 Y16.1988
G01 X1.0777 Y16.1296
G01 X1.1503 Y16.0636
G01 X1.2271 Y16.0066
G01 X1.3071 Y15.9586
G01 X1.3957 Y15.9165
G01 X1.4881 Y15.8836
G01 X1.5786 Y15.8610
G01 X1.6708 Y15.8473
G00 Z2.0000
G00 X14.1708 Y15.8473
G01 F60.00
G01 Z-0.0000
G01 F120.00
G01 X14.2688 Y15.8423
G01 X15.4668 Y15.8423
G01 X15.5636 Y15.8471
G01 X15.6570 Y15.8610
G01 X15.7475 Y15.8836
G01 X15.8399 Y15.9165
G01 X15.9285 Y15.9586
G01 X16.0085 Y16.0066
G01 X16.0844 Y16.0628
G01 X16.1562 Y16.1279
G01 X16.2205 Y16.1988
G01 X16.2775 Y16.2756
G01 X16.3267 Y16.3577
G01 X16.3676 Y16.4442
G01 X16.3998 Y16.5343
G01 X16.4231 Y16.6271
G01 X16.4371 Y16.7217
G01 X16.4418 Y16.8173
G01 X16.4371 Y16.9129
G01 X16.4231 Y17.0075
G01 X16.3998 Y17.1003
G01 X16.3676 Y17.1904
G01 X16.3267 Y17.2769
G01 X16.2775 Y17.3590
G01 X16.2213 Y17.4349
G01 X16.1562 Y17.5067
G01 X16.0853 Y17.5710
G01 X16.0085 Y17.6280
G01 X15.9264 Y17.6772
G01 X15.8399 Y17.7181
G01 X15.7498 Y17.7503
G01 X15.6570 Y17.7736
G01 X15.5599 Y17.7878
G01 X15.4668 Y17.7923
G01 X14.2688 Y17.7923
G01 X14.1720 Y17.7875
G01 X14.0786 Y17.7736
G01 X13.9881 Y17.7510
G01 X13.8957 Y17.7181
G01 X13.8071 Y17.6760
G01 X13.7271 Y17.6280
G01 X13.6512 Y17.5718
G01 X13.5777 Y17.5050
G01 X13.5151 Y17.4358
G01 X13.4581 Y17.3590
G01 X13.4078 Y17.2747
G01 X13.3680 Y17.1904
G01 X13.3358 Y17.1003
G01 X13.3121 Y17.0051
G01 X13.2985 Y16.9129
G01 X13.2938 Y16.8173
G01 X13.2988 Y16.7193
G01 X13.3125 Y16.6271
G01 X13.3358 Y16.5343
G01 X13.3680 Y16.4442
G01 X13.4078 Y16.3599
G01 X13.4581 Y16.2756
G01 X13.5151 Y16.1988
G01 X13.5777 Y16.1296
G01 X13.6503 Y16.0636
G01 X13.7271 Y16.0066
G01 X13.8071 Y15.9586
G01 X13.8957 Y15.9165
G01 X13.9881 Y15.8836
G01 X14.0786 Y15.8610
G01 X14.1708 Y15.8473
G00 Z2.0000
G00 X14.1708 Y10.8473
G01 F60.00
G01 Z-0.0000
G01 F120.00
G01 X14.2688 Y10.8423
G01 X15.4668 Y10.8423
G01 X15.5636 Y10.8471
G01 X15.6570 Y10.8610
G01 X15.7475 Y10.8836
G01 X15.8399 Y10.9165
G01 X15.9285 Y10.9586
G01 X16.0085 Y11.0066
G01 X16.0844 Y11.0628
G01 X16.1562 Y11.1279
G01 X16.2205 Y11.1988
G01 X16.2775 Y11.2756
G01 X16.3267 Y11.3577
G01 X16.3676 Y11.4442
G01 X16.3998 Y11.5343
G01 X16.4231 Y11.6271
G01 X16.4371 Y11.7217
G01 X16.4418 Y11.8173
G01 X16.4371 Y11.9129
G01 X16.4231 Y12.0075
G01 X16.3998 Y12.1003
G01 X16.3676 Y12.1904
G01 X16.3267 Y12.2769
G01 X16.2775 Y12.3590
G01 X16.2213 Y12.4349
G01 X16.1562 Y12.5067
G01 X16.0853 Y12.5710
G01 X16.0085 Y12.6280
G01 X15.9264 Y12.6772
G01 X15.8399 Y12.7181
G01 X15.7498 Y12.7503
G01 X15.6570 Y12.7736
G01 X15.5599 Y12.7878
G01 X15.4668 Y12.7923
G01 X14.2688 Y12.7923
G01 X14.1720 Y12.7875
G01 X14.0786 Y12.7736
G01 X13.9881 Y12.7510
G01 X13.8957 Y12.7181
G01 X13.8071 Y12.6760
G01 X13.7271 Y12.6280
G01 X13.6512 Y12.5718
G01 X13.5777 Y12.5050
G01 X13.5151 Y12.4358
G01 X13.4581 Y12.3590
G01 X13.4078 Y12.2747
G01 X13.3680 Y12.1904
G01 X13.3358 Y12.1003
G01 X13.3121 Y12.0051
G01 X13.2985 Y11.9129
G01 X13.2938 Y11.8173
G01 X13.2988 Y11.7193
G01 X13.3125 Y11.6271
G01 X13.3358 Y11.5343
G01 X13.3680 Y11.4442
G01 X13.4078 Y11.3599
G01 X13.4581 Y11.2756
G01 X13.5151 Y11.1988
G01 X13.5777 Y11.1296
G01 X13.6503 Y11.0636
G01 X13.7271 Y11.0066
G01 X13.8071 Y10.9586
G01 X13.8957 Y10.9165
G01 X13.9881 Y10.8836
G01 X14.0786 Y10.8610
G01 X14.1708 Y10.8473
G00 Z2.0000
G00 X17.5693 Y7.5485
G01 F60.00
G01 Z-0.0000
G01 F120.00
G01 X17.5384 Y7.5406
G01 X17.5130 Y7.5315
G01 X17.4864 Y7.5189
G01 X17.4611 Y7.5037
G01 X17.4394 Y7.4877
G01 X17.4140 Y7.4647
G01 X17.3959 Y7.4446
G01 X17.3784 Y7.4210
G01 X17.3632 Y7.3957
G01 X17.3516 Y7.3714
G01 X17.3401 Y7.3390
G01 X17.3336 Y7.3128
G01 X17.3292 Y7.2837
G01 X17.3278 Y7.2543
G01 X17.3278 Y6.6293
G01 X17.3293 Y6.5993
G01 X17.3329 Y6.5742
G01 X17.3399 Y6.5450
G01 X17.3481 Y6.5209
G01 X17.3583 Y6.4977
G01 X17.3716 Y6.4734
G01 X17.3884 Y6.4485
G01 X17.4061 Y6.4272
G01 X17.4257 Y6.4076
G01 X17.4489 Y6.3885
G01 X17.4699 Y6.3742
G01 X17.4941 Y6.3608
G01 X17.5194 Y6.3496
G01 X17.5435 Y6.3414
G01 X17.5750 Y6.3340
G01 X17.6001 Y6.3306
G01 X17.6255 Y6.3294
G01 X18.8803 Y6.3294
G01 X18.9096 Y6.3310
G01 X18.9363 Y6.3351
G01 X18.9625 Y6.3416
G01 X18.9926 Y6.3521
G01 X19.0192 Y6.3647
G01 X19.0445 Y6.3799
G01 X19.0700 Y6.3990
G01 X19.0899 Y6.4172
G01 X19.1081 Y6.4371
G01 X19.1265 Y6.4616
G01 X19.1435 Y6.4901
G01 X19.1550 Y6.5145
G01 X19.1641 Y6.5399
G01 X19.1720 Y6.5708
G01 X19.1765 Y6.6023
G01 X19.1778 Y6.6293
G01 X19.1778 Y7.2543
G01 X19.1765 Y7.2825
G01 X19.1720 Y7.3128
G01 X19.1649 Y7.3414
G01 X19.1550 Y7.3691
G01 X19.1412 Y7.3979
G01 X19.1258 Y7.4230
G01 X19.1097 Y7.4446
G01 X19.0916 Y7.4647
G01 X19.0681 Y7.4862
G01 X19.0455 Y7.5030
G01 X19.0170 Y7.5200
G01 X18.9926 Y7.5315
G01 X18.9649 Y7.5414
G01 X18.9339 Y7.5490
G01 X18.9072 Y7.5529
G01 X18.8790 Y7.5543
G01 X17.6278 Y7.5543
G01 X17.5984 Y7.5529
G01 X17.5693 Y7.5485
G00 Z2.0000
G00 X17.4864 Y3.4397
G01 F60.00
G01 Z-0.0000
G01 F120.00
G01 X17.5130 Y3.4271
G01 X17.5431 Y3.4166
G01 X17.5693 Y3.4101
G01 X17.5960 Y3.4060
G01 X17.6266 Y3.4043
G01 X18.8778 Y3.4043
G01 X18.9096 Y3.4060
G01 X18.9363 Y3.4101
G01 X18.9649 Y3.4172
G01 X18.9949 Y3.4281
G01 X19.0192 Y3.4397
G01 X19.0434 Y3.4542
G01 X19.0681 Y3.4724
G01 X19.0899 Y3.4922
G01 X19.1097 Y3.5140
G01 X19.1286 Y3.5397
G01 X19.1424 Y3.5629
G01 X19.1540 Y3.5872
G01 X19.1641 Y3.6149
G01 X19.1720 Y3.6458
G01 X19.1765 Y3.6761
G01 X19.1778 Y3.7043
G01 X19.1778 Y4.3293
G01 X19.1767 Y4.3547
G01 X19.1727 Y4.3844
G01 X19.1657 Y4.4136
G01 X19.1575 Y4.4377
G01 X19.1473 Y4.4609
G01 X19.1322 Y4.4882
G01 X19.1158 Y4.5119
G01 X19.0995 Y4.5314
G01 X19.0816 Y4.5494
G01 X19.0586 Y4.5687
G01 X19.0357 Y4.5844
G01 X19.0094 Y4.5988
G01 X18.9862 Y4.6090
G01 X18.9621 Y4.6172
G01 X18.9329 Y4.6242
G01 X18.9032 Y4.6282
G01 X18.8778 Y4.6293
G01 X17.6266 Y4.6293
G01 X17.5984 Y4.6279
G01 X17.5717 Y4.6240
G01 X17.5407 Y4.6164
G01 X17.5107 Y4.6055
G01 X17.4864 Y4.5939
G01 X17.4622 Y4.5794
G01 X17.4375 Y4.5612
G01 X17.4157 Y4.5414
G01 X17.3959 Y4.5196
G01 X17.3784 Y4.4960
G01 X17.3632 Y4.4707
G01 X17.3506 Y4.4441
G01 X17.3407 Y4.4164
G01 X17.3331 Y4.3854
G01 X17.3292 Y4.3587
G01 X17.3278 Y4.3293
G01 X17.3278 Y3.7031
G01 X17.3292 Y3.6749
G01 X17.3331 Y3.6482
G01 X17.3407 Y3.6172
G01 X17.3516 Y3.5872
G01 X17.3632 Y3.5629
G01 X17.3770 Y3.5397
G01 X17.3959 Y3.5140
G01 X17.4174 Y3.4905
G01 X17.4375 Y3.4724
G01 X17.4591 Y3.4563
G01 X17.4864 Y3.4397
G00 Z2.0000
G00 X26.1783 Y3.3060
G01 F60.00
G01 Z-0.0000
G01 F120.00
G01 X26.1868 Y3.3053
G01 X28.5868 Y3.3053
G01 X28.5941 Y3.3058
G01 X28.6013 Y3.3075
G01 X28.6082 Y3.3101
G01 X28.6146 Y3.3137
G01 X28.6195 Y3.3174
G01 X28.6238 Y3.3217
G01 X28.6277 Y3.3265
G01 X28.6309 Y3.3317
G01 X28.6334 Y3.3373
G01 X28.6353 Y3.3432
G01 X28.6364 Y3.3492
G01 X28.6368 Y3.3553
G01 X28.6368 Y4.9553
G01 X28.6363 Y4.9626
G01 X28.6346 Y4.9698
G01 X28.6320 Y4.9767
G01 X28.6284 Y4.9831
G01 X28.6247 Y4.9880
G01 X28.6204 Y4.9923
G01 X28.6156 Y4.9962
G01 X28.6104 Y4.9994
G01 X28.6048 Y5.0019
G01 X28.5989 Y5.0038
G01 X28.5929 Y5.0049
G01 X28.5868 Y5.0053
G01 X26.1868 Y5.0053
G01 X26.1795 Y5.0048
G01 X26.1723 Y5.0031
G01 X26.1654 Y5.0005
G01 X26.1590 Y4.9969
G01 X26.1541 Y4.9932
G01 X26.1498 Y4.9889
G01 X26.1459 Y4.9841
G01 X26.1427 Y4.9789
G01 X26.1406 Y4.9744
G01 X26.1386 Y4.9686
G01 X26.1373 Y4.9626
G01 X26.1368 Y4.9565
G01 X26.1368 Y3.3553
G01 X26.1375 Y3.3468
G01 X26.1397 Y3.3385
G01 X26.1433 Y3.3307
G01 X26.1481 Y3.3236
G01 X26.1551 Y3.3166
G01 X26.1622 Y3.3118
G01 X26.1700 Y3.3082
G01 X26.1783 Y3.3060
G00 Z2.0000
G00 X26.5861 Y5.9457
G01 F60.00
G01 Z-0.0000
G01 F120.00
G01 X26.6615 Y5.9100
G01 X26.7401 Y5.8819
G01 X26.8210 Y5.8616
G01 X26.9047 Y5.8493
G01 X26.9868 Y5.8453
G01 X27.7880 Y5.8453
G01 X27.8701 Y5.8494
G01 X27.9502 Y5.8612
G01 X28.0335 Y5.8819
G01 X28.1143 Y5.9110
G01 X28.1875 Y5.9457
G01 X28.2580 Y5.9879
G01 X28.3260 Y6.0382
G01 X28.3878 Y6.0943
G01 X28.4439 Y6.1561
G01 X28.4935 Y6.2231
G01 X28.5364 Y6.2946
G01 X28.5721 Y6.3700
G01 X28.6002 Y6.4486
G01 X28.6205 Y6.5295
G01 X28.6327 Y6.6120
G01 X28.6368 Y6.6953
G01 X28.6327 Y6.7786
G01 X28.6205 Y6.8611
G01 X28.6002 Y6.9420
G01 X28.5721 Y7.0206
G01 X28.5364 Y7.0960
G01 X28.4942 Y7.1665
G01 X28.4439 Y7.2345
G01 X28.3878 Y7.2963
G01 X28.3260 Y7.3524
G01 X28.2570 Y7.4034
G01 X28.1853 Y7.4460
G01 X28.1121 Y7.4806
G01 X28.0359 Y7.5079
G01 X27.9526 Y7.5290
G01 X27.8713 Y7.5411
G01 X27.7868 Y7.5453
G01 X26.9868 Y7.5453
G01 X26.9035 Y7.5412
G01 X26.8210 Y7.5290
G01 X26.7377 Y7.5079
G01 X26.6615 Y7.4806
G01 X26.5883 Y7.4460
G01 X26.5156 Y7.4027
G01 X26.4476 Y7.3524
G01 X26.3841 Y7.2946
G01 X26.3297 Y7.2345
G01 X26.2815 Y7.1695
G01 X26.2372 Y7.0960
G01 X26.2006 Y7.0183
G01 X26.1734 Y6.9420
G01 X26.1537 Y6.8635
G01 X26.1409 Y6.7786
G01 X26.1369 Y6.6928
G01 X26.1409 Y6.6120
G01 X26.1527 Y6.5319
G01 X26.1734 Y6.4486
G01 X26.2025 Y6.3678
G01 X26.2372 Y6.2946
G01 X26.2787 Y6.2251
G01 X26.3297 Y6.1561
G01 X26.3875 Y6.0926
G01 X26.4476 Y6.0382
G01 X26.5126 Y5.9900
G01 X26.5861 Y5.9457
G00 Z2.0000
G00 X26.5861 Y8.4857
G01 F60.00
G01 Z-0.0000
G01 F120.00
G01 X26.6615 Y8.4500
G01 X26.7401 Y8.4219
G01 X26.8210 Y8.4016
G01 X26.9047 Y8.3893
G01 X26.9868 Y8.3853
G01 X27.7880 Y8.3853
G01 X27.8701 Y8.3894
G01 X27.9502 Y8.4012
G01 X28.0335 Y8.4219
G01 X28.1143 Y8.4510
G01 X28.1875 Y8.4857
G01 X28.2580 Y8.5279
G01 X28.3260 Y8.5782
G01 X28.3878 Y8.6343
G01 X28.4439 Y8.6961
G01 X28.4935 Y8.7631
G01 X28.5364 Y8.8346
G01 X28.5721 Y8.9100
G01 X28.6002 Y8.9886
G01 X28.6205 Y9.0695
G01 X28.6327 Y9.1520
G01 X28.6368 Y9.2353
G01 X28.6327 Y9.3186
G01 X28.6205 Y9.4011
G01 X28.6002 Y9.4820
G01 X28.5721 Y9.5606
G01 X28.5364 Y9.6360
G01 X28.4942 Y9.7065
G01 X28.4439 Y9.7745
G01 X28.3878 Y9.8363
G01 X28.3260 Y9.8924
G01 X28.2570 Y9.9434
G01 X28.1853 Y9.9860
G01 X28.1121 Y10.0206
G01 X28.0359 Y10.0479
G01 X27.9526 Y10.0690
G01 X27.8713 Y10.0811
G01 X27.7868 Y10.0853
G01 X26.9868 Y10.0853
G01 X26.9035 Y10.0812
G01 X26.8210 Y10.0690
G01 X26.7377 Y10.0479
G01 X26.6615 Y10.0206
G01 X26.5883 Y9.9860
G01 X26.5156 Y9.9427
G01 X26.4476 Y9.8924
G01 X26.3841 Y9.8346
G01 X26.3297 Y9.7745
G01 X26.2815 Y9.7095
G01 X26.2372 Y9.6360
G01 X26.2006 Y9.5583
G01 X26.1734 Y9.4820
G01 X26.1537 Y9.4035
G01 X26.1409 Y9.3186
G01 X26.1369 Y9.2328
G01 X26.1409 Y9.1520
G01 X26.1527 Y9.0719
G01 X26.1734 Y8.9886
G01 X26.2025 Y8.9078
G01 X26.2372 Y8.8346
G01 X26.2787 Y8.7651
G01 X26.3297 Y8.6961
G01 X26.3875 Y8.6326
G01 X26.4476 Y8.5782
G01 X26.5126 Y8.5300
G01 X26.5861 Y8.4857
G00 Z2.0000
G00 X26.5861 Y11.0257
G01 F60.00
G01 Z-0.0000
G01 F120.00
G01 X26.6615 Y10.9900
G01 X26.7401 Y10.9619
G01 X26.8210 Y10.9416
G01 X26.9047 Y10.9293
G01 X26.9868 Y10.9253
G01 X27.7880 Y10.9253
G01 X27.8701 Y10.9294
G01 X27.9502 Y10.9412
G01 X28.0335 Y10.9619
G01 X28.1143 Y10.9910
G01 X28.1875 Y11.0257
G01 X28.2580 Y11.0679
G01 X28.3260 Y11.1182
G01 X28.3878 Y11.1743
G01 X28.4439 Y11.2361
G01 X28.4935 Y11.3031
G01 X28.5364 Y11.3746
G01 X28.5721 Y11.4500
G01 X28.6002 Y11.5286
G01 X28.6205 Y11.6095
G01 X28.6327 Y11.6920
G01 X28.6368 Y11.7753
G01 X28.6327 Y11.8586
G01 X28.6205 Y11.9411
G01 X28.6002 Y12.0220
G01 X28.5721 Y12.1006
G01 X28.5364 Y12.1760
G01 X28.4942 Y12.2465
G01 X28.4439 Y12.3145
G01 X28.3878 Y12.3763
G01 X28.3260 Y12.4324
G01 X28.2570 Y12.4834
G01 X28.1853 Y12.5260
G01 X28.1121 Y12.5606
G01 X28.0359 Y12.5879
G01 X27.9526 Y12.6090
G01 X27.8713 Y12.6211
G01 X27.7868 Y12.6253
G01 X26.9868 Y12.6253
G01 X26.9035 Y12.6212
G01 X26.8210 Y12.6090
G01 X26.7377 Y12.5879
G01 X26.6615 Y12.5606
G01 X26.5883 Y12.5260
G01 X26.5156 Y12.4827
G01 X26.4476 Y12.4324
G01 X26.3841 Y12.3746
G01 X26.3297 Y12.3145
G01 X26.2815 Y12.2495
G01 X26.2372 Y12.1760
G01 X26.2006 Y12.0983
G01 X26.1734 Y12.0220
G01 X26.1537 Y11.9435
G01 X26.1409 Y11.8586
G01 X26.1369 Y11.7728
G01 X26.1409 Y11.6920
G01 X26.1527 Y11.6119
G01 X26.1734 Y11.5286
G01 X26.2025 Y11.4478
G01 X26.2372 Y11.3746
G01 X26.2787 Y11.3051
G01 X26.3297 Y11.2361
G01 X26.3875 Y11.1726
G01 X26.4476 Y11.1182
G01 X26.5126 Y11.0700
G01 X26.5861 Y11.0257
G00 Z2.0000
G00 X26.5861 Y13.5657
G01 F60.00
G01 Z-0.0000
G01 F120.00
G01 X26.6615 Y13.5300
G01 X26.7401 Y13.5019
G01 X26.8210 Y13.4816
G01 X26.9047 Y13.4693
G01 X26.9868 Y13.4653
G01 X27.7880 Y13.4653
G01 X27.8701 Y13.4694
G01 X27.9502 Y13.4812
G01 X28.0335 Y13.5019
G01 X28.1143 Y13.5310
G01 X28.1875 Y13.5657
G01 X28.2580 Y13.6079
G01 X28.3260 Y13.6582
G01 X28.3878 Y13.7143
G01 X28.4439 Y13.7761
G01 X28.4935 Y13.8431
G01 X28.5364 Y13.9146
G01 X28.5721 Y13.9900
G01 X28.6002 Y14.0686
G01 X28.6205 Y14.1495
G01 X28.6327 Y14.2320
G01 X28.6368 Y14.3153
G01 X28.6327 Y14.3986
G01 X28.6205 Y14.4811
G01 X28.6002 Y14.5620
G01 X28.5721 Y14.6406
G01 X28.5364 Y14.7160
G01 X28.4942 Y14.7865
G01 X28.4439 Y14.8545
G01 X28.3878 Y14.9163
G01 X28.3260 Y14.9724
G01 X28.2570 Y15.0234
G01 X28.1853 Y15.0660
G01 X28.1121 Y15.1006
G01 X28.0359 Y15.1279
G01 X27.9526 Y15.1490
G01 X27.8713 Y15.1611
G01 X27.7868 Y15.1653
G01 X26.9868 Y15.1653
G01 X26.9035 Y15.1612
G01 X26.8210 Y15.1490
G01 X26.7377 Y15.1279
G01 X26.6615 Y15.1006
G01 X26.5883 Y15.0660
G01 X26.5156 Y15.0227
G01 X26.4476 Y14.9724
G01 X26.3841 Y14.9146
G01 X26.3297 Y14.8545
G01 X26.2815 Y14.7895
G01 X26.2372 Y14.7160
G01 X26.2006 Y14.6383
G01 X26.1734 Y14.5620
G01 X26.1537 Y14.4835
G01 X26.1409 Y14.3986
G01 X26.1369 Y14.3128
G01 X26.1409 Y14.2320
G01 X26.1527 Y14.1519
G01 X26.1734 Y14.0686
G01 X26.2025 Y13.9878
G01 X26.2372 Y13.9146
G01 X26.2787 Y13.8451
G01 X26.3297 Y13.7761
G01 X26.3875 Y13.7126
G01 X26.4476 Y13.6582
G01 X26.5126 Y13.6100
G01 X26.5861 Y13.5657
G00 Z2.0000
G00 X26.5861 Y16.1057
G01 F60.00
G01 Z-0.0000
G01 F120.00
G01 X26.6615 Y16.0700
G01 X26.7401 Y16.0419
G01 X26.8210 Y16.0216
G01 X26.9047 Y16.0093
G01 X26.9868 Y16.0053
G01 X27.7880 Y16.0053
G01 X27.8701 Y16.0094
G01 X27.9502 Y16.0212
G01 X28.0335 Y16.0419
G01 X28.1143 Y16.0710
G01 X28.1875 Y16.1057
G01 X28.2580 Y16.1479
G01 X28.3260 Y16.1982
G01 X28.3878 Y16.2543
G01 X28.4439 Y16.3161
G01 X28.4935 Y16.3831
G01 X28.5364 Y16.4546
G01 X28.5721 Y16.5300
G01 X28.6002 Y16.6086
G01 X28.6205 Y16.6895
G01 X28.6327 Y16.7720
G01 X28.6368 Y16.8553
G01 X28.6327 Y16.9386
G01 X28.6205 Y17.0211
G01 X28.6002 Y17.1020
G01 X28.5721 Y17.1806
G01 X28.5364 Y17.2560
G01 X28.4942 Y17.3265
G01 X28.4439 Y17.3945
G01 X28.3878 Y17.4563
G01 X28.3260 Y17.5124
G01 X28.2570 Y17.5634
G01 X28.1853 Y17.6060
G01 X28.1121 Y17.6406
G01 X28.0359 Y17.6679
G01 X27.9526 Y17.6890
G01 X27.8713 Y17.7011
G01 X27.7868 Y17.7053
G01 X26.9868 Y17.7053
G01 X26.9035 Y17.7012
G01 X26.8210 Y17.6890
G01 X26.7377 Y17.6679
G01 X26.6615 Y17.6406
G01 X26.5883 Y17.6060
G01 X26.5156 Y17.5627
G01 X26.4476 Y17.5124
G01 X26.3841 Y17.4546
G01 X26.3297 Y17.3945
G01 X26.2815 Y17.3295
G01 X26.2372 Y17.2560
G01 X26.2006 Y17.1783
G01 X26.1734 Y17.1020
G01 X26.1537 Y17.0235
G01 X26.1409 Y16.9386
G01 X26.1369 Y16.8528
G01 X26.1409 Y16.7720
G01 X26.1527 Y16.6919
G01 X26.1734 Y16.6086
G01 X26.2025 Y16.5278
G01 X26.2372 Y16.4546
G01 X26.2787 Y16.3851
G01 X26.3297 Y16.3161
G01 X26.3875 Y16.2526
G01 X26.4476 Y16.1982
G01 X26.5126 Y16.1500
G01 X26.5861 Y16.1057
G00 Z2.0000
G00 X26.5861 Y18.6457
G01 F60.00
G01 Z-0.0000
G01 F120.00
G01 X26.6615 Y18.6100
G01 X26.7401 Y18.5819
G01 X26.8210 Y18.5616
G01 X26.9047 Y18.5493
G01 X26.9868 Y18.5453
G01 X27.7880 Y18.5453
G01 X27.8701 Y18.5494
G01 X27.9502 Y18.5612
G01 X28.0335 Y18.5819
G01 X28.1143 Y18.6110
G01 X28.1875 Y18.6457
G01 X28.2580 Y18.6879
G01 X28.3260 Y18.7382
G01 X28.3878 Y18.7943
G01 X28.4439 Y18.8561
G01 X28.4935 Y18.9231
G01 X28.5364 Y18.9946
G01 X28.5721 Y19.0700
G01 X28.6002 Y19.1486
G01 X28.6205 Y19.2295
G01 X28.6327 Y19.3120
G01 X28.6368 Y19.3953
G01 X28.6327 Y19.4786
G01 X28.6205 Y19.5611
G01 X28.6002 Y19.6420
G01 X28.5721 Y19.7206
G01 X28.5364 Y19.7960
G01 X28.4942 Y19.8665
G01 X28.4439 Y19.9345
G01 X28.3878 Y19.9963
G01 X28.3260 Y20.0524
G01 X28.2570 Y20.1034
G01 X28.1853 Y20.1460
G01 X28.1121 Y20.1806
G01 X28.0359 Y20.2079
G01 X27.9526 Y20.2290
G01 X27.8713 Y20.2411
G01 X27.7868 Y20.2453
G01 X26.9868 Y20.2453
G01 X26.9035 Y20.2412
G01 X26.8210 Y20.2290
G01 X26.7377 Y20.2079
G01 X26.6615 Y20.1806
G01 X26.5883 Y20.1460
G01 X26.5156 Y20.1027
G01 X26.4476 Y20.0524
G01 X26.3841 Y19.9946
G01 X26.3297 Y19.9345
G01 X26.2815 Y19.8695
G01 X26.2372 Y19.7960
G01 X26.2006 Y19.7183
G01 X26.1734 Y19.6420
G01 X26.1537 Y19.5635
G01 X26.1409 Y19.4786
G01 X26.1369 Y19.3928
G01 X26.1409 Y19.3120
G01 X26.1527 Y19.2319
G01 X26.1734 Y19.1486
G01 X26.2025 Y19.0678
G01 X26.2372 Y18.9946
G01 X26.2787 Y18.9251
G01 X26.3297 Y18.8561
G01 X26.3875 Y18.7926
G01 X26.4476 Y18.7382
G01 X26.5126 Y18.6900
G01 X26.5861 Y18.6457
G00 Z2.0000
G00 X26.5861 Y21.1857
G01 F60.00
G01 Z-0.0000
G01 F120.00
G01 X26.6615 Y21.1500
G01 X26.7401 Y21.1219
G01 X26.8210 Y21.1016
G01 X26.9047 Y21.0893
G01 X26.9868 Y21.0853
G01 X27.7880 Y21.0853
G01 X27.8701 Y21.0894
G01 X27.9502 Y21.1012
G01 X28.0335 Y21.1219
G01 X28.1143 Y21.1510
G01 X28.1875 Y21.1857
G01 X28.2580 Y21.2279
G01 X28.3260 Y21.2782
G01 X28.3878 Y21.3343
G01 X28.4439 Y21.3961
G01 X28.4935 Y21.4631
G01 X28.5364 Y21.5346
G01 X28.5721 Y21.6100
G01 X28.6002 Y21.6886
G01 X28.6205 Y21.7695
G01 X28.6327 Y21.8520
G01 X28.6368 Y21.9353
G01 X28.6327 Y22.0186
G01 X28.6205 Y22.1011
G01 X28.6002 Y22.1820
G01 X28.5721 Y22.2606
G01 X28.5364 Y22.3360
G01 X28.4942 Y22.4065
G01 X28.4439 Y22.4745
G01 X28.3878 Y22.5363
G01 X28.3260 Y22.5924
G01 X28.2570 Y22.6434
G01 X28.1853 Y22.6860
G01 X28.1121 Y22.7206
G01 X28.0359 Y22.7479
G01 X27.9526 Y22.7690
G01 X27.8713 Y22.7811
G01 X27.7868 Y22.7853
G01 X26.9868 Y22.7853
G01 X26.9035 Y22.7812
G01 X26.8210 Y22.7690
G01 X26.7377 Y22.7479
G01 X26.6615 Y22.7206
G01 X26.5883 Y22.6860
G01 X26.5156 Y22.6427
G01 X26.4476 Y22.5924
G01 X26.3841 Y22.5346
G01 X26.3297 Y22.4745
G01 X26.2815 Y22.4095
G01 X26.2372 Y22.3360
G01 X26.2006 Y22.2583
G01 X26.1734 Y22.1820
G01 X26.1537 Y22.1035
G01 X26.1409 Y22.0186
G01 X26.1369 Y21.9328
G01 X26.1409 Y21.8520
G01 X26.1527 Y21.7719
G01 X26.1734 Y21.6886
G01 X26.2025 Y21.6078
G01 X26.2372 Y21.5346
G01 X26.2787 Y21.4651
G01 X26.3297 Y21.3961
G01 X26.3875 Y21.3326
G01 X26.4476 Y21.2782
G01 X26.5126 Y21.2300
G01 X26.5861 Y21.1857
G00 Z2.0000
G00 X30.6333 Y17.7745
G01 F60.00
G01 Z-0.0000
G01 F120.00
G01 X30.6024 Y17.7666
G01 X30.5770 Y17.7575
G01 X30.5504 Y17.7449
G01 X30.5251 Y17.7297
G01 X30.5034 Y17.7137
G01 X30.4780 Y17.6907
G01 X30.4599 Y17.6706
G01 X30.4424 Y17.6470
G01 X30.4272 Y17.6217
G01 X30.4156 Y17.5974
G01 X30.4041 Y17.5650
G01 X30.3976 Y17.5388
G01 X30.3934 Y17.5109
G01 X30.3918 Y17.4803
G01 X30.3918 Y16.2291
G01 X30.3931 Y16.2026
G01 X30.3969 Y16.1752
G01 X30.4033 Y16.1482
G01 X30.4129 Y16.1198
G01 X30.4233 Y16.0966
G01 X30.4356 Y16.0744
G01 X30.4524 Y16.0495
G01 X30.4717 Y16.0265
G01 X30.4897 Y16.0086
G01 X30.5092 Y15.9923
G01 X30.5339 Y15.9752
G01 X30.5602 Y15.9608
G01 X30.5834 Y15.9506
G01 X30.6075 Y15.9424
G01 X30.6378 Y15.9352
G01 X30.6641 Y15.9316
G01 X30.6918 Y15.9303
G01 X31.3180 Y15.9303
G01 X31.3462 Y15.9317
G01 X31.3753 Y15.9361
G01 X31.4039 Y15.9432
G01 X31.4327 Y15.9536
G01 X31.4582 Y15.9657
G01 X31.4814 Y15.9795
G01 X31.5071 Y15.9984
G01 X31.5306 Y16.0199
G01 X31.5487 Y16.0400
G01 X31.5648 Y16.0616
G01 X31.5814 Y16.0889
G01 X31.5948 Y16.1178
G01 X31.6039 Y16.1432
G01 X31.6105 Y16.1694
G01 X31.6154 Y16.2009
G01 X31.6168 Y16.2303
G01 X31.6168 Y17.4815
G01 X31.6154 Y17.5097
G01 X31.6110 Y17.5388
G01 X31.6039 Y17.5674
G01 X31.5935 Y17.5962
G01 X31.5802 Y17.6239
G01 X31.5662 Y17.6470
G01 X31.5502 Y17.6687
G01 X31.5289 Y17.6924
G01 X31.5071 Y17.7122
G01 X31.4814 Y17.7311
G01 X31.4582 Y17.7449
G01 X31.4339 Y17.7565
G01 X31.4039 Y17.7674
G01 X31.3741 Y17.7748
G01 X31.3462 Y17.7789
G01 X31.3168 Y17.7803
G01 X30.6918 Y17.7803
G01 X30.6624 Y17.7789
G01 X30.6333 Y17.7745
G00 Z2.0000
G00 X33.5583 Y17.7745
G01 F60.00
G01 Z-0.0000
G01 F120.00
G01 X33.5274 Y17.7666
G01 X33.5020 Y17.7575
G01 X33.4754 Y17.7449
G01 X33.4501 Y17.7297
G01 X33.4284 Y17.7137
G01 X33.4030 Y17.6907
G01 X33.3849 Y17.6706
G01 X33.3674 Y17.6470
G01 X33.3522 Y17.6217
G01 X33.3406 Y17.5974
G01 X33.3291 Y17.5650
G01 X33.3226 Y17.5388
G01 X33.3184 Y17.5109
G01 X33.3168 Y17.4803
G01 X33.3168 Y16.2291
G01 X33.3181 Y16.2026
G01 X33.3219 Y16.1752
G01 X33.3283 Y16.1482
G01 X33.3379 Y16.1198
G01 X33.3483 Y16.0966
G01 X33.3606 Y16.0744
G01 X33.3774 Y16.0495
G01 X33.3967 Y16.0265
G01 X33.4147 Y16.0086
G01 X33.4342 Y15.9923
G01 X33.4589 Y15.9752
G01 X33.4852 Y15.9608
G01 X33.5084 Y15.9506
G01 X33.5325 Y15.9424
G01 X33.5628 Y15.9352
G01 X33.5891 Y15.9316
G01 X33.6168 Y15.9303
G01 X34.2430 Y15.9303
G01 X34.2712 Y15.9317
G01 X34.3003 Y15.9361
G01 X34.3289 Y15.9432
G01 X34.3577 Y15.9536
G01 X34.3832 Y15.9657
G01 X34.4064 Y15.9795
G01 X34.4321 Y15.9984
G01 X34.4556 Y16.0199
G01 X34.4737 Y16.0400
G01 X34.4898 Y16.0616
G01 X34.5064 Y16.0889
G01 X34.5198 Y16.1178
G01 X34.5289 Y16.1432
G01 X34.5355 Y16.1694
G01 X34.5404 Y16.2009
G01 X34.5418 Y16.2303
G01 X34.5418 Y17.4815
G01 X34.5404 Y17.5097
G01 X34.5360 Y17.5388
G01 X34.5289 Y17.5674
G01 X34.5185 Y17.5962
G01 X34.5052 Y17.6239
G01 X34.4912 Y17.6470
G01 X34.4752 Y17.6687
G01 X34.4539 Y17.6924
G01 X34.4321 Y17.7122
G01 X34.4064 Y17.7311
G01 X34.3832 Y17.7449
G01 X34.3589 Y17.7565
G01 X34.3289 Y17.7674
G01 X34.2991 Y17.7748
G01 X34.2712 Y17.7789
G01 X34.2418 Y17.7803
G01 X33.6168 Y17.7803
G01 X33.5874 Y17.7789
G01 X33.5583 Y17.7745
G00 Z2.0000
G00 X36.7450 Y18.6463
G01 F60.00
G01 Z-0.0000
G01 F120.00
G01 X36.8215 Y18.6100
G01 X36.9001 Y18.5819
G01 X36.9810 Y18.5616
G01 X37.0647 Y18.5493
G01 X37.1468 Y18.5453
G01 X37.9480 Y18.5453
G01 X38.0301 Y18.5494
G01 X38.1102 Y18.5612
G01 X38.1935 Y18.5819
G01 X38.2743 Y18.6110
G01 X38.3475 Y18.6457
G01 X38.4180 Y18.6879
G01 X38.4860 Y18.7382
G01 X38.5478 Y18.7943
G01 X38.6039 Y18.8561
G01 X38.6535 Y18.9231
G01 X38.6964 Y18.9946
G01 X38.7321 Y19.0700
G01 X38.7602 Y19.1486
G01 X38.7805 Y19.2295
G01 X38.7927 Y19.3120
G01 X38.7968 Y19.3953
G01 X38.7927 Y19.4786
G01 X38.7805 Y19.5611
G01 X38.7602 Y19.6420
G01 X38.7321 Y19.7206
G01 X38.6964 Y19.7960
G01 X38.6542 Y19.8665
G01 X38.6039 Y19.9345
G01 X38.5478 Y19.9963
G01 X38.4860 Y20.0524
G01 X38.4170 Y20.1034
G01 X38.3453 Y20.1460
G01 X38.2721 Y20.1806
G01 X38.1959 Y20.2079
G01 X38.1126 Y20.2290
G01 X38.0313 Y20.2411
G01 X37.9468 Y20.2453
G01 X37.1468 Y20.2453
G01 X37.0635 Y20.2412
G01 X36.9810 Y20.2290
G01 X36.8977 Y20.2079
G01 X36.8215 Y20.1806
G01 X36.7483 Y20.1460
G01 X36.6756 Y20.1027
G01 X36.6076 Y20.0524
G01 X36.5441 Y19.9946
G01 X36.4897 Y19.9345
G01 X36.4415 Y19.8695
G01 X36.3972 Y19.7960
G01 X36.3606 Y19.7183
G01 X36.3334 Y19.6420
G01 X36.3137 Y19.5635
G01 X36.3009 Y19.4786
G01 X36.2969 Y19.3928
G01 X36.3009 Y19.3120
G01 X36.3127 Y19.2319
G01 X36.3334 Y19.1486
G01 X36.3625 Y19.0678
G01 X36.3972 Y18.9946
G01 X36.4387 Y18.9251
G01 X36.4897 Y18.8561
G01 X36.5475 Y18.7926
G01 X36.6076 Y18.7382
G01 X36.6726 Y18.6900
G01 X36.7450 Y18.6463
G00 Z2.0000
G00 X36.7450 Y21.1863
G01 F60.00
G01 Z-0.0000
G01 F120.00
G01 X36.8215 Y21.1500
G01 X36.9001 Y21.1219
G01 X36.9810 Y21.1016
G01 X37.0647 Y21.0893
G01 X37.1468 Y21.0853
G01 X37.9480 Y21.0853
G01 X38.0301 Y21.0894
G01 X38.1102 Y21.1012
G01 X38.1935 Y21.1219
G01 X38.2743 Y21.1510
G01 X38.3475 Y21.1857
G01 X38.4180 Y21.2279
G01 X38.4860 Y21.2782
G01 X38.5478 Y21.3343
G01 X38.6039 Y21.3961
G01 X38.6535 Y21.4631
G01 X38.6964 Y21.5346
G01 X38.7321 Y21.6100
G01 X38.7602 Y21.6886
G01 X38.7805 Y21.7695
G01 X38.7927 Y21.8520
G01 X38.7968 Y21.9353
G01 X38.7927 Y22.0186
G01 X38.7805 Y22.1011
G01 X38.7602 Y22.1820
G01 X38.7321 Y22.2606
G01 X38.6964 Y22.3360
G01 X38.6542 Y22.4065
G01 X38.6039 Y22.4745
G01 X38.5478 Y22.5363
G01 X38.4860 Y22.5924
G01 X38.4170 Y22.6434
G01 X38.3453 Y22.6860
G01 X38.2721 Y22.7206
G01 X38.1959 Y22.7479
G01 X38.1126 Y22.7690
G01 X38.0313 Y22.7811
G01 X37.9468 Y22.7853
G01 X37.1468 Y22.7853
G01 X37.0635 Y22.7812
G01 X36.9810 Y22.7690
G01 X36.8977 Y22.7479
G01 X36.8215 Y22.7206
G01 X36.7483 Y22.6860
G01 X36.6756 Y22.6427
G01 X36.6076 Y22.5924
G01 X36.5441 Y22.5346
G01 X36.4897 Y22.4745
G01 X36.4415 Y22.4095
G01 X36.3972 Y22.3360
G01 X36.3606 Y22.2583
G01 X36.3334 Y22.1820
G01 X36.3137 Y22.1035
G01 X36.3009 Y22.0186
G01 X36.2969 Y21.9328
G01 X36.3009 Y21.8520
G01 X36.3127 Y21.7719
G01 X36.3334 Y21.6886
G01 X36.3625 Y21.6078
G01 X36.3972 Y21.5346
G01 X36.4387 Y21.4651
G01 X36.4897 Y21.3961
G01 X36.5475 Y21.3326
G01 X36.6076 Y21.2782
G01 X36.6726 Y21.2300
G01 X36.7450 Y21.1863
G00 Z2.0000
G00 X36.7461 Y16.1057
G01 F60.00
G01 Z-0.0000
G01 F120.00
G01 X36.8215 Y16.0700
G01 X36.9001 Y16.0419
G01 X36.9810 Y16.0216
G01 X37.0647 Y16.0093
G01 X37.1468 Y16.0053
G01 X37.9480 Y16.0053
G01 X38.0301 Y16.0094
G01 X38.1102 Y16.0212
G01 X38.1935 Y16.0419
G01 X38.2743 Y16.0710
G01 X38.3475 Y16.1057
G01 X38.4180 Y16.1479
G01 X38.4860 Y16.1982
G01 X38.5478 Y16.2543
G01 X38.6039 Y16.3161
G01 X38.6535 Y16.3831
G01 X38.6964 Y16.4546
G01 X38.7321 Y16.5300
G01 X38.7602 Y16.6086
G01 X38.7805 Y16.6895
G01 X38.7927 Y16.7720
G01 X38.7968 Y16.8553
G01 X38.7927 Y16.9386
G01 X38.7805 Y17.0211
G01 X38.7602 Y17.1020
G01 X38.7321 Y17.1806
G01 X38.6964 Y17.2560
G01 X38.6542 Y17.3265
G01 X38.6039 Y17.3945
G01 X38.5478 Y17.4563
G01 X38.4860 Y17.5124
G01 X38.4170 Y17.5634
G01 X38.3453 Y17.6060
G01 X38.2721 Y17.6406
G01 X38.1959 Y17.6679
G01 X38.1126 Y17.6890
G01 X38.0313 Y17.7011
G01 X37.9468 Y17.7053
G01 X37.1468 Y17.7053
G01 X37.0635 Y17.7012
G01 X36.9810 Y17.6890
G01 X36.8977 Y17.6679
G01 X36.8215 Y17.6406
G01 X36.7483 Y17.6060
G01 X36.6756 Y17.5627
G01 X36.6076 Y17.5124
G01 X36.5441 Y17.4546
G01 X36.4897 Y17.3945
G01 X36.4415 Y17.3295
G01 X36.3972 Y17.2560
G01 X36.3606 Y17.1783
G01 X36.3334 Y17.1020
G01 X36.3137 Y17.0235
G01 X36.3009 Y16.9386
G01 X36.2969 Y16.8528
G01 X36.3009 Y16.7720
G01 X36.3127 Y16.6919
G01 X36.3334 Y16.6086
G01 X36.3625 Y16.5278
G01 X36.3972 Y16.4546
G01 X36.4387 Y16.3851
G01 X36.4897 Y16.3161
G01 X36.5475 Y16.2526
G01 X36.6076 Y16.1982
G01 X36.6726 Y16.1500
G01 X36.7461 Y16.1057
G00 Z2.0000
G00 X36.7461 Y13.5657
G01 F60.00
G01 Z-0.0000
G01 F120.00
G01 X36.8215 Y13.5300
G01 X36.9001 Y13.5019
G01 X36.9810 Y13.4816
G01 X37.0647 Y13.4693
G01 X37.1468 Y13.4653
G01 X37.9480 Y13.4653
G01 X38.0301 Y13.4694
G01 X38.1102 Y13.4812
G01 X38.1935 Y13.5019
G01 X38.2743 Y13.5310
G01 X38.3475 Y13.5657
G01 X38.4180 Y13.6079
G01 X38.4860 Y13.6582
G01 X38.5478 Y13.7143
G01 X38.6039 Y13.7761
G01 X38.6535 Y13.8431
G01 X38.6964 Y13.9146
G01 X38.7321 Y13.9900
G01 X38.7602 Y14.0686
G01 X38.7805 Y14.1495
G01 X38.7927 Y14.2320
G01 X38.7968 Y14.3153
G01 X38.7927 Y14.3986
G01 X38.7805 Y14.4811
G01 X38.7602 Y14.5620
G01 X38.7321 Y14.6406
G01 X38.6964 Y14.7160
G01 X38.6542 Y14.7865
G01 X38.6039 Y14.8545
G01 X38.5478 Y14.9163
G01 X38.4860 Y14.9724
G01 X38.4170 Y15.0234
G01 X38.3453 Y15.0660
G01 X38.2721 Y15.1006
G01 X38.1959 Y15.1279
G01 X38.1126 Y15.1490
G01 X38.0313 Y15.1611
G01 X37.9468 Y15.1653
G01 X37.1468 Y15.1653
G01 X37.0635 Y15.1612
G01 X36.9810 Y15.1490
G01 X36.8977 Y15.1279
G01 X36.8215 Y15.1006
G01 X36.7483 Y15.0660
G01 X36.6756 Y15.0227
G01 X36.6076 Y14.9724
G01 X36.5441 Y14.9146
G01 X36.4897 Y14.8545
G01 X36.4415 Y14.7895
G01 X36.3972 Y14.7160
G01 X36.3606 Y14.6383
G01 X36.3334 Y14.5620
G01 X36.3137 Y14.4835
G01 X36.3009 Y14.3986
G01 X36.2969 Y14.3128
G01 X36.3009 Y14.2320
G01 X36.3127 Y14.1519
G01 X36.3334 Y14.0686
G01 X36.3625 Y13.9878
G01 X36.3972 Y13.9146
G01 X36.4387 Y13.8451
G01 X36.4897 Y13.7761
G01 X36.5475 Y13.7126
G01 X36.6076 Y13.6582
G01 X36.6726 Y13.6100
G01 X36.7461 Y13.5657
G00 Z2.0000
G00 X36.7461 Y11.0257
G01 F60.00
G01 Z-0.0000
G01 F120.00
G01 X36.8215 Y10.9900
G01 X36.9001 Y10.9619
G01 X36.9810 Y10.9416
G01 X37.0647 Y10.9293
G01 X37.1468 Y10.9253
G01 X37.9480 Y10.9253
G01 X38.0301 Y10.9294
G01 X38.1102 Y10.9412
G01 X38.1935 Y10.9619
G01 X38.2743 Y10.9910
G01 X38.3475 Y11.0257
G01 X38.4180 Y11.0679
G01 X38.4860 Y11.1182
G01 X38.5478 Y11.1743
G01 X38.6039 Y11.2361
G01 X38.6535 Y11.3031
G01 X38.6964 Y11.3746
G01 X38.7321 Y11.4500
G01 X38.7602 Y11.5286
G01 X38.7805 Y11.6095
G01 X38.7927 Y11.6920
G01 X38.7968 Y11.7753
G01 X38.7927 Y11.8586
G01 X38.7805 Y11.9411
G01 X38.7602 Y12.0220
G01 X38.7321 Y12.1006
G01 X38.6964 Y12.1760
G01 X38.6542 Y12.2465
G01 X38.6039 Y12.3145
G01 X38.5478 Y12.3763
G01 X38.4860 Y12.4324
G01 X38.4170 Y12.4834
G01 X38.3453 Y12.5260
G01 X38.2721 Y12.5606
G01 X38.1959 Y12.5879
G01 X38.1126 Y12.6090
G01 X38.0313 Y12.6211
G01 X37.9468 Y12.6253
G01 X37.1468 Y12.6253
G01 X37.0635 Y12.6212
G01 X36.9810 Y12.6090
G01 X36.8977 Y12.5879
G01 X36.8215 Y12.5606
G01 X36.7483 Y12.5260
G01 X36.6756 Y12.4827
G01 X36.6076 Y12.4324
G01 X36.5441 Y12.3746
G01 X36.4897 Y12.3145
G01 X36.4415 Y12.2495
G01 X36.3972 Y12.1760
G01 X36.3606 Y12.0983
G01 X36.3334 Y12.0220
G01 X36.3137 Y11.9435
G01 X36.3009 Y11.8586
G01 X36.2969 Y11.7728
G01 X36.3009 Y11.6920
G01 X36.3127 Y11.6119
G01 X36.3334 Y11.5286
G01 X36.3625 Y11.4478
G01 X36.3972 Y11.3746
G01 X36.4387 Y11.3051
G01 X36.4897 Y11.2361
G01 X36.5475 Y11.1726
G01 X36.6076 Y11.1182
G01 X36.6726 Y11.0700
G01 X36.7461 Y11.0257
G00 Z2.0000
G00 X36.7461 Y8.4857
G01 F60.00
G01 Z-0.0000
G01 F120.00
G01 X36.8215 Y8.4500
G01 X36.9001 Y8.4219
G01 X36.9810 Y8.4016
G01 X37.0647 Y8.3893
G01 X37.1468 Y8.3853
G01 X37.9480 Y8.3853
G01 X38.0301 Y8.3894
G01 X38.1102 Y8.4012
G01 X38.1935 Y8.4219
G01 X38.2743 Y8.4510
G01 X38.3475 Y8.4857
G01 X38.4180 Y8.5279
G01 X38.4860 Y8.5782
G01 X38.5478 Y8.6343
G01 X38.6039 Y8.6961
G01 X38.6535 Y8.7631
G01 X38.6964 Y8.8346
G01 X38.7321 Y8.9100
G01 X38.7602 Y8.9886
G01 X38.7805 Y9.0695
G01 X38.7927 Y9.1520
G01 X38.7968 Y9.2353
G01 X38.7927 Y9.3186
G01 X38.7805 Y9.4011
G01 X38.7602 Y9.4820
G01 X38.7321 Y9.5606
G01 X38.6964 Y9.6360
G01 X38.6542 Y9.7065
G01 X38.6039 Y9.7745
G01 X38.5478 Y9.8363
G01 X38.4860 Y9.8924
G01 X38.4170 Y9.9434
G01 X38.3453 Y9.9860
G01 X38.2721 Y10.0206
G01 X38.1959 Y10.0479
G01 X38.1126 Y10.0690
G01 X38.0313 Y10.0811
G01 X37.9468 Y10.0853
G01 X37.1468 Y10.0853
G01 X37.0635 Y10.0812
G01 X36.9810 Y10.0690
G01 X36.8977 Y10.0479
G01 X36.8215 Y10.0206
G01 X36.7483 Y9.9860
G01 X36.6756 Y9.9427
G01 X36.6076 Y9.8924
G01 X36.5441 Y9.8346
G01 X36.4897 Y9.7745
G01 X36.4415 Y9.7095
G01 X36.3972 Y9.6360
G01 X36.3606 Y9.5583
G01 X36.3334 Y9.4820
G01 X36.3137 Y9.4035
G01 X36.3009 Y9.3186
G01 X36.2969 Y9.2328
G01 X36.3009 Y9.1520
G01 X36.3127 Y9.0719
G01 X36.3334 Y8.9886
G01 X36.3625 Y8.9078
G01 X36.3972 Y8.8346
G01 X36.4387 Y8.7651
G01 X36.4897 Y8.6961
G01 X36.5475 Y8.6326
G01 X36.6076 Y8.5782
G01 X36.6726 Y8.5300
G01 X36.7461 Y8.4857
G00 Z2.0000
G00 X36.7461 Y5.9457
G01 F60.00
G01 Z-0.0000
G01 F120.00
G01 X36.8215 Y5.9100
G01 X36.9001 Y5.8819
G01 X36.9810 Y5.8616
G01 X37.0647 Y5.8493
G01 X37.1468 Y5.8453
G01 X37.9480 Y5.8453
G01 X38.0301 Y5.8494
G01 X38.1102 Y5.8612
G01 X38.1935 Y5.8819
G01 X38.2743 Y5.9110
G01 X38.3475 Y5.9457
G01 X38.4180 Y5.9879
G01 X38.4860 Y6.0382
G01 X38.5478 Y6.0943
G01 X38.6039 Y6.1561
G01 X38.6535 Y6.2231
G01 X38.6964 Y6.2946
G01 X38.7321 Y6.3700
G01 X38.7602 Y6.4486
G01 X38.7805 Y6.5295
G01 X38.7927 Y6.6120
G01 X38.7968 Y6.6953
G01 X38.7927 Y6.7786
G01 X38.7805 Y6.8611
G01 X38.7602 Y6.9420
G01 X38.7321 Y7.0206
G01 X38.6964 Y7.0960
G01 X38.6542 Y7.1665
G01 X38.6039 Y7.2345
G01 X38.5478 Y7.2963
G01 X38.4860 Y7.3524
G01 X38.4170 Y7.4034
G01 X38.3453 Y7.4460
G01 X38.2721 Y7.4806
G01 X38.1959 Y7.5079
G01 X38.1126 Y7.5290
G01 X38.0313 Y7.5411
G01 X37.9468 Y7.5453
G01 X37.1468 Y7.5453
G01 X37.0635 Y7.5412
G01 X36.9810 Y7.5290
G01 X36.8977 Y7.5079
G01 X36.8215 Y7.4806
G01 X36.7483 Y7.4460
G01 X36.6756 Y7.4027
G01 X36.6076 Y7.3524
G01 X36.5441 Y7.2946
G01 X36.4897 Y7.2345
G01 X36.4415 Y7.1695
G01 X36.3972 Y7.0960
G01 X36.3606 Y7.0183
G01 X36.3334 Y6.9420
G01 X36.3137 Y6.8635
G01 X36.3009 Y6.7786
G01 X36.2969 Y6.6928
G01 X36.3009 Y6.6120
G01 X36.3127 Y6.5319
G01 X36.3334 Y6.4486
G01 X36.3625 Y6.3678
G01 X36.3972 Y6.2946
G01 X36.4387 Y6.2251
G01 X36.4897 Y6.1561
G01 X36.5475 Y6.0926
G01 X36.6076 Y6.0382
G01 X36.6726 Y5.9900
G01 X36.7461 Y5.9457
G00 Z2.0000
G00 X36.7461 Y3.4057
G01 F60.00
G01 Z-0.0000
G01 F120.00
G01 X36.8215 Y3.3700
G01 X36.9001 Y3.3419
G01 X36.9810 Y3.3216
G01 X37.0647 Y3.3093
G01 X37.1468 Y3.3053
G01 X37.9480 Y3.3053
G01 X38.0301 Y3.3094
G01 X38.1102 Y3.3212
G01 X38.1935 Y3.3419
G01 X38.2743 Y3.3710
G01 X38.3475 Y3.4057
G01 X38.4180 Y3.4479
G01 X38.4860 Y3.4982
G01 X38.5478 Y3.5543
G01 X38.6039 Y3.6161
G01 X38.6535 Y3.6831
G01 X38.6964 Y3.7546
G01 X38.7321 Y3.8300
G01 X38.7602 Y3.9086
G01 X38.7805 Y3.9895
G01 X38.7927 Y4.0720
G01 X38.7968 Y4.1553
G01 X38.7927 Y4.2386
G01 X38.7805 Y4.3211
G01 X38.7602 Y4.4020
G01 X38.7321 Y4.4806
G01 X38.6964 Y4.5560
G01 X38.6542 Y4.6265
G01 X38.6039 Y4.6945
G01 X38.5478 Y4.7563
G01 X38.4860 Y4.8124
G01 X38.4170 Y4.8634
G01 X38.3453 Y4.9060
G01 X38.2721 Y4.9406
G01 X38.1959 Y4.9679
G01 X38.1126 Y4.9890
G01 X38.0313 Y5.0011
G01 X37.9468 Y5.0053
G01 X37.1468 Y5.0053
G01 X37.0635 Y5.0012
G01 X36.9810 Y4.9890
G01 X36.8977 Y4.9679
G01 X36.8215 Y4.9406
G01 X36.7483 Y4.9060
G01 X36.6756 Y4.8627
G01 X36.6076 Y4.8124
G01 X36.5441 Y4.7546
G01 X36.4897 Y4.6945
G01 X36.4415 Y4.6295
G01 X36.3972 Y4.5560
G01 X36.3606 Y4.4783
G01 X36.3334 Y4.4020
G01 X36.3137 Y4.3235
G01 X36.3009 Y4.2386
G01 X36.2969 Y4.1528
G01 X36.3009 Y4.0720
G01 X36.3127 Y3.9919
G01 X36.3334 Y3.9086
G01 X36.3625 Y3.8278
G01 X36.3972 Y3.7546
G01 X36.4387 Y3.6851
G01 X36.4897 Y3.6161
G01 X36.5475 Y3.5526
G01 X36.6076 Y3.4982
G01 X36.6726 Y3.4500
G01 X36.7461 Y3.4057
G00 Z2.0000
G00 X33.5583 Y10.1545
G01 F60.00
G01 Z-0.0000
G01 F120.00
G01 X33.5274 Y10.1466
G01 X33.5020 Y10.1375
G01 X33.4754 Y10.1249
G01 X33.4501 Y10.1097
G01 X33.4284 Y10.0937
G01 X33.4030 Y10.0707
G01 X33.3849 Y10.0506
G01 X33.3674 Y10.0270
G01 X33.3522 Y10.0017
G01 X33.3406 Y9.9774
G01 X33.3291 Y9.9450
G01 X33.3226 Y9.9188
G01 X33.3184 Y9.8909
G01 X33.3168 Y9.8603
G01 X33.3168 Y8.6091
G01 X33.3181 Y8.5826
G01 X33.3219 Y8.5552
G01 X33.3283 Y8.5282
G01 X33.3379 Y8.4998
G01 X33.3483 Y8.4766
G01 X33.3606 Y8.4544
G01 X33.3774 Y8.4295
G01 X33.3967 Y8.4065
G01 X33.4147 Y8.3886
G01 X33.4342 Y8.3723
G01 X33.4589 Y8.3552
G01 X33.4852 Y8.3408
G01 X33.5084 Y8.3306
G01 X33.5325 Y8.3224
G01 X33.5628 Y8.3152
G01 X33.5891 Y8.3116
G01 X33.6168 Y8.3103
G01 X34.2430 Y8.3103
G01 X34.2712 Y8.3117
G01 X34.3003 Y8.3161
G01 X34.3289 Y8.3232
G01 X34.3577 Y8.3336
G01 X34.3832 Y8.3457
G01 X34.4064 Y8.3595
G01 X34.4321 Y8.3784
G01 X34.4556 Y8.3999
G01 X34.4737 Y8.4200
G01 X34.4898 Y8.4416
G01 X34.5064 Y8.4689
G01 X34.5198 Y8.4978
G01 X34.5289 Y8.5232
G01 X34.5355 Y8.5494
G01 X34.5404 Y8.5809
G01 X34.5418 Y8.6103
G01 X34.5418 Y9.8615
G01 X34.5404 Y9.8897
G01 X34.5360 Y9.9188
G01 X34.5289 Y9.9474
G01 X34.5185 Y9.9762
G01 X34.5052 Y10.0039
G01 X34.4912 Y10.0270
G01 X34.4752 Y10.0487
G01 X34.4539 Y10.0724
G01 X34.4321 Y10.0922
G01 X34.4064 Y10.1111
G01 X34.3832 Y10.1249
G01 X34.3589 Y10.1365
G01 X34.3289 Y10.1474
G01 X34.2991 Y10.1548
G01 X34.2712 Y10.1589
G01 X34.2418 Y10.1603
G01 X33.6168 Y10.1603
G01 X33.5874 Y10.1589
G01 X33.5583 Y10.1545
G00 Z2.0000
G00 X33.4754 Y10.8857
G01 F60.00
G01 Z-0.0000
G01 F120.00
G01 X33.5020 Y10.8731
G01 X33.5321 Y10.8626
G01 X33.5583 Y10.8561
G01 X33.5850 Y10.8520
G01 X33.6143 Y10.8504
G01 X34.2418 Y10.8503
G01 X34.2724 Y10.8519
G01 X34.3027 Y10.8566
G01 X34.3289 Y10.8632
G01 X34.3543 Y10.8723
G01 X34.3832 Y10.8857
G01 X34.4085 Y10.9009
G01 X34.4340 Y10.9200
G01 X34.4539 Y10.9382
G01 X34.4721 Y10.9581
G01 X34.4912 Y10.9836
G01 X34.5069 Y11.0100
G01 X34.5198 Y11.0378
G01 X34.5289 Y11.0632
G01 X34.5355 Y11.0894
G01 X34.5404 Y11.1209
G01 X34.5418 Y11.1491
G01 X34.5418 Y12.4003
G01 X34.5405 Y12.4285
G01 X34.5360 Y12.4588
G01 X34.5281 Y12.4897
G01 X34.5190 Y12.5151
G01 X34.5075 Y12.5395
G01 X34.4912 Y12.5670
G01 X34.4721 Y12.5925
G01 X34.4539 Y12.6124
G01 X34.4340 Y12.6306
G01 X34.4085 Y12.6497
G01 X34.3821 Y12.6654
G01 X34.3566 Y12.6775
G01 X34.3265 Y12.6880
G01 X34.3003 Y12.6945
G01 X34.2736 Y12.6986
G01 X34.2443 Y12.7002
G01 X33.6168 Y12.7003
G01 X33.5862 Y12.6987
G01 X33.5559 Y12.6940
G01 X33.5297 Y12.6874
G01 X33.5043 Y12.6783
G01 X33.4754 Y12.6649
G01 X33.4501 Y12.6497
G01 X33.4246 Y12.6306
G01 X33.4047 Y12.6124
G01 X33.3865 Y12.5925
G01 X33.3674 Y12.5670
G01 X33.3517 Y12.5406
G01 X33.3388 Y12.5128
G01 X33.3297 Y12.4874
G01 X33.3231 Y12.4612
G01 X33.3182 Y12.4297
G01 X33.3168 Y12.4015
G01 X33.3168 Y11.1503
G01 X33.3181 Y11.1221
G01 X33.3226 Y11.0918
G01 X33.3305 Y11.0609
G01 X33.3396 Y11.0355
G01 X33.3511 Y11.0111
G01 X33.3674 Y10.9836
G01 X33.3849 Y10.9600
G01 X33.4064 Y10.9365
G01 X33.4265 Y10.9184
G01 X33.4481 Y10.9023
G01 X33.4754 Y10.8857
G00 Z2.0000
G00 X33.4754 Y13.4257
G01 F60.00
G01 Z-0.0000
G01 F120.00
G01 X33.5020 Y13.4131
G01 X33.5321 Y13.4026
G01 X33.5583 Y13.3961
G01 X33.5850 Y13.3920
G01 X33.6143 Y13.3904
G01 X34.2418 Y13.3903
G01 X34.2724 Y13.3919
G01 X34.3027 Y13.3966
G01 X34.3289 Y13.4032
G01 X34.3543 Y13.4123
G01 X34.3832 Y13.4257
G01 X34.4085 Y13.4409
G01 X34.4340 Y13.4600
G01 X34.4539 Y13.4782
G01 X34.4721 Y13.4981
G01 X34.4912 Y13.5236
G01 X34.5069 Y13.5500
G01 X34.5198 Y13.5778
G01 X34.5289 Y13.6032
G01 X34.5355 Y13.6294
G01 X34.5404 Y13.6609
G01 X34.5418 Y13.6891
G01 X34.5418 Y14.9403
G01 X34.5406 Y14.9668
G01 X34.5362 Y14.9977
G01 X34.5303 Y15.0224
G01 X34.5223 Y15.0465
G01 X34.5103 Y15.0740
G01 X34.4956 Y15.1002
G01 X34.4812 Y15.1211
G01 X34.4650 Y15.1407
G01 X34.4439 Y15.1620
G01 X34.4207 Y15.1811
G01 X34.3997 Y15.1954
G01 X34.3755 Y15.2088
G01 X34.3502 Y15.2200
G01 X34.3217 Y15.2294
G01 X34.2969 Y15.2352
G01 X34.2718 Y15.2388
G01 X34.2441 Y15.2402
G01 X33.6168 Y15.2403
G01 X33.5862 Y15.2387
G01 X33.5559 Y15.2340
G01 X33.5297 Y15.2274
G01 X33.5043 Y15.2183
G01 X33.4754 Y15.2049
G01 X33.4501 Y15.1897
G01 X33.4246 Y15.1706
G01 X33.4047 Y15.1524
G01 X33.3865 Y15.1325
G01 X33.3674 Y15.1070
G01 X33.3517 Y15.0806
G01 X33.3388 Y15.0528
G01 X33.3297 Y15.0274
G01 X33.3231 Y15.0012
G01 X33.3182 Y14.9697
G01 X33.3168 Y14.9415
G01 X33.3168 Y13.6903
G01 X33.3181 Y13.6621
G01 X33.3226 Y13.6318
G01 X33.3305 Y13.6009
G01 X33.3396 Y13.5755
G01 X33.3511 Y13.5511
G01 X33.3674 Y13.5236
G01 X33.3849 Y13.5000
G01 X33.4064 Y13.4765
G01 X33.4265 Y13.4584
G01 X33.4481 Y13.4423
G01 X33.4754 Y13.4257
G00 Z2.0000
G00 X30.5504 Y13.4257
G01 F60.00
G01 Z-0.0000
G01 F120.00
G01 X30.5770 Y13.4131
G01 X30.6071 Y13.4026
G01 X30.6333 Y13.3961
G01 X30.6600 Y13.3920
G01 X30.6893 Y13.3904
G01 X31.3168 Y13.3903
G01 X31.3474 Y13.3919
G01 X31.3777 Y13.3966
G01 X31.4039 Y13.4032
G01 X31.4293 Y13.4123
G01 X31.4582 Y13.4257
G01 X31.4835 Y13.4409
G01 X31.5090 Y13.4600
G01 X31.5289 Y13.4782
G01 X31.5471 Y13.4981
G01 X31.5662 Y13.5236
G01 X31.5819 Y13.5500
G01 X31.5948 Y13.5778
G01 X31.6039 Y13.6032
G01 X31.6105 Y13.6294
G01 X31.6154 Y13.6609
G01 X31.6168 Y13.6891
G01 X31.6168 Y14.9403
G01 X31.6156 Y14.9668
G01 X31.6112 Y14.9977
G01 X31.6053 Y15.0224
G01 X31.5973 Y15.0465
G01 X31.5853 Y15.0740
G01 X31.5706 Y15.1002
G01 X31.5562 Y15.1211
G01 X31.5400 Y15.1407
G01 X31.5189 Y15.1620
G01 X31.4957 Y15.1811
G01 X31.4747 Y15.1954
G01 X31.4505 Y15.2088
G01 X31.4252 Y15.2200
G01 X31.3967 Y15.2294
G01 X31.3719 Y15.2352
G01 X31.3468 Y15.2388
G01 X31.3191 Y15.2402
G01 X30.6918 Y15.2403
G01 X30.6612 Y15.2387
G01 X30.6309 Y15.2340
G01 X30.6047 Y15.2274
G01 X30.5793 Y15.2183
G01 X30.5504 Y15.2049
G01 X30.5251 Y15.1897
G01 X30.4996 Y15.1706
G01 X30.4797 Y15.1524
G01 X30.4615 Y15.1325
G01 X30.4424 Y15.1070
G01 X30.4267 Y15.0806
G01 X30.4138 Y15.0528
G01 X30.4047 Y15.0274
G01 X30.3981 Y15.0012
G01 X30.3932 Y14.9697
G01 X30.3918 Y14.9415
G01 X30.3918 Y13.6903
G01 X30.3931 Y13.6621
G01 X30.3976 Y13.6318
G01 X30.4055 Y13.6009
G01 X30.4146 Y13.5755
G01 X30.4261 Y13.5511
G01 X30.4424 Y13.5236
G01 X30.4599 Y13.5000
G01 X30.4814 Y13.4765
G01 X30.5015 Y13.4584
G01 X30.5231 Y13.4423
G01 X30.5504 Y13.4257
G00 Z2.0000
G00 X30.5504 Y10.8857
G01 F60.00
G01 Z-0.0000
G01 F120.00
G01 X30.5770 Y10.8731
G01 X30.6071 Y10.8626
G01 X30.6333 Y10.8561
G01 X30.6600 Y10.8520
G01 X30.6893 Y10.8504
G01 X31.3168 Y10.8503
G01 X31.3474 Y10.8519
G01 X31.3777 Y10.8566
G01 X31.4039 Y10.8632
G01 X31.4293 Y10.8723
G01 X31.4582 Y10.8857
G01 X31.4835 Y10.9009
G01 X31.5090 Y10.9200
G01 X31.5289 Y10.9382
G01 X31.5471 Y10.9581
G01 X31.5662 Y10.9836
G01 X31.5819 Y11.0100
G01 X31.5948 Y11.0378
G01 X31.6039 Y11.0632
G01 X31.6105 Y11.0894
G01 X31.6154 Y11.1209
G01 X31.6168 Y11.1491
G01 X31.6168 Y12.4003
G01 X31.6155 Y12.4285
G01 X31.6110 Y12.4588
G01 X31.6031 Y12.4897
G01 X31.5940 Y12.5151
G01 X31.5825 Y12.5395
G01 X31.5662 Y12.5670
G01 X31.5471 Y12.5925
G01 X31.5289 Y12.6124
G01 X31.5090 Y12.6306
G01 X31.4835 Y12.6497
G01 X31.4571 Y12.6654
G01 X31.4316 Y12.6775
G01 X31.4015 Y12.6880
G01 X31.3753 Y12.6945
G01 X31.3486 Y12.6986
G01 X31.3193 Y12.7002
G01 X30.6918 Y12.7003
G01 X30.6612 Y12.6987
G01 X30.6309 Y12.6940
G01 X30.6047 Y12.6874
G01 X30.5793 Y12.6783
G01 X30.5504 Y12.6649
G01 X30.5251 Y12.6497
G01 X30.4996 Y12.6306
G01 X30.4797 Y12.6124
G01 X30.4615 Y12.5925
G01 X30.4424 Y12.5670
G01 X30.4267 Y12.5406
G01 X30.4138 Y12.5128
G01 X30.4047 Y12.4874
G01 X30.3981 Y12.4612
G01 X30.3932 Y12.4297
G01 X30.3918 Y12.4015
G01 X30.3918 Y11.1503
G01 X30.3931 Y11.1221
G01 X30.3976 Y11.0918
G01 X30.4055 Y11.0609
G01 X30.4146 Y11.0355
G01 X30.4261 Y11.0111
G01 X30.4424 Y10.9836
G01 X30.4599 Y10.9600
G01 X30.4814 Y10.9365
G01 X30.5015 Y10.9184
G01 X30.5231 Y10.9023
G01 X30.5504 Y10.8857
G00 Z2.0000
G00 X30.6333 Y10.1545
G01 F60.00
G01 Z-0.0000
G01 F120.00
G01 X30.6024 Y10.1466
G01 X30.5770 Y10.1375
G01 X30.5504 Y10.1249
G01 X30.5251 Y10.1097
G01 X30.5034 Y10.0937
G01 X30.4780 Y10.0707
G01 X30.4599 Y10.0506
G01 X30.4424 Y10.0270
G01 X30.4272 Y10.0017
G01 X30.4156 Y9.9774
G01 X30.4041 Y9.9450
G01 X30.3976 Y9.9188
G01 X30.3934 Y9.8909
G01 X30.3918 Y9.8603
G01 X30.3918 Y8.6091
G01 X30.3931 Y8.5826
G01 X30.3969 Y8.5552
G01 X30.4033 Y8.5282
G01 X30.4129 Y8.4998
G01 X30.4233 Y8.4766
G01 X30.4356 Y8.4544
G01 X30.4524 Y8.4295
G01 X30.4717 Y8.4065
G01 X30.4897 Y8.3886
G01 X30.5092 Y8.3723
G01 X30.5339 Y8.3552
G01 X30.5602 Y8.3408
G01 X30.5834 Y8.3306
G01 X30.6075 Y8.3224
G01 X30.6378 Y8.3152
G01 X30.6641 Y8.3116
G01 X30.6918 Y8.3103
G01 X31.3180 Y8.3103
G01 X31.3462 Y8.3117
G01 X31.3753 Y8.3161
G01 X31.4039 Y8.3232
G01 X31.4327 Y8.3336
G01 X31.4582 Y8.3457
G01 X31.4814 Y8.3595
G01 X31.5071 Y8.3784
G01 X31.5306 Y8.3999
G01 X31.5487 Y8.4200
G01 X31.5648 Y8.4416
G01 X31.5814 Y8.4689
G01 X31.5948 Y8.4978
G01 X31.6039 Y8.5232
G01 X31.6105 Y8.5494
G01 X31.6154 Y8.5809
G01 X31.6168 Y8.6103
G01 X31.6168 Y9.8615
G01 X31.6154 Y9.8897
G01 X31.6110 Y9.9188
G01 X31.6039 Y9.9474
G01 X31.5935 Y9.9762
G01 X31.5802 Y10.0039
G01 X31.5662 Y10.0270
G01 X31.5502 Y10.0487
G01 X31.5289 Y10.0724
G01 X31.5071 Y10.0922
G01 X31.4814 Y10.1111
G01 X31.4582 Y10.1249
G01 X31.4339 Y10.1365
G01 X31.4039 Y10.1474
G01 X31.3741 Y10.1548
G01 X31.3462 Y10.1589
G01 X31.3168 Y10.1603
G01 X30.6918 Y10.1603
G01 X30.6624 Y10.1589
G01 X30.6333 Y10.1545
G00 Z2.0000
G00 X43.4653 Y11.3015
G01 F60.00
G01 Z-0.0000
G01 F120.00
G01 X43.4344 Y11.2936
G01 X43.4090 Y11.2845
G01 X43.3824 Y11.2719
G01 X43.3571 Y11.2567
G01 X43.3354 Y11.2407
G01 X43.3100 Y11.2177
G01 X43.2919 Y11.1976
G01 X43.2744 Y11.1740
G01 X43.2592 Y11.1487
G01 X43.2476 Y11.1244
G01 X43.2361 Y11.0920
G01 X43.2296 Y11.0658
G01 X43.2254 Y11.0379
G01 X43.2238 Y11.0073
G01 X43.2238 Y9.7561
G01 X43.2251 Y9.7296
G01 X43.2289 Y9.7022
G01 X43.2353 Y9.6752
G01 X43.2449 Y9.6468
G01 X43.2553 Y9.6236
G01 X43.2676 Y9.6014
G01 X43.2844 Y9.5765
G01 X43.3037 Y9.5535
G01 X43.3217 Y9.5356
G01 X43.3412 Y9.5193
G01 X43.3659 Y9.5022
G01 X43.3922 Y9.4878
G01 X43.4154 Y9.4776
G01 X43.4395 Y9.4694
G01 X43.4698 Y9.4622
G01 X43.4961 Y9.4586
G01 X43.5238 Y9.4573
G01 X44.1500 Y9.4573
G01 X44.1782 Y9.4587
G01 X44.2073 Y9.4631
G01 X44.2359 Y9.4702
G01 X44.2647 Y9.4806
G01 X44.2902 Y9.4927
G01 X44.3134 Y9.5065
G01 X44.3391 Y9.5254
G01 X44.3626 Y9.5469
G01 X44.3807 Y9.5670
G01 X44.3968 Y9.5886
G01 X44.4134 Y9.6159
G01 X44.4268 Y9.6448
G01 X44.4359 Y9.6702
G01 X44.4425 Y9.6964
G01 X44.4474 Y9.7279
G01 X44.4488 Y9.7573
G01 X44.4488 Y11.0085
G01 X44.4474 Y11.0367
G01 X44.4430 Y11.0658
G01 X44.4359 Y11.0944
G01 X44.4255 Y11.1232
G01 X44.4122 Y11.1509
G01 X44.3982 Y11.1740
G01 X44.3822 Y11.1957
G01 X44.3609 Y11.2194
G01 X44.3391 Y11.2392
G01 X44.3134 Y11.2581
G01 X44.2902 Y11.2719
G01 X44.2659 Y11.2835
G01 X44.2359 Y11.2944
G01 X44.2061 Y11.3018
G01 X44.1782 Y11.3059
G01 X44.1488 Y11.3073
G01 X43.5238 Y11.3073
G01 X43.4944 Y11.3059
G01 X43.4653 Y11.3015
G00 Z2.0000
G00 X43.3824 Y12.0327
G01 F60.00
G01 Z-0.0000
G01 F120.00
G01 X43.4090 Y12.0201
G01 X43.4391 Y12.0096
G01 X43.4653 Y12.0031
G01 X43.4920 Y11.9990
G01 X43.5213 Y11.9974
G01 X44.1488 Y11.9973
G01 X44.1794 Y11.9989
G01 X44.2097 Y12.0036
G01 X44.2359 Y12.0102
G01 X44.2613 Y12.0193
G01 X44.2902 Y12.0327
G01 X44.3155 Y12.0479
G01 X44.3410 Y12.0670
G01 X44.3609 Y12.0852
G01 X44.3791 Y12.1051
G01 X44.3982 Y12.1306
G01 X44.4139 Y12.1570
G01 X44.4268 Y12.1848
G01 X44.4359 Y12.2102
G01 X44.4425 Y12.2364
G01 X44.4474 Y12.2679
G01 X44.4488 Y12.2961
G01 X44.4488 Y13.5473
G01 X44.4476 Y13.5738
G01 X44.4432 Y13.6047
G01 X44.4373 Y13.6294
G01 X44.4293 Y13.6535
G01 X44.4173 Y13.6810
G01 X44.4026 Y13.7072
G01 X44.3882 Y13.7281
G01 X44.3720 Y13.7477
G01 X44.3509 Y13.7690
G01 X44.3277 Y13.7881
G01 X44.3067 Y13.8024
G01 X44.2825 Y13.8158
G01 X44.2572 Y13.8270
G01 X44.2287 Y13.8364
G01 X44.2039 Y13.8422
G01 X44.1788 Y13.8458
G01 X44.1511 Y13.8472
G01 X43.5238 Y13.8473
G01 X43.4932 Y13.8457
G01 X43.4629 Y13.8410
G01 X43.4367 Y13.8344
G01 X43.4113 Y13.8253
G01 X43.3824 Y13.8119
G01 X43.3571 Y13.7967
G01 X43.3316 Y13.7776
G01 X43.3117 Y13.7594
G01 X43.2935 Y13.7395
G01 X43.2744 Y13.7140
G01 X43.2587 Y13.6876
G01 X43.2458 Y13.6598
G01 X43.2367 Y13.6344
G01 X43.2301 Y13.6082
G01 X43.2252 Y13.5767
G01 X43.2238 Y13.5485
G01 X43.2238 Y12.2973
G01 X43.2251 Y12.2691
G01 X43.2296 Y12.2388
G01 X43.2375 Y12.2079
G01 X43.2466 Y12.1825
G01 X43.2581 Y12.1581
G01 X43.2744 Y12.1306
G01 X43.2919 Y12.1070
G01 X43.3134 Y12.0835
G01 X43.3335 Y12.0654
G01 X43.3551 Y12.0493
G01 X43.3824 Y12.0327
G00 Z2.0000
G00 X46.3074 Y12.0327
G01 F60.00
G01 Z-0.0000
G01 F120.00
G01 X46.3340 Y12.0201
G01 X46.3641 Y12.0096
G01 X46.3903 Y12.0031
G01 X46.4170 Y11.9990
G01 X46.4463 Y11.9974
G01 X47.0738 Y11.9973
G01 X47.1044 Y11.9989
G01 X47.1347 Y12.0036
G01 X47.1609 Y12.0102
G01 X47.1863 Y12.0193
G01 X47.2152 Y12.0327
G01 X47.2405 Y12.0479
G01 X47.2660 Y12.0670
G01 X47.2859 Y12.0852
G01 X47.3041 Y12.1051
G01 X47.3232 Y12.1306
G01 X47.3389 Y12.1570
G01 X47.3518 Y12.1848
G01 X47.3609 Y12.2102
G01 X47.3675 Y12.2364
G01 X47.3724 Y12.2679
G01 X47.3738 Y12.2961
G01 X47.3738 Y13.5473
G01 X47.3726 Y13.5738
G01 X47.3682 Y13.6047
G01 X47.3623 Y13.6294
G01 X47.3543 Y13.6535
G01 X47.3423 Y13.6810
G01 X47.3276 Y13.7072
G01 X47.3132 Y13.7281
G01 X47.2970 Y13.7477
G01 X47.2759 Y13.7690
G01 X47.2527 Y13.7881
G01 X47.2317 Y13.8024
G01 X47.2075 Y13.8158
G01 X47.1822 Y13.8270
G01 X47.1537 Y13.8364
G01 X47.1289 Y13.8422
G01 X47.1038 Y13.8458
G01 X47.0761 Y13.8472
G01 X46.4488 Y13.8473
G01 X46.4182 Y13.8457
G01 X46.3879 Y13.8410
G01 X46.3617 Y13.8344
G01 X46.3363 Y13.8253
G01 X46.3074 Y13.8119
G01 X46.2821 Y13.7967
G01 X46.2566 Y13.7776
G01 X46.2367 Y13.7594
G01 X46.2185 Y13.7395
G01 X46.1994 Y13.7140
G01 X46.1837 Y13.6876
G01 X46.1708 Y13.6598
G01 X46.1617 Y13.6344
G01 X46.1551 Y13.6082
G01 X46.1502 Y13.5767
G01 X46.1488 Y13.5485
G01 X46.1488 Y12.2973
G01 X46.1501 Y12.2691
G01 X46.1546 Y12.2388
G01 X46.1625 Y12.2079
G01 X46.1716 Y12.1825
G01 X46.1831 Y12.1581
G01 X46.1994 Y12.1306
G01 X46.2169 Y12.1070
G01 X46.2384 Y12.0835
G01 X46.2585 Y12.0654
G01 X46.2801 Y12.0493
G01 X46.3074 Y12.0327
G00 Z2.0000
G00 X46.3903 Y11.3015
G01 F60.00
G01 Z-0.0000
G01 F120.00
G01 X46.3594 Y11.2936
G01 X46.3340 Y11.2845
G01 X46.3074 Y11.2719
G01 X46.2821 Y11.2567
G01 X46.2604 Y11.2407
G01 X46.2350 Y11.2177
G01 X46.2169 Y11.1976
G01 X46.1994 Y11.1740
G01 X46.1842 Y11.1487
G01 X46.1726 Y11.1244
G01 X46.1611 Y11.0920
G01 X46.1546 Y11.0658
G01 X46.1504 Y11.0379
G01 X46.1488 Y11.0073
G01 X46.1488 Y9.7561
G01 X46.1501 Y9.7296
G01 X46.1539 Y9.7022
G01 X46.1603 Y9.6752
G01 X46.1699 Y9.6468
G01 X46.1803 Y9.6236
G01 X46.1926 Y9.6014
G01 X46.2094 Y9.5765
G01 X46.2287 Y9.5535
G01 X46.2467 Y9.5356
G01 X46.2662 Y9.5193
G01 X46.2909 Y9.5022
G01 X46.3172 Y9.4878
G01 X46.3404 Y9.4776
G01 X46.3645 Y9.4694
G01 X46.3948 Y9.4622
G01 X46.4211 Y9.4586
G01 X46.4488 Y9.4573
G01 X47.0750 Y9.4573
G01 X47.1032 Y9.4587
G01 X47.1323 Y9.4631
G01 X47.1609 Y9.4702
G01 X47.1897 Y9.4806
G01 X47.2152 Y9.4927
G01 X47.2384 Y9.5065
G01 X47.2641 Y9.5254
G01 X47.2876 Y9.5469
G01 X47.3057 Y9.5670
G01 X47.3218 Y9.5886
G01 X47.3384 Y9.6159
G01 X47.3518 Y9.6448
G01 X47.3609 Y9.6702
G01 X47.3675 Y9.6964
G01 X47.3724 Y9.7279
G01 X47.3738 Y9.7573
G01 X47.3738 Y11.0085
G01 X47.3724 Y11.0367
G01 X47.3680 Y11.0658
G01 X47.3609 Y11.0944
G01 X47.3505 Y11.1232
G01 X47.3372 Y11.1509
G01 X47.3232 Y11.1740
G01 X47.3072 Y11.1957
G01 X47.2859 Y11.2194
G01 X47.2641 Y11.2392
G01 X47.2384 Y11.2581
G01 X47.2152 Y11.2719
G01 X47.1909 Y11.2835
G01 X47.1609 Y11.2944
G01 X47.1311 Y11.3018
G01 X47.1032 Y11.3059
G01 X47.0738 Y11.3073
G01 X46.4488 Y11.3073
G01 X46.4194 Y11.3059
G01 X46.3903 Y11.3015
G00 Z2.0000
G00 X46.3074 Y6.9527
G01 F60.00
G01 Z-0.0000
G01 F120.00
G01 X46.3340 Y6.9401
G01 X46.3641 Y6.9296
G01 X46.3903 Y6.9231
G01 X46.4170 Y6.9190
G01 X46.4463 Y6.9174
G01 X47.0738 Y6.9173
G01 X47.1044 Y6.9189
G01 X47.1347 Y6.9236
G01 X47.1609 Y6.9302
G01 X47.1863 Y6.9393
G01 X47.2152 Y6.9527
G01 X47.2405 Y6.9679
G01 X47.2660 Y6.9870
G01 X47.2859 Y7.0052
G01 X47.3041 Y7.0251
G01 X47.3232 Y7.0506
G01 X47.3389 Y7.0770
G01 X47.3518 Y7.1048
G01 X47.3609 Y7.1302
G01 X47.3675 Y7.1564
G01 X47.3724 Y7.1879
G01 X47.3738 Y7.2161
G01 X47.3738 Y8.4673
G01 X47.3726 Y8.4938
G01 X47.3682 Y8.5247
G01 X47.3623 Y8.5494
G01 X47.3543 Y8.5735
G01 X47.3423 Y8.6010
G01 X47.3276 Y8.6272
G01 X47.3132 Y8.6481
G01 X47.2970 Y8.6677
G01 X47.2759 Y8.6890
G01 X47.2527 Y8.7081
G01 X47.2317 Y8.7224
G01 X47.2075 Y8.7358
G01 X47.1822 Y8.7470
G01 X47.1537 Y8.7564
G01 X47.1289 Y8.7622
G01 X47.1038 Y8.7658
G01 X47.0761 Y8.7672
G01 X46.4488 Y8.7673
G01 X46.4182 Y8.7657
G01 X46.3879 Y8.7610
G01 X46.3617 Y8.7544
G01 X46.3363 Y8.7453
G01 X46.3074 Y8.7319
G01 X46.2821 Y8.7167
G01 X46.2566 Y8.6976
G01 X46.2367 Y8.6794
G01 X46.2185 Y8.6595
G01 X46.1994 Y8.6340
G01 X46.1837 Y8.6076
G01 X46.1708 Y8.5798
G01 X46.1617 Y8.5544
G01 X46.1551 Y8.5282
G01 X46.1502 Y8.4967
G01 X46.1488 Y8.4685
G01 X46.1488 Y7.2173
G01 X46.1501 Y7.1891
G01 X46.1546 Y7.1588
G01 X46.1625 Y7.1279
G01 X46.1716 Y7.1025
G01 X46.1831 Y7.0781
G01 X46.1994 Y7.0506
G01 X46.2169 Y7.0270
G01 X46.2384 Y7.0035
G01 X46.2585 Y6.9854
G01 X46.2801 Y6.9693
G01 X46.3074 Y6.9527
G00 Z2.0000
G00 X43.3824 Y6.9527
G01 F60.00
G01 Z-0.0000
G01 F120.00
G01 X43.4090 Y6.9401
G01 X43.4391 Y6.9296
G01 X43.4653 Y6.9231
G01 X43.4920 Y6.9190
G01 X43.5213 Y6.9174
G01 X44.1488 Y6.9173
G01 X44.1794 Y6.9189
G01 X44.2097 Y6.9236
G01 X44.2359 Y6.9302
G01 X44.2613 Y6.9393
G01 X44.2902 Y6.9527
G01 X44.3155 Y6.9679
G01 X44.3410 Y6.9870
G01 X44.3609 Y7.0052
G01 X44.3791 Y7.0251
G01 X44.3982 Y7.0506
G01 X44.4139 Y7.0770
G01 X44.4268 Y7.1048
G01 X44.4359 Y7.1302
G01 X44.4425 Y7.1564
G01 X44.4474 Y7.1879
G01 X44.4488 Y7.2161
G01 X44.4488 Y8.4673
G01 X44.4476 Y8.4938
G01 X44.4432 Y8.5247
G01 X44.4373 Y8.5494
G01 X44.4293 Y8.5735
G01 X44.4173 Y8.6010
G01 X44.4026 Y8.6272
G01 X44.3882 Y8.6481
G01 X44.3720 Y8.6677
G01 X44.3509 Y8.6890
G01 X44.3277 Y8.7081
G01 X44.3067 Y8.7224
G01 X44.2825 Y8.7358
G01 X44.2572 Y8.7470
G01 X44.2287 Y8.7564
G01 X44.2039 Y8.7622
G01 X44.1788 Y8.7658
G01 X44.1511 Y8.7672
G01 X43.5238 Y8.7673
G01 X43.4932 Y8.7657
G01 X43.4629 Y8.7610
G01 X43.4367 Y8.7544
G01 X43.4113 Y8.7453
G01 X43.3824 Y8.7319
G01 X43.3571 Y8.7167
G01 X43.3316 Y8.6976
G01 X43.3117 Y8.6794
G01 X43.2935 Y8.6595
G01 X43.2744 Y8.6340
G01 X43.2587 Y8.6076
G01 X43.2458 Y8.5798
G01 X43.2367 Y8.5544
G01 X43.2301 Y8.5282
G01 X43.2252 Y8.4967
G01 X43.2238 Y8.4685
G01 X43.2238 Y7.2173
G01 X43.2251 Y7.1891
G01 X43.2296 Y7.1588
G01 X43.2375 Y7.1279
G01 X43.2466 Y7.1025
G01 X43.2581 Y7.0781
G01 X43.2744 Y7.0506
G01 X43.2919 Y7.0270
G01 X43.3134 Y7.0035
G01 X43.3335 Y6.9854
G01 X43.3551 Y6.9693
G01 X43.3824 Y6.9527
G00 Z2.0000
G00 X43.4653 Y16.3815
G01 F60.00
G01 Z-0.0000
G01 F120.00
G01 X43.4344 Y16.3736
G01 X43.4090 Y16.3645
G01 X43.3824 Y16.3519
G01 X43.3571 Y16.3367
G01 X43.3354 Y16.3207
G01 X43.3100 Y16.2977
G01 X43.2919 Y16.2776
G01 X43.2744 Y16.2540
G01 X43.2592 Y16.2287
G01 X43.2476 Y16.2044
G01 X43.2361 Y16.1720
G01 X43.2296 Y16.1458
G01 X43.2254 Y16.1179
G01 X43.2238 Y16.0873
G01 X43.2238 Y14.8361
G01 X43.2251 Y14.8096
G01 X43.2289 Y14.7822
G01 X43.2353 Y14.7552
G01 X43.2449 Y14.7268
G01 X43.2553 Y14.7036
G01 X43.2676 Y14.6814
G01 X43.2844 Y14.6565
G01 X43.3037 Y14.6335
G01 X43.3217 Y14.6156
G01 X43.3412 Y14.5993
G01 X43.3659 Y14.5822
G01 X43.3922 Y14.5678
G01 X43.4154 Y14.5576
G01 X43.4395 Y14.5494
G01 X43.4698 Y14.5422
G01 X43.4961 Y14.5386
G01 X43.5238 Y14.5373
G01 X44.1500 Y14.5373
G01 X44.1782 Y14.5387
G01 X44.2073 Y14.5431
G01 X44.2359 Y14.5502
G01 X44.2647 Y14.5606
G01 X44.2902 Y14.5727
G01 X44.3134 Y14.5865
G01 X44.3391 Y14.6054
G01 X44.3626 Y14.6269
G01 X44.3807 Y14.6470
G01 X44.3968 Y14.6686
G01 X44.4134 Y14.6959
G01 X44.4268 Y14.7248
G01 X44.4359 Y14.7502
G01 X44.4425 Y14.7764
G01 X44.4474 Y14.8079
G01 X44.4488 Y14.8373
G01 X44.4488 Y16.0885
G01 X44.4474 Y16.1167
G01 X44.4430 Y16.1458
G01 X44.4359 Y16.1744
G01 X44.4255 Y16.2032
G01 X44.4122 Y16.2309
G01 X44.3982 Y16.2540
G01 X44.3822 Y16.2757
G01 X44.3609 Y16.2994
G01 X44.3391 Y16.3192
G01 X44.3134 Y16.3381
G01 X44.2902 Y16.3519
G01 X44.2659 Y16.3635
G01 X44.2359 Y16.3744
G01 X44.2061 Y16.3818
G01 X44.1782 Y16.3859
G01 X44.1488 Y16.3873
G01 X43.5238 Y16.3873
G01 X43.4944 Y16.3859
G01 X43.4653 Y16.3815
G00 Z2.0000
G00 X46.3903 Y16.3815
G01 F60.00
G01 Z-0.0000
G01 F120.00
G01 X46.3594 Y16.3736
G01 X46.3340 Y16.3645
G01 X46.3074 Y16.3519
G01 X46.2821 Y16.3367
G01 X46.2604 Y16.3207
G01 X46.2350 Y16.2977
G01 X46.2169 Y16.2776
G01 X46.1994 Y16.2540
G01 X46.1842 Y16.2287
G01 X46.1726 Y16.2044
G01 X46.1611 Y16.1720
G01 X46.1546 Y16.1458
G01 X46.1504 Y16.1179
G01 X46.1488 Y16.0873
G01 X46.1488 Y14.8361
G01 X46.1501 Y14.8096
G01 X46.1539 Y14.7822
G01 X46.1603 Y14.7552
G01 X46.1699 Y14.7268
G01 X46.1803 Y14.7036
G01 X46.1926 Y14.6814
G01 X46.2094 Y14.6565
G01 X46.2287 Y14.6335
G01 X46.2467 Y14.6156
G01 X46.2662 Y14.5993
G01 X46.2909 Y14.5822
G01 X46.3172 Y14.5678
G01 X46.3404 Y14.5576
G01 X46.3645 Y14.5494
G01 X46.3948 Y14.5422
G01 X46.4211 Y14.5386
G01 X46.4488 Y14.5373
G01 X47.0750 Y14.5373
G01 X47.1032 Y14.5387
G01 X47.1323 Y14.5431
G01 X47.1609 Y14.5502
G01 X47.1897 Y14.5606
G01 X47.2152 Y14.5727
G01 X47.2384 Y14.5865
G01 X47.2641 Y14.6054
G01 X47.2876 Y14.6269
G01 X47.3057 Y14.6470
G01 X47.3218 Y14.6686
G01 X47.3384 Y14.6959
G01 X47.3518 Y14.7248
G01 X47.3609 Y14.7502
G01 X47.3675 Y14.7764
G01 X47.3724 Y14.8079
G01 X47.3738 Y14.8373
G01 X47.3738 Y16.0885
G01 X47.3724 Y16.1167
G01 X47.3680 Y16.1458
G01 X47.3609 Y16.1744
G01 X47.3505 Y16.2032
G01 X47.3372 Y16.2309
G01 X47.3232 Y16.2540
G01 X47.3072 Y16.2757
G01 X47.2859 Y16.2994
G01 X47.2641 Y16.3192
G01 X47.2384 Y16.3381
G01 X47.2152 Y16.3519
G01 X47.1909 Y16.3635
G01 X47.1609 Y16.3744
G01 X47.1311 Y16.3818
G01 X47.1032 Y16.3859
G01 X47.0738 Y16.3873
G01 X46.4488 Y16.3873
G01 X46.4194 Y16.3859
G01 X46.3903 Y16.3815
G00 Z2.0000
G00 X45.1802 Y19.0197
G01 F60.00
G01 Z-0.0000
G01 F120.00
G01 X45.1788 Y18.9903
G01 X45.1788 Y17.7391
G01 X45.1802 Y17.7109
G01 X45.1841 Y17.6842
G01 X45.1917 Y17.6532
G01 X45.2016 Y17.6255
G01 X45.2131 Y17.6011
G01 X45.2301 Y17.5726
G01 X45.2469 Y17.5500
G01 X45.2684 Y17.5265
G01 X45.2885 Y17.5084
G01 X45.3101 Y17.4923
G01 X45.3352 Y17.4769
G01 X45.3640 Y17.4631
G01 X45.3917 Y17.4532
G01 X45.4203 Y17.4461
G01 X45.4506 Y17.4416
G01 X45.4788 Y17.4403
G01 X46.1038 Y17.4403
G01 X46.1308 Y17.4416
G01 X46.1623 Y17.4461
G01 X46.1932 Y17.4540
G01 X46.2186 Y17.4631
G01 X46.2430 Y17.4746
G01 X46.2715 Y17.4916
G01 X46.2960 Y17.5100
G01 X46.3159 Y17.5282
G01 X46.3341 Y17.5481
G01 X46.3532 Y17.5736
G01 X46.3684 Y17.5989
G01 X46.3810 Y17.6255
G01 X46.3915 Y17.6556
G01 X46.3980 Y17.6818
G01 X46.4021 Y17.7085
G01 X46.4037 Y17.7378
G01 X46.4037 Y18.9926
G01 X46.4025 Y19.0180
G01 X46.3987 Y19.0454
G01 X46.3923 Y19.0724
G01 X46.3843 Y19.0965
G01 X46.3713 Y19.1261
G01 X46.3589 Y19.1482
G01 X46.3439 Y19.1702
G01 X46.3255 Y19.1924
G01 X46.3059 Y19.2120
G01 X46.2846 Y19.2297
G01 X46.2597 Y19.2465
G01 X46.2375 Y19.2588
G01 X46.2100 Y19.2708
G01 X46.1837 Y19.2794
G01 X46.1589 Y19.2852
G01 X46.1338 Y19.2888
G01 X46.1038 Y19.2903
G01 X45.4788 Y19.2903
G01 X45.4482 Y19.2887
G01 X45.4203 Y19.2845
G01 X45.3917 Y19.2774
G01 X45.3640 Y19.2675
G01 X45.3396 Y19.2560
G01 X45.3101 Y19.2383
G01 X45.2885 Y19.2222
G01 X45.2667 Y19.2024
G01 X45.2469 Y19.1806
G01 X45.2308 Y19.1590
G01 X45.2131 Y19.1295
G01 X45.2016 Y19.1051
G01 X45.1917 Y19.0774
G01 X45.1846 Y19.0488
G01 X45.1802 Y19.0197
G00 Z2.0000
G00 X46.1662 Y21.5657
G01 F60.00
G01 Z-0.0000
G01 F120.00
G01 X46.1648 Y21.5363
G01 X46.1649 Y20.2840
G01 X46.1661 Y20.2586
G01 X46.1699 Y20.2312
G01 X46.1763 Y20.2042
G01 X46.1843 Y20.1801
G01 X46.1973 Y20.1505
G01 X46.2097 Y20.1284
G01 X46.2247 Y20.1064
G01 X46.2431 Y20.0842
G01 X46.2627 Y20.0646
G01 X46.2840 Y20.0469
G01 X46.3089 Y20.0301
G01 X46.3311 Y20.0178
G01 X46.3543 Y20.0074
G01 X46.3805 Y19.9984
G01 X46.4097 Y19.9914
G01 X46.4383 Y19.9875
G01 X46.4648 Y19.9863
G01 X47.0898 Y19.9863
G01 X47.1168 Y19.9876
G01 X47.1483 Y19.9921
G01 X47.1792 Y20.0000
G01 X47.2046 Y20.0091
G01 X47.2290 Y20.0206
G01 X47.2575 Y20.0376
G01 X47.2820 Y20.0560
G01 X47.3019 Y20.0742
G01 X47.3201 Y20.0941
G01 X47.3392 Y20.1196
G01 X47.3544 Y20.1449
G01 X47.3670 Y20.1715
G01 X47.3775 Y20.2016
G01 X47.3840 Y20.2278
G01 X47.3881 Y20.2545
G01 X47.3897 Y20.2838
G01 X47.3898 Y21.5375
G01 X47.3884 Y21.5657
G01 X47.3845 Y21.5924
G01 X47.3769 Y21.6234
G01 X47.3670 Y21.6511
G01 X47.3555 Y21.6755
G01 X47.3385 Y21.7040
G01 X47.3217 Y21.7266
G01 X47.3019 Y21.7484
G01 X47.2801 Y21.7682
G01 X47.2544 Y21.7871
G01 X47.2290 Y21.8020
G01 X47.2046 Y21.8135
G01 X47.1792 Y21.8226
G01 X47.1483 Y21.8305
G01 X47.1216 Y21.8346
G01 X47.0898 Y21.8363
G01 X46.4648 Y21.8363
G01 X46.4342 Y21.8347
G01 X46.4063 Y21.8305
G01 X46.3777 Y21.8234
G01 X46.3500 Y21.8135
G01 X46.3256 Y21.8020
G01 X46.2961 Y21.7843
G01 X46.2745 Y21.7682
G01 X46.2527 Y21.7484
G01 X46.2329 Y21.7266
G01 X46.2168 Y21.7050
G01 X46.1991 Y21.6755
G01 X46.1876 Y21.6511
G01 X46.1777 Y21.6234
G01 X46.1706 Y21.5948
G01 X46.1662 Y21.5657
G00 Z2.0000
G00 X47.5507 Y24.1057
G01 F60.00
G01 Z-0.0000
G01 F120.00
G01 X47.5493 Y24.0763
G01 X47.5493 Y22.8251
G01 X47.5507 Y22.7969
G01 X47.5546 Y22.7702
G01 X47.5622 Y22.7392
G01 X47.5721 Y22.7115
G01 X47.5836 Y22.6871
G01 X47.6006 Y22.6586
G01 X47.6174 Y22.6360
G01 X47.6389 Y22.6125
G01 X47.6590 Y22.5944
G01 X47.6806 Y22.5783
G01 X47.7057 Y22.5629
G01 X47.7345 Y22.5491
G01 X47.7622 Y22.5392
G01 X47.7908 Y22.5321
G01 X47.8211 Y22.5276
G01 X47.8493 Y22.5263
G01 X48.4743 Y22.5263
G01 X48.5013 Y22.5276
G01 X48.5328 Y22.5321
G01 X48.5637 Y22.5400
G01 X48.5891 Y22.5491
G01 X48.6135 Y22.5606
G01 X48.6420 Y22.5776
G01 X48.6665 Y22.5960
G01 X48.6864 Y22.6142
G01 X48.7046 Y22.6341
G01 X48.7237 Y22.6596
G01 X48.7389 Y22.6849
G01 X48.7515 Y22.7115
G01 X48.7620 Y22.7416
G01 X48.7685 Y22.7678
G01 X48.7726 Y22.7945
G01 X48.7742 Y22.8238
G01 X48.7742 Y24.0786
G01 X48.7730 Y24.1040
G01 X48.7692 Y24.1314
G01 X48.7628 Y24.1584
G01 X48.7548 Y24.1825
G01 X48.7418 Y24.2121
G01 X48.7294 Y24.2342
G01 X48.7144 Y24.2562
G01 X48.6960 Y24.2784
G01 X48.6764 Y24.2980
G01 X48.6551 Y24.3157
G01 X48.6302 Y24.3325
G01 X48.6080 Y24.3448
G01 X48.5805 Y24.3568
G01 X48.5542 Y24.3654
G01 X48.5294 Y24.3712
G01 X48.5043 Y24.3748
G01 X48.4743 Y24.3763
G01 X47.8493 Y24.3763
G01 X47.8187 Y24.3747
G01 X47.7908 Y24.3705
G01 X47.7622 Y24.3634
G01 X47.7345 Y24.3535
G01 X47.7101 Y24.3420
G01 X47.6806 Y24.3243
G01 X47.6590 Y24.3082
G01 X47.6372 Y24.2884
G01 X47.6174 Y24.2666
G01 X47.6013 Y24.2450
G01 X47.5836 Y24.2155
G01 X47.5721 Y24.1911
G01 X47.5622 Y24.1634
G01 X47.5551 Y24.1348
G01 X47.5507 Y24.1057
G00 Z2.0000
G00 X47.5432 Y26.6457
G01 F60.00
G01 Z-0.0000
G01 F120.00
G01 X47.5418 Y26.6163
G01 X47.5419 Y25.3640
G01 X47.5431 Y25.3386
G01 X47.5469 Y25.3112
G01 X47.5533 Y25.2842
G01 X47.5613 Y25.2601
G01 X47.5743 Y25.2305
G01 X47.5867 Y25.2084
G01 X47.6017 Y25.1864
G01 X47.6201 Y25.1642
G01 X47.6397 Y25.1446
G01 X47.6610 Y25.1269
G01 X47.6859 Y25.1101
G01 X47.7081 Y25.0978
G01 X47.7313 Y25.0874
G01 X47.7575 Y25.0784
G01 X47.7867 Y25.0714
G01 X47.8153 Y25.0675
G01 X47.8418 Y25.0663
G01 X48.4668 Y25.0663
G01 X48.4938 Y25.0676
G01 X48.5253 Y25.0721
G01 X48.5562 Y25.0800
G01 X48.5816 Y25.0891
G01 X48.6060 Y25.1006
G01 X48.6345 Y25.1176
G01 X48.6590 Y25.1360
G01 X48.6789 Y25.1542
G01 X48.6971 Y25.1741
G01 X48.7162 Y25.1996
G01 X48.7314 Y25.2249
G01 X48.7440 Y25.2515
G01 X48.7545 Y25.2816
G01 X48.7610 Y25.3078
G01 X48.7651 Y25.3345
G01 X48.7667 Y25.3638
G01 X48.7668 Y26.6175
G01 X48.7654 Y26.6457
G01 X48.7615 Y26.6724
G01 X48.7539 Y26.7034
G01 X48.7440 Y26.7311
G01 X48.7325 Y26.7555
G01 X48.7155 Y26.7840
G01 X48.6987 Y26.8066
G01 X48.6789 Y26.8284
G01 X48.6571 Y26.8482
G01 X48.6314 Y26.8671
G01 X48.6060 Y26.8820
G01 X48.5816 Y26.8935
G01 X48.5562 Y26.9026
G01 X48.5253 Y26.9105
G01 X48.4986 Y26.9146
G01 X48.4668 Y26.9163
G01 X47.8418 Y26.9163
G01 X47.8112 Y26.9147
G01 X47.7833 Y26.9105
G01 X47.7547 Y26.9034
G01 X47.7270 Y26.8935
G01 X47.7026 Y26.8820
G01 X47.6731 Y26.8643
G01 X47.6515 Y26.8482
G01 X47.6297 Y26.8284
G01 X47.6099 Y26.8066
G01 X47.5938 Y26.7850
G01 X47.5761 Y26.7555
G01 X47.5646 Y26.7311
G01 X47.5547 Y26.7034
G01 X47.5476 Y26.6748
G01 X47.5432 Y26.6457
G00 Z2.0000
G00 X50.4682 Y26.6457
G01 F60.00
G01 Z-0.0000
G01 F120.00
G01 X50.4668 Y26.6163
G01 X50.4669 Y25.3640
G01 X50.4681 Y25.3386
G01 X50.4719 Y25.3112
G01 X50.4783 Y25.2842
G01 X50.4863 Y25.2601
G01 X50.4993 Y25.2305
G01 X50.5117 Y25.2084
G01 X50.5267 Y25.1864
G01 X50.5451 Y25.1642
G01 X50.5647 Y25.1446
G01 X50.5860 Y25.1269
G01 X50.6109 Y25.1101
G01 X50.6331 Y25.0978
G01 X50.6563 Y25.0874
G01 X50.6825 Y25.0784
G01 X50.7117 Y25.0714
G01 X50.7403 Y25.0675
G01 X50.7668 Y25.0663
G01 X51.3918 Y25.0663
G01 X51.4188 Y25.0676
G01 X51.4503 Y25.0721
G01 X51.4812 Y25.0800
G01 X51.5066 Y25.0891
G01 X51.5310 Y25.1006
G01 X51.5595 Y25.1176
G01 X51.5840 Y25.1360
G01 X51.6039 Y25.1542
G01 X51.6221 Y25.1741
G01 X51.6412 Y25.1996
G01 X51.6564 Y25.2249
G01 X51.6690 Y25.2515
G01 X51.6795 Y25.2816
G01 X51.6860 Y25.3078
G01 X51.6901 Y25.3345
G01 X51.6917 Y25.3638
G01 X51.6918 Y26.6175
G01 X51.6904 Y26.6457
G01 X51.6865 Y26.6724
G01 X51.6789 Y26.7034
G01 X51.6690 Y26.7311
G01 X51.6575 Y26.7555
G01 X51.6405 Y26.7840
G01 X51.6237 Y26.8066
G01 X51.6039 Y26.8284
G01 X51.5821 Y26.8482
G01 X51.5564 Y26.8671
G01 X51.5310 Y26.8820
G01 X51.5066 Y26.8935
G01 X51.4812 Y26.9026
G01 X51.4503 Y26.9105
G01 X51.4236 Y26.9146
G01 X51.3918 Y26.9163
G01 X50.7668 Y26.9163
G01 X50.7362 Y26.9147
G01 X50.7083 Y26.9105
G01 X50.6797 Y26.9034
G01 X50.6520 Y26.8935
G01 X50.6276 Y26.8820
G01 X50.5981 Y26.8643
G01 X50.5765 Y26.8482
G01 X50.5547 Y26.8284
G01 X50.5349 Y26.8066
G01 X50.5188 Y26.7850
G01 X50.5011 Y26.7555
G01 X50.4896 Y26.7311
G01 X50.4797 Y26.7034
G01 X50.4726 Y26.6748
G01 X50.4682 Y26.6457
G00 Z2.0000
G00 X50.4757 Y24.1057
G01 F60.00
G01 Z-0.0000
G01 F120.00
G01 X50.4743 Y24.0763
G01 X50.4743 Y22.8251
G01 X50.4757 Y22.7969
G01 X50.4796 Y22.7702
G01 X50.4872 Y22.7392
G01 X50.4971 Y22.7115
G01 X50.5086 Y22.6871
G01 X50.5256 Y22.6586
G01 X50.5424 Y22.6360
G01 X50.5639 Y22.6125
G01 X50.5840 Y22.5944
G01 X50.6056 Y22.5783
G01 X50.6307 Y22.5629
G01 X50.6595 Y22.5491
G01 X50.6872 Y22.5392
G01 X50.7158 Y22.5321
G01 X50.7461 Y22.5276
G01 X50.7743 Y22.5263
G01 X51.3993 Y22.5263
G01 X51.4263 Y22.5276
G01 X51.4578 Y22.5321
G01 X51.4887 Y22.5400
G01 X51.5141 Y22.5491
G01 X51.5385 Y22.5606
G01 X51.5670 Y22.5776
G01 X51.5915 Y22.5960
G01 X51.6114 Y22.6142
G01 X51.6296 Y22.6341
G01 X51.6487 Y22.6596
G01 X51.6639 Y22.6849
G01 X51.6765 Y22.7115
G01 X51.6870 Y22.7416
G01 X51.6935 Y22.7678
G01 X51.6976 Y22.7945
G01 X51.6992 Y22.8238
G01 X51.6992 Y24.0786
G01 X51.6980 Y24.1040
G01 X51.6942 Y24.1314
G01 X51.6878 Y24.1584
G01 X51.6798 Y24.1825
G01 X51.6668 Y24.2121
G01 X51.6544 Y24.2342
G01 X51.6394 Y24.2562
G01 X51.6210 Y24.2784
G01 X51.6014 Y24.2980
G01 X51.5801 Y24.3157
G01 X51.5552 Y24.3325
G01 X51.5330 Y24.3448
G01 X51.5055 Y24.3568
G01 X51.4792 Y24.3654
G01 X51.4544 Y24.3712
G01 X51.4293 Y24.3748
G01 X51.3993 Y24.3763
G01 X50.7743 Y24.3763
G01 X50.7437 Y24.3747
G01 X50.7158 Y24.3705
G01 X50.6872 Y24.3634
G01 X50.6595 Y24.3535
G01 X50.6351 Y24.3420
G01 X50.6056 Y24.3243
G01 X50.5840 Y24.3082
G01 X50.5622 Y24.2884
G01 X50.5424 Y24.2666
G01 X50.5263 Y24.2450
G01 X50.5086 Y24.2155
G01 X50.4971 Y24.1911
G01 X50.4872 Y24.1634
G01 X50.4801 Y24.1348
G01 X50.4757 Y24.1057
G00 Z2.0000
G00 X49.0912 Y21.5657
G01 F60.00
G01 Z-0.0000
G01 F120.00
G01 X49.0898 Y21.5363
G01 X49.0899 Y20.2840
G01 X49.0911 Y20.2586
G01 X49.0949 Y20.2312
G01 X49.1013 Y20.2042
G01 X49.1093 Y20.1801
G01 X49.1223 Y20.1505
G01 X49.1347 Y20.1284
G01 X49.1497 Y20.1064
G01 X49.1681 Y20.0842
G01 X49.1877 Y20.0646
G01 X49.2090 Y20.0469
G01 X49.2339 Y20.0301
G01 X49.2561 Y20.0178
G01 X49.2793 Y20.0074
G01 X49.3055 Y19.9984
G01 X49.3347 Y19.9914
G01 X49.3633 Y19.9875
G01 X49.3898 Y19.9863
G01 X50.0148 Y19.9863
G01 X50.0418 Y19.9876
G01 X50.0733 Y19.9921
G01 X50.1042 Y20.0000
G01 X50.1296 Y20.0091
G01 X50.1540 Y20.0206
G01 X50.1825 Y20.0376
G01 X50.2070 Y20.0560
G01 X50.2269 Y20.0742
G01 X50.2451 Y20.0941
G01 X50.2642 Y20.1196
G01 X50.2794 Y20.1449
G01 X50.2920 Y20.1715
G01 X50.3025 Y20.2016
G01 X50.3090 Y20.2278
G01 X50.3131 Y20.2545
G01 X50.3147 Y20.2838
G01 X50.3148 Y21.5375
G01 X50.3134 Y21.5657
G01 X50.3095 Y21.5924
G01 X50.3019 Y21.6234
G01 X50.2920 Y21.6511
G01 X50.2805 Y21.6755
G01 X50.2635 Y21.7040
G01 X50.2467 Y21.7266
G01 X50.2269 Y21.7484
G01 X50.2051 Y21.7682
G01 X50.1794 Y21.7871
G01 X50.1540 Y21.8020
G01 X50.1296 Y21.8135
G01 X50.1042 Y21.8226
G01 X50.0733 Y21.8305
G01 X50.0466 Y21.8346
G01 X50.0148 Y21.8363
G01 X49.3898 Y21.8363
G01 X49.3592 Y21.8347
G01 X49.3313 Y21.8305
G01 X49.3027 Y21.8234
G01 X49.2750 Y21.8135
G01 X49.2506 Y21.8020
G01 X49.2211 Y21.7843
G01 X49.1995 Y21.7682
G01 X49.1777 Y21.7484
G01 X49.1579 Y21.7266
G01 X49.1418 Y21.7050
G01 X49.1241 Y21.6755
G01 X49.1126 Y21.6511
G01 X49.1027 Y21.6234
G01 X49.0956 Y21.5948
G01 X49.0912 Y21.5657
G00 Z2.0000
G00 X48.1052 Y19.0197
G01 F60.00
G01 Z-0.0000
G01 F120.00
G01 X48.1038 Y18.9903
G01 X48.1038 Y17.7391
G01 X48.1052 Y17.7109
G01 X48.1091 Y17.6842
G01 X48.1167 Y17.6532
G01 X48.1266 Y17.6255
G01 X48.1381 Y17.6011
G01 X48.1551 Y17.5726
G01 X48.1719 Y17.5500
G01 X48.1934 Y17.5265
G01 X48.2135 Y17.5084
G01 X48.2351 Y17.4923
G01 X48.2602 Y17.4769
G01 X48.2890 Y17.4631
G01 X48.3167 Y17.4532
G01 X48.3453 Y17.4461
G01 X48.3756 Y17.4416
G01 X48.4038 Y17.4403
G01 X49.0288 Y17.4403
G01 X49.0558 Y17.4416
G01 X49.0873 Y17.4461
G01 X49.1182 Y17.4540
G01 X49.1436 Y17.4631
G01 X49.1680 Y17.4746
G01 X49.1965 Y17.4916
G01 X49.2210 Y17.5100
G01 X49.2409 Y17.5282
G01 X49.2591 Y17.5481
G01 X49.2782 Y17.5736
G01 X49.2934 Y17.5989
G01 X49.3060 Y17.6255
G01 X49.3165 Y17.6556
G01 X49.3230 Y17.6818
G01 X49.3271 Y17.7085
G01 X49.3287 Y17.7378
G01 X49.3287 Y18.9926
G01 X49.3275 Y19.0180
G01 X49.3237 Y19.0454
G01 X49.3173 Y19.0724
G01 X49.3093 Y19.0965
G01 X49.2963 Y19.1261
G01 X49.2839 Y19.1482
G01 X49.2689 Y19.1702
G01 X49.2505 Y19.1924
G01 X49.2309 Y19.2120
G01 X49.2096 Y19.2297
G01 X49.1847 Y19.2465
G01 X49.1625 Y19.2588
G01 X49.1350 Y19.2708
G01 X49.1087 Y19.2794
G01 X49.0839 Y19.2852
G01 X49.0588 Y19.2888
G01 X49.0288 Y19.2903
G01 X48.4038 Y19.2903
G01 X48.3732 Y19.2887
G01 X48.3453 Y19.2845
G01 X48.3167 Y19.2774
G01 X48.2890 Y19.2675
G01 X48.2646 Y19.2560
G01 X48.2351 Y19.2383
G01 X48.2135 Y19.2222
G01 X48.1917 Y19.2024
G01 X48.1719 Y19.1806
G01 X48.1558 Y19.1590
G01 X48.1381 Y19.1295
G01 X48.1266 Y19.1051
G01 X48.1167 Y19.0774
G01 X48.1096 Y19.0488
G01 X48.1052 Y19.0197
G00 Z2.0000
G00 X56.6200 Y18.6463
G01 F60.00
G01 Z-0.0000
G01 F120.00
G01 X56.6965 Y18.6100
G01 X56.7751 Y18.5819
G01 X56.8560 Y18.5616
G01 X56.9397 Y18.5493
G01 X57.0218 Y18.5453
G01 X57.8230 Y18.5453
G01 X57.9051 Y18.5494
G01 X57.9852 Y18.5612
G01 X58.0685 Y18.5819
G01 X58.1493 Y18.6110
G01 X58.2225 Y18.6457
G01 X58.2930 Y18.6879
G01 X58.3610 Y18.7382
G01 X58.4228 Y18.7943
G01 X58.4789 Y18.8561
G01 X58.5285 Y18.9231
G01 X58.5714 Y18.9946
G01 X58.6071 Y19.0700
G01 X58.6352 Y19.1486
G01 X58.6555 Y19.2295
G01 X58.6677 Y19.3120
G01 X58.6718 Y19.3953
G01 X58.6677 Y19.4786
G01 X58.6555 Y19.5611
G01 X58.6352 Y19.6420
G01 X58.6071 Y19.7206
G01 X58.5714 Y19.7960
G01 X58.5292 Y19.8665
G01 X58.4789 Y19.9345
G01 X58.4228 Y19.9963
G01 X58.3610 Y20.0524
G01 X58.2920 Y20.1034
G01 X58.2203 Y20.1460
G01 X58.1471 Y20.1806
G01 X58.0709 Y20.2079
G01 X57.9876 Y20.2290
G01 X57.9063 Y20.2411
G01 X57.8218 Y20.2453
G01 X57.0218 Y20.2453
G01 X56.9385 Y20.2412
G01 X56.8560 Y20.2290
G01 X56.7727 Y20.2079
G01 X56.6965 Y20.1806
G01 X56.6233 Y20.1460
G01 X56.5506 Y20.1027
G01 X56.4826 Y20.0524
G01 X56.4191 Y19.9946
G01 X56.3647 Y19.9345
G01 X56.3165 Y19.8695
G01 X56.2722 Y19.7960
G01 X56.2356 Y19.7183
G01 X56.2084 Y19.6420
G01 X56.1887 Y19.5635
G01 X56.1759 Y19.4786
G01 X56.1719 Y19.3928
G01 X56.1759 Y19.3120
G01 X56.1877 Y19.2319
G01 X56.2084 Y19.1486
G01 X56.2375 Y19.0678
G01 X56.2722 Y18.9946
G01 X56.3137 Y18.9251
G01 X56.3647 Y18.8561
G01 X56.4225 Y18.7926
G01 X56.4826 Y18.7382
G01 X56.5476 Y18.6900
G01 X56.6200 Y18.6463
G00 Z2.0000
G00 X56.6200 Y21.1863
G01 F60.00
G01 Z-0.0000
G01 F120.00
G01 X56.6965 Y21.1500
G01 X56.7751 Y21.1219
G01 X56.8560 Y21.1016
G01 X56.9397 Y21.0893
G01 X57.0218 Y21.0853
G01 X57.8230 Y21.0853
G01 X57.9051 Y21.0894
G01 X57.9852 Y21.1012
G01 X58.0685 Y21.1219
G01 X58.1493 Y21.1510
G01 X58.2225 Y21.1857
G01 X58.2930 Y21.2279
G01 X58.3610 Y21.2782
G01 X58.4228 Y21.3343
G01 X58.4789 Y21.3961
G01 X58.5285 Y21.4631
G01 X58.5714 Y21.5346
G01 X58.6071 Y21.6100
G01 X58.6352 Y21.6886
G01 X58.6555 Y21.7695
G01 X58.6677 Y21.8520
G01 X58.6718 Y21.9353
G01 X58.6677 Y22.0186
G01 X58.6555 Y22.1011
G01 X58.6352 Y22.1820
G01 X58.6071 Y22.2606
G01 X58.5714 Y22.3360
G01 X58.5292 Y22.4065
G01 X58.4789 Y22.4745
G01 X58.4228 Y22.5363
G01 X58.3610 Y22.5924
G01 X58.2920 Y22.6434
G01 X58.2203 Y22.6860
G01 X58.1471 Y22.7206
G01 X58.0709 Y22.7479
G01 X57.9876 Y22.7690
G01 X57.9063 Y22.7811
G01 X57.8218 Y22.7853
G01 X57.0218 Y22.7853
G01 X56.9385 Y22.7812
G01 X56.8560 Y22.7690
G01 X56.7727 Y22.7479
G01 X56.6965 Y22.7206
G01 X56.6233 Y22.6860
G01 X56.5506 Y22.6427
G01 X56.4826 Y22.5924
G01 X56.4191 Y22.5346
G01 X56.3647 Y22.4745
G01 X56.3165 Y22.4095
G01 X56.2722 Y22.3360
G01 X56.2356 Y22.2583
G01 X56.2084 Y22.1820
G01 X56.1887 Y22.1035
G01 X56.1759 Y22.0186
G01 X56.1719 Y21.9328
G01 X56.1759 Y21.8520
G01 X56.1877 Y21.7719
G01 X56.2084 Y21.6886
G01 X56.2375 Y21.6078
G01 X56.2722 Y21.5346
G01 X56.3137 Y21.4651
G01 X56.3647 Y21.3961
G01 X56.4225 Y21.3326
G01 X56.4826 Y21.2782
G01 X56.5476 Y21.2300
G01 X56.6200 Y21.1863
G00 Z2.0000
G00 X56.6200 Y16.1063
G01 F60.00
G01 Z-0.0000
G01 F120.00
G01 X56.6965 Y16.0700
G01 X56.7751 Y16.0419
G01 X56.8560 Y16.0216
G01 X56.9397 Y16.0093
G01 X57.0218 Y16.0053
G01 X57.8230 Y16.0053
G01 X57.9051 Y16.0094
G01 X57.9852 Y16.0212
G01 X58.0685 Y16.0419
G01 X58.1493 Y16.0710
G01 X58.2225 Y16.1057
G01 X58.2930 Y16.1479
G01 X58.3610 Y16.1982
G01 X58.4228 Y16.2543
G01 X58.4789 Y16.3161
G01 X58.5285 Y16.3831
G01 X58.5714 Y16.4546
G01 X58.6071 Y16.5300
G01 X58.6352 Y16.6086
G01 X58.6555 Y16.6895
G01 X58.6677 Y16.7720
G01 X58.6718 Y16.8553
G01 X58.6677 Y16.9386
G01 X58.6555 Y17.0211
G01 X58.6352 Y17.1020
G01 X58.6071 Y17.1806
G01 X58.5714 Y17.2560
G01 X58.5292 Y17.3265
G01 X58.4789 Y17.3945
G01 X58.4228 Y17.4563
G01 X58.3610 Y17.5124
G01 X58.2920 Y17.5634
G01 X58.2203 Y17.6060
G01 X58.1471 Y17.6406
G01 X58.0709 Y17.6679
G01 X57.9876 Y17.6890
G01 X57.9063 Y17.7011
G01 X57.8218 Y17.7053
G01 X57.0218 Y17.7053
G01 X56.9385 Y17.7012
G01 X56.8560 Y17.6890
G01 X56.7727 Y17.6679
G01 X56.6965 Y17.6406
G01 X56.6233 Y17.6060
G01 X56.5506 Y17.5627
G01 X56.4826 Y17.5124
G01 X56.4191 Y17.4546
G01 X56.3647 Y17.3945
G01 X56.3165 Y17.3295
G01 X56.2722 Y17.2560
G01 X56.2356 Y17.1783
G01 X56.2084 Y17.1020
G01 X56.1887 Y17.0235
G01 X56.1759 Y16.9386
G01 X56.1719 Y16.8528
G01 X56.1759 Y16.7720
G01 X56.1877 Y16.6919
G01 X56.2084 Y16.6086
G01 X56.2375 Y16.5278
G01 X56.2722 Y16.4546
G01 X56.3137 Y16.3851
G01 X56.3647 Y16.3161
G01 X56.4225 Y16.2526
G01 X56.4826 Y16.1982
G01 X56.5476 Y16.1500
G01 X56.6200 Y16.1063
G00 Z2.0000
G00 X56.6200 Y13.5663
G01 F60.00
G01 Z-0.0000
G01 F120.00
G01 X56.6965 Y13.5300
G01 X56.7751 Y13.5019
G01 X56.8560 Y13.4816
G01 X56.9397 Y13.4693
G01 X57.0218 Y13.4653
G01 X57.8230 Y13.4653
G01 X57.9051 Y13.4694
G01 X57.9852 Y13.4812
G01 X58.0685 Y13.5019
G01 X58.1493 Y13.5310
G01 X58.2225 Y13.5657
G01 X58.2930 Y13.6079
G01 X58.3610 Y13.6582
G01 X58.4228 Y13.7143
G01 X58.4789 Y13.7761
G01 X58.5285 Y13.8431
G01 X58.5714 Y13.9146
G01 X58.6071 Y13.9900
G01 X58.6352 Y14.0686
G01 X58.6555 Y14.1495
G01 X58.6677 Y14.2320
G01 X58.6718 Y14.3153
G01 X58.6677 Y14.3986
G01 X58.6555 Y14.4811
G01 X58.6352 Y14.5620
G01 X58.6071 Y14.6406
G01 X58.5714 Y14.7160
G01 X58.5292 Y14.7865
G01 X58.4789 Y14.8545
G01 X58.4228 Y14.9163
G01 X58.3610 Y14.9724
G01 X58.2920 Y15.0234
G01 X58.2203 Y15.0660
G01 X58.1471 Y15.1006
G01 X58.0709 Y15.1279
G01 X57.9876 Y15.1490
G01 X57.9063 Y15.1611
G01 X57.8218 Y15.1653
G01 X57.0218 Y15.1653
G01 X56.9385 Y15.1612
G01 X56.8560 Y15.1490
G01 X56.7727 Y15.1279
G01 X56.6965 Y15.1006
G01 X56.6233 Y15.0660
G01 X56.5506 Y15.0227
G01 X56.4826 Y14.9724
G01 X56.4191 Y14.9146
G01 X56.3647 Y14.8545
G01 X56.3165 Y14.7895
G01 X56.2722 Y14.7160
G01 X56.2356 Y14.6383
G01 X56.2084 Y14.5620
G01 X56.1887 Y14.4835
G01 X56.1759 Y14.3986
G01 X56.1719 Y14.3128
G01 X56.1759 Y14.2320
G01 X56.1877 Y14.1519
G01 X56.2084 Y14.0686
G01 X56.2375 Y13.9878
G01 X56.2722 Y13.9146
G01 X56.3137 Y13.8451
G01 X56.3647 Y13.7761
G01 X56.4225 Y13.7126
G01 X56.4826 Y13.6582
G01 X56.5476 Y13.6100
G01 X56.6200 Y13.5663
G00 Z2.0000
G00 X56.6200 Y11.0263
G01 F60.00
G01 Z-0.0000
G01 F120.00
G01 X56.6965 Y10.9900
G01 X56.7751 Y10.9619
G01 X56.8560 Y10.9416
G01 X56.9397 Y10.9293
G01 X57.0218 Y10.9253
G01 X57.8230 Y10.9253
G01 X57.9051 Y10.9294
G01 X57.9852 Y10.9412
G01 X58.0685 Y10.9619
G01 X58.1493 Y10.9910
G01 X58.2225 Y11.0257
G01 X58.2930 Y11.0679
G01 X58.3610 Y11.1182
G01 X58.4228 Y11.1743
G01 X58.4789 Y11.2361
G01 X58.5285 Y11.3031
G01 X58.5714 Y11.3746
G01 X58.6071 Y11.4500
G01 X58.6352 Y11.5286
G01 X58.6555 Y11.6095
G01 X58.6677 Y11.6920
G01 X58.6718 Y11.7753
G01 X58.6677 Y11.8586
G01 X58.6555 Y11.9411
G01 X58.6352 Y12.0220
G01 X58.6071 Y12.1006
G01 X58.5714 Y12.1760
G01 X58.5292 Y12.2465
G01 X58.4789 Y12.3145
G01 X58.4228 Y12.3763
G01 X58.3610 Y12.4324
G01 X58.2920 Y12.4834
G01 X58.2203 Y12.5260
G01 X58.1471 Y12.5606
G01 X58.0709 Y12.5879
G01 X57.9876 Y12.6090
G01 X57.9063 Y12.6211
G01 X57.8218 Y12.6253
G01 X57.0218 Y12.6253
G01 X56.9385 Y12.6212
G01 X56.8560 Y12.6090
G01 X56.7727 Y12.5879
G01 X56.6965 Y12.5606
G01 X56.6233 Y12.5260
G01 X56.5506 Y12.4827
G01 X56.4826 Y12.4324
G01 X56.4191 Y12.3746
G01 X56.3647 Y12.3145
G01 X56.3165 Y12.2495
G01 X56.2722 Y12.1760
G01 X56.2356 Y12.0983
G01 X56.2084 Y12.0220
G01 X56.1887 Y11.9435
G01 X56.1759 Y11.8586
G01 X56.1719 Y11.7728
G01 X56.1759 Y11.6920
G01 X56.1877 Y11.6119
G01 X56.2084 Y11.5286
G01 X56.2375 Y11.4478
G01 X56.2722 Y11.3746
G01 X56.3137 Y11.3051
G01 X56.3647 Y11.2361
G01 X56.4225 Y11.1726
G01 X56.4826 Y11.1182
G01 X56.5476 Y11.0700
G01 X56.6200 Y11.0263
G00 Z2.0000
G00 X56.6200 Y8.4863
G01 F60.00
G01 Z-0.0000
G01 F120.00
G01 X56.6965 Y8.4500
G01 X56.7751 Y8.4219
G01 X56.8560 Y8.4016
G01 X56.9397 Y8.3893
G01 X57.0218 Y8.3853
G01 X57.8230 Y8.3853
G01 X57.9051 Y8.3894
G01 X57.9852 Y8.4012
G01 X58.0685 Y8.4219
G01 X58.1493 Y8.4510
G01 X58.2225 Y8.4857
G01 X58.2930 Y8.5279
G01 X58.3610 Y8.5782
G01 X58.4228 Y8.6343
G01 X58.4789 Y8.6961
G01 X58.5285 Y8.7631
G01 X58.5714 Y8.8346
G01 X58.6071 Y8.9100
G01 X58.6352 Y8.9886
G01 X58.6555 Y9.0695
G01 X58.6677 Y9.1520
G01 X58.6718 Y9.2353
G01 X58.6677 Y9.3186
G01 X58.6555 Y9.4011
G01 X58.6352 Y9.4820
G01 X58.6071 Y9.5606
G01 X58.5714 Y9.6360
G01 X58.5292 Y9.7065
G01 X58.4789 Y9.7745
G01 X58.4228 Y9.8363
G01 X58.3610 Y9.8924
G01 X58.2920 Y9.9434
G01 X58.2203 Y9.9860
G01 X58.1471 Y10.0206
G01 X58.0709 Y10.0479
G01 X57.9876 Y10.0690
G01 X57.9063 Y10.0811
G01 X57.8218 Y10.0853
G01 X57.0218 Y10.0853
G01 X56.9385 Y10.0812
G01 X56.8560 Y10.0690
G01 X56.7727 Y10.0479
G01 X56.6965 Y10.0206
G01 X56.6233 Y9.9860
G01 X56.5506 Y9.9427
G01 X56.4826 Y9.8924
G01 X56.4191 Y9.8346
G01 X56.3647 Y9.7745
G01 X56.3165 Y9.7095
G01 X56.2722 Y9.6360
G01 X56.2356 Y9.5583
G01 X56.2084 Y9.4820
G01 X56.1887 Y9.4035
G01 X56.1759 Y9.3186
G01 X56.1719 Y9.2328
G01 X56.1759 Y9.1520
G01 X56.1877 Y9.0719
G01 X56.2084 Y8.9886
G01 X56.2375 Y8.9078
G01 X56.2722 Y8.8346
G01 X56.3137 Y8.7651
G01 X56.3647 Y8.6961
G01 X56.4225 Y8.6326
G01 X56.4826 Y8.5782
G01 X56.5476 Y8.5300
G01 X56.6200 Y8.4863
G00 Z2.0000
G00 X56.6200 Y5.9463
G01 F60.00
G01 Z-0.0000
G01 F120.00
G01 X56.6965 Y5.9100
G01 X56.7751 Y5.8819
G01 X56.8560 Y5.8616
G01 X56.9397 Y5.8493
G01 X57.0218 Y5.8453
G01 X57.8230 Y5.8453
G01 X57.9051 Y5.8494
G01 X57.9852 Y5.8612
G01 X58.0685 Y5.8819
G01 X58.1493 Y5.9110
G01 X58.2225 Y5.9457
G01 X58.2930 Y5.9879
G01 X58.3610 Y6.0382
G01 X58.4228 Y6.0943
G01 X58.4789 Y6.1561
G01 X58.5285 Y6.2231
G01 X58.5714 Y6.2946
G01 X58.6071 Y6.3700
G01 X58.6352 Y6.4486
G01 X58.6555 Y6.5295
G01 X58.6677 Y6.6120
G01 X58.6718 Y6.6953
G01 X58.6677 Y6.7786
G01 X58.6555 Y6.8611
G01 X58.6352 Y6.9420
G01 X58.6071 Y7.0206
G01 X58.5714 Y7.0960
G01 X58.5292 Y7.1665
G01 X58.4789 Y7.2345
G01 X58.4228 Y7.2963
G01 X58.3610 Y7.3524
G01 X58.2920 Y7.4034
G01 X58.2203 Y7.4460
G01 X58.1471 Y7.4806
G01 X58.0709 Y7.5079
G01 X57.9876 Y7.5290
G01 X57.9063 Y7.5411
G01 X57.8218 Y7.5453
G01 X57.0218 Y7.5453
G01 X56.9385 Y7.5412
G01 X56.8560 Y7.5290
G01 X56.7727 Y7.5079
G01 X56.6965 Y7.4806
G01 X56.6233 Y7.4460
G01 X56.5506 Y7.4027
G01 X56.4826 Y7.3524
G01 X56.4191 Y7.2946
G01 X56.3647 Y7.2345
G01 X56.3165 Y7.1695
G01 X56.2722 Y7.0960
G01 X56.2356 Y7.0183
G01 X56.2084 Y6.9420
G01 X56.1887 Y6.8635
G01 X56.1759 Y6.7786
G01 X56.1719 Y6.6928
G01 X56.1759 Y6.6120
G01 X56.1877 Y6.5319
G01 X56.2084 Y6.4486
G01 X56.2375 Y6.3678
G01 X56.2722 Y6.2946
G01 X56.3137 Y6.2251
G01 X56.3647 Y6.1561
G01 X56.4225 Y6.0926
G01 X56.4826 Y6.0382
G01 X56.5476 Y5.9900
G01 X56.6200 Y5.9463
G00 Z2.0000
G00 X56.2120 Y3.3063
G01 F60.00
G01 Z-0.0000
G01 F120.00
G01 X56.2218 Y3.3053
G01 X58.6218 Y3.3053
G01 X58.6291 Y3.3058
G01 X58.6363 Y3.3075
G01 X58.6432 Y3.3101
G01 X58.6496 Y3.3137
G01 X58.6545 Y3.3174
G01 X58.6588 Y3.3217
G01 X58.6627 Y3.3265
G01 X58.6659 Y3.3317
G01 X58.6684 Y3.3373
G01 X58.6703 Y3.3432
G01 X58.6714 Y3.3492
G01 X58.6718 Y3.3553
G01 X58.6718 Y4.9553
G01 X58.6713 Y4.9626
G01 X58.6696 Y4.9698
G01 X58.6670 Y4.9767
G01 X58.6634 Y4.9831
G01 X58.6597 Y4.9880
G01 X58.6554 Y4.9923
G01 X58.6506 Y4.9962
G01 X58.6454 Y4.9994
G01 X58.6398 Y5.0019
G01 X58.6339 Y5.0038
G01 X58.6279 Y5.0049
G01 X58.6218 Y5.0053
G01 X56.2218 Y5.0053
G01 X56.2145 Y5.0048
G01 X56.2073 Y5.0031
G01 X56.2004 Y5.0005
G01 X56.1940 Y4.9969
G01 X56.1891 Y4.9932
G01 X56.1848 Y4.9889
G01 X56.1809 Y4.9841
G01 X56.1777 Y4.9789
G01 X56.1752 Y4.9733
G01 X56.1733 Y4.9674
G01 X56.1722 Y4.9614
G01 X56.1718 Y4.9565
G01 X56.1718 Y3.3553
G01 X56.1725 Y3.3468
G01 X56.1747 Y3.3385
G01 X56.1783 Y3.3307
G01 X56.1831 Y3.3236
G01 X56.1891 Y3.3174
G01 X56.1961 Y3.3124
G01 X56.2038 Y3.3087
G01 X56.2120 Y3.3063
G00 Z2.0000
G00 X66.7800 Y3.4063
G01 F60.00
G01 Z-0.0000
G01 F120.00
G01 X66.8565 Y3.3700
G01 X66.9351 Y3.3419
G01 X67.0160 Y3.3216
G01 X67.0997 Y3.3093
G01 X67.1818 Y3.3053
G01 X67.9830 Y3.3053
G01 X68.0651 Y3.3094
G01 X68.1452 Y3.3212
G01 X68.2285 Y3.3419
G01 X68.3093 Y3.3710
G01 X68.3825 Y3.4057
G01 X68.4530 Y3.4479
G01 X68.5210 Y3.4982
G01 X68.5828 Y3.5543
G01 X68.6389 Y3.6161
G01 X68.6885 Y3.6831
G01 X68.7314 Y3.7546
G01 X68.7671 Y3.8300
G01 X68.7952 Y3.9086
G01 X68.8155 Y3.9895
G01 X68.8277 Y4.0720
G01 X68.8318 Y4.1553
G01 X68.8277 Y4.2386
G01 X68.8155 Y4.3211
G01 X68.7952 Y4.4020
G01 X68.7671 Y4.4806
G01 X68.7314 Y4.5560
G01 X68.6892 Y4.6265
G01 X68.6389 Y4.6945
G01 X68.5828 Y4.7563
G01 X68.5210 Y4.8124
G01 X68.4520 Y4.8634
G01 X68.3803 Y4.9060
G01 X68.3071 Y4.9406
G01 X68.2309 Y4.9679
G01 X68.1476 Y4.9890
G01 X68.0663 Y5.0011
G01 X67.9818 Y5.0053
G01 X67.1818 Y5.0053
G01 X67.0985 Y5.0012
G01 X67.0160 Y4.9890
G01 X66.9327 Y4.9679
G01 X66.8565 Y4.9406
G01 X66.7833 Y4.9060
G01 X66.7106 Y4.8627
G01 X66.6426 Y4.8124
G01 X66.5791 Y4.7546
G01 X66.5247 Y4.6945
G01 X66.4765 Y4.6295
G01 X66.4322 Y4.5560
G01 X66.3956 Y4.4783
G01 X66.3684 Y4.4020
G01 X66.3487 Y4.3235
G01 X66.3359 Y4.2386
G01 X66.3319 Y4.1528
G01 X66.3359 Y4.0720
G01 X66.3477 Y3.9919
G01 X66.3684 Y3.9086
G01 X66.3975 Y3.8278
G01 X66.4322 Y3.7546
G01 X66.4737 Y3.6851
G01 X66.5247 Y3.6161
G01 X66.5825 Y3.5526
G01 X66.6426 Y3.4982
G01 X66.7076 Y3.4500
G01 X66.7800 Y3.4063
G00 Z2.0000
G00 X66.7800 Y5.9463
G01 F60.00
G01 Z-0.0000
G01 F120.00
G01 X66.8565 Y5.9100
G01 X66.9351 Y5.8819
G01 X67.0160 Y5.8616
G01 X67.0997 Y5.8493
G01 X67.1818 Y5.8453
G01 X67.9830 Y5.8453
G01 X68.0651 Y5.8494
G01 X68.1452 Y5.8612
G01 X68.2285 Y5.8819
G01 X68.3093 Y5.9110
G01 X68.3825 Y5.9457
G01 X68.4530 Y5.9879
G01 X68.5210 Y6.0382
G01 X68.5828 Y6.0943
G01 X68.6389 Y6.1561
G01 X68.6885 Y6.2231
G01 X68.7314 Y6.2946
G01 X68.7671 Y6.3700
G01 X68.7952 Y6.4486
G01 X68.8155 Y6.5295
G01 X68.8277 Y6.6120
G01 X68.8318 Y6.6953
G01 X68.8277 Y6.7786
G01 X68.8155 Y6.8611
G01 X68.7952 Y6.9420
G01 X68.7671 Y7.0206
G01 X68.7314 Y7.0960
G01 X68.6892 Y7.1665
G01 X68.6389 Y7.2345
G01 X68.5828 Y7.2963
G01 X68.5210 Y7.3524
G01 X68.4520 Y7.4034
G01 X68.3803 Y7.4460
G01 X68.3071 Y7.4806
G01 X68.2309 Y7.5079
G01 X68.1476 Y7.5290
G01 X68.0663 Y7.5411
G01 X67.9818 Y7.5453
G01 X67.1818 Y7.5453
G01 X67.0985 Y7.5412
G01 X67.0160 Y7.5290
G01 X66.9327 Y7.5079
G01 X66.8565 Y7.4806
G01 X66.7833 Y7.4460
G01 X66.7106 Y7.4027
G01 X66.6426 Y7.3524
G01 X66.5791 Y7.2946
G01 X66.5247 Y7.2345
G01 X66.4765 Y7.1695
G01 X66.4322 Y7.0960
G01 X66.3956 Y7.0183
G01 X66.3684 Y6.9420
G01 X66.3487 Y6.8635
G01 X66.3359 Y6.7786
G01 X66.3319 Y6.6928
G01 X66.3359 Y6.6120
G01 X66.3477 Y6.5319
G01 X66.3684 Y6.4486
G01 X66.3975 Y6.3678
G01 X66.4322 Y6.2946
G01 X66.4737 Y6.2251
G01 X66.5247 Y6.1561
G01 X66.5825 Y6.0926
G01 X66.6426 Y6.0382
G01 X66.7076 Y5.9900
G01 X66.7800 Y5.9463
G00 Z2.0000
G00 X66.7800 Y8.4863
G01 F60.00
G01 Z-0.0000
G01 F120.00
G01 X66.8565 Y8.4500
G01 X66.9351 Y8.4219
G01 X67.0160 Y8.4016
G01 X67.0997 Y8.3893
G01 X67.1818 Y8.3853
G01 X67.9830 Y8.3853
G01 X68.0651 Y8.3894
G01 X68.1452 Y8.4012
G01 X68.2285 Y8.4219
G01 X68.3093 Y8.4510
G01 X68.3825 Y8.4857
G01 X68.4530 Y8.5279
G01 X68.5210 Y8.5782
G01 X68.5828 Y8.6343
G01 X68.6389 Y8.6961
G01 X68.6885 Y8.7631
G01 X68.7314 Y8.8346
G01 X68.7671 Y8.9100
G01 X68.7952 Y8.9886
G01 X68.8155 Y9.0695
G01 X68.8277 Y9.1520
G01 X68.8318 Y9.2353
G01 X68.8277 Y9.3186
G01 X68.8155 Y9.4011
G01 X68.7952 Y9.4820
G01 X68.7671 Y9.5606
G01 X68.7314 Y9.6360
G01 X68.6892 Y9.7065
G01 X68.6389 Y9.7745
G01 X68.5828 Y9.8363
G01 X68.5210 Y9.8924
G01 X68.4520 Y9.9434
G01 X68.3803 Y9.9860
G01 X68.3071 Y10.0206
G01 X68.2309 Y10.0479
G01 X68.1476 Y10.0690
G01 X68.0663 Y10.0811
G01 X67.9818 Y10.0853
G01 X67.1818 Y10.0853
G01 X67.0985 Y10.0812
G01 X67.0160 Y10.0690
G01 X66.9327 Y10.0479
G01 X66.8565 Y10.0206
G01 X66.7833 Y9.9860
G01 X66.7106 Y9.9427
G01 X66.6426 Y9.8924
G01 X66.5791 Y9.8346
G01 X66.5247 Y9.7745
G01 X66.4765 Y9.7095
G01 X66.4322 Y9.6360
G01 X66.3956 Y9.5583
G01 X66.3684 Y9.4820
G01 X66.3487 Y9.4035
G01 X66.3359 Y9.3186
G01 X66.3319 Y9.2328
G01 X66.3359 Y9.1520
G01 X66.3477 Y9.0719
G01 X66.3684 Y8.9886
G01 X66.3975 Y8.9078
G01 X66.4322 Y8.8346
G01 X66.4737 Y8.7651
G01 X66.5247 Y8.6961
G01 X66.5825 Y8.6326
G01 X66.6426 Y8.5782
G01 X66.7076 Y8.5300
G01 X66.7800 Y8.4863
G00 Z2.0000
G00 X66.7800 Y11.0263
G01 F60.00
G01 Z-0.0000
G01 F120.00
G01 X66.8565 Y10.9900
G01 X66.9351 Y10.9619
G01 X67.0160 Y10.9416
G01 X67.0997 Y10.9293
G01 X67.1818 Y10.9253
G01 X67.9830 Y10.9253
G01 X68.0651 Y10.9294
G01 X68.1452 Y10.9412
G01 X68.2285 Y10.9619
G01 X68.3093 Y10.9910
G01 X68.3825 Y11.0257
G01 X68.4530 Y11.0679
G01 X68.5210 Y11.1182
G01 X68.5828 Y11.1743
G01 X68.6389 Y11.2361
G01 X68.6885 Y11.3031
G01 X68.7314 Y11.3746
G01 X68.7671 Y11.4500
G01 X68.7952 Y11.5286
G01 X68.8155 Y11.6095
G01 X68.8277 Y11.6920
G01 X68.8318 Y11.7753
G01 X68.8277 Y11.8586
G01 X68.8155 Y11.9411
G01 X68.7952 Y12.0220
G01 X68.7671 Y12.1006
G01 X68.7314 Y12.1760
G01 X68.6892 Y12.2465
G01 X68.6389 Y12.3145
G01 X68.5828 Y12.3763
G01 X68.5210 Y12.4324
G01 X68.4520 Y12.4834
G01 X68.3803 Y12.5260
G01 X68.3071 Y12.5606
G01 X68.2309 Y12.5879
G01 X68.1476 Y12.6090
G01 X68.0663 Y12.6211
G01 X67.9818 Y12.6253
G01 X67.1818 Y12.6253
G01 X67.0985 Y12.6212
G01 X67.0160 Y12.6090
G01 X66.9327 Y12.5879
G01 X66.8565 Y12.5606
G01 X66.7833 Y12.5260
G01 X66.7106 Y12.4827
G01 X66.6426 Y12.4324
G01 X66.5791 Y12.3746
G01 X66.5247 Y12.3145
G01 X66.4765 Y12.2495
G01 X66.4322 Y12.1760
G01 X66.3956 Y12.0983
G01 X66.3684 Y12.0220
G01 X66.3487 Y11.9435
G01 X66.3359 Y11.8586
G01 X66.3319 Y11.7728
G01 X66.3359 Y11.6920
G01 X66.3477 Y11.6119
G01 X66.3684 Y11.5286
G01 X66.3975 Y11.4478
G01 X66.4322 Y11.3746
G01 X66.4737 Y11.3051
G01 X66.5247 Y11.2361
G01 X66.5825 Y11.1726
G01 X66.6426 Y11.1182
G01 X66.7076 Y11.0700
G01 X66.7800 Y11.0263
G00 Z2.0000
G00 X66.7800 Y13.5663
G01 F60.00
G01 Z-0.0000
G01 F120.00
G01 X66.8565 Y13.5300
G01 X66.9351 Y13.5019
G01 X67.0160 Y13.4816
G01 X67.0997 Y13.4693
G01 X67.1818 Y13.4653
G01 X67.9830 Y13.4653
G01 X68.0651 Y13.4694
G01 X68.1452 Y13.4812
G01 X68.2285 Y13.5019
G01 X68.3093 Y13.5310
G01 X68.3825 Y13.5657
G01 X68.4530 Y13.6079
G01 X68.5210 Y13.6582
G01 X68.5828 Y13.7143
G01 X68.6389 Y13.7761
G01 X68.6885 Y13.8431
G01 X68.7314 Y13.9146
G01 X68.7671 Y13.9900
G01 X68.7952 Y14.0686
G01 X68.8155 Y14.1495
G01 X68.8277 Y14.2320
G01 X68.8318 Y14.3153
G01 X68.8277 Y14.3986
G01 X68.8155 Y14.4811
G01 X68.7952 Y14.5620
G01 X68.7671 Y14.6406
G01 X68.7314 Y14.7160
G01 X68.6892 Y14.7865
G01 X68.6389 Y14.8545
G01 X68.5828 Y14.9163
G01 X68.5210 Y14.9724
G01 X68.4520 Y15.0234
G01 X68.3803 Y15.0660
G01 X68.3071 Y15.1006
G01 X68.2309 Y15.1279
G01 X68.1476 Y15.1490
G01 X68.0663 Y15.1611
G01 X67.9818 Y15.1653
G01 X67.1818 Y15.1653
G01 X67.0985 Y15.1612
G01 X67.0160 Y15.1490
G01 X66.9327 Y15.1279
G01 X66.8565 Y15.1006
G01 X66.7833 Y15.0660
G01 X66.7106 Y15.0227
G01 X66.6426 Y14.9724
G01 X66.5791 Y14.9146
G01 X66.5247 Y14.8545
G01 X66.4765 Y14.7895
G01 X66.4322 Y14.7160
G01 X66.3956 Y14.6383
G01 X66.3684 Y14.5620
G01 X66.3487 Y14.4835
G01 X66.3359 Y14.3986
G01 X66.3319 Y14.3128
G01 X66.3359 Y14.2320
G01 X66.3477 Y14.1519
G01 X66.3684 Y14.0686
G01 X66.3975 Y13.9878
G01 X66.4322 Y13.9146
G01 X66.4737 Y13.8451
G01 X66.5247 Y13.7761
G01 X66.5825 Y13.7126
G01 X66.6426 Y13.6582
G01 X66.7076 Y13.6100
G01 X66.7800 Y13.5663
G00 Z2.0000
G00 X66.7800 Y16.1063
G01 F60.00
G01 Z-0.0000
G01 F120.00
G01 X66.8565 Y16.0700
G01 X66.9351 Y16.0419
G01 X67.0160 Y16.0216
G01 X67.0997 Y16.0093
G01 X67.1818 Y16.0053
G01 X67.9830 Y16.0053
G01 X68.0651 Y16.0094
G01 X68.1452 Y16.0212
G01 X68.2285 Y16.0419
G01 X68.3093 Y16.0710
G01 X68.3825 Y16.1057
G01 X68.4530 Y16.1479
G01 X68.5210 Y16.1982
G01 X68.5828 Y16.2543
G01 X68.6389 Y16.3161
G01 X68.6885 Y16.3831
G01 X68.7314 Y16.4546
G01 X68.7671 Y16.5300
G01 X68.7952 Y16.6086
G01 X68.8155 Y16.6895
G01 X68.8277 Y16.7720
G01 X68.8318 Y16.8553
G01 X68.8277 Y16.9386
G01 X68.8155 Y17.0211
G01 X68.7952 Y17.1020
G01 X68.7671 Y17.1806
G01 X68.7314 Y17.2560
G01 X68.6892 Y17.3265
G01 X68.6389 Y17.3945
G01 X68.5828 Y17.4563
G01 X68.5210 Y17.5124
G01 X68.4520 Y17.5634
G01 X68.3803 Y17.6060
G01 X68.3071 Y17.6406
G01 X68.2309 Y17.6679
G01 X68.1476 Y17.6890
G01 X68.0663 Y17.7011
G01 X67.9818 Y17.7053
G01 X67.1818 Y17.7053
G01 X67.0985 Y17.7012
G01 X67.0160 Y17.6890
G01 X66.9327 Y17.6679
G01 X66.8565 Y17.6406
G01 X66.7833 Y17.6060
G01 X66.7106 Y17.5627
G01 X66.6426 Y17.5124
G01 X66.5791 Y17.4546
G01 X66.5247 Y17.3945
G01 X66.4765 Y17.3295
G01 X66.4322 Y17.2560
G01 X66.3956 Y17.1783
G01 X66.3684 Y17.1020
G01 X66.3487 Y17.0235
G01 X66.3359 Y16.9386
G01 X66.3319 Y16.8528
G01 X66.3359 Y16.7720
G01 X66.3477 Y16.6919
G01 X66.3684 Y16.6086
G01 X66.3975 Y16.5278
G01 X66.4322 Y16.4546
G01 X66.4737 Y16.3851
G01 X66.5247 Y16.3161
G01 X66.5825 Y16.2526
G01 X66.6426 Y16.1982
G01 X66.7076 Y16.1500
G01 X66.7800 Y16.1063
G00 Z2.0000
G00 X66.7800 Y18.6463
G01 F60.00
G01 Z-0.0000
G01 F120.00
G01 X66.8565 Y18.6100
G01 X66.9351 Y18.5819
G01 X67.0160 Y18.5616
G01 X67.0997 Y18.5493
G01 X67.1818 Y18.5453
G01 X67.9830 Y18.5453
G01 X68.0651 Y18.5494
G01 X68.1452 Y18.5612
G01 X68.2285 Y18.5819
G01 X68.3093 Y18.6110
G01 X68.3825 Y18.6457
G01 X68.4530 Y18.6879
G01 X68.5210 Y18.7382
G01 X68.5828 Y18.7943
G01 X68.6389 Y18.8561
G01 X68.6885 Y18.9231
G01 X68.7314 Y18.9946
G01 X68.7671 Y19.0700
G01 X68.7952 Y19.1486
G01 X68.8155 Y19.2295
G01 X68.8277 Y19.3120
G01 X68.8318 Y19.3953
G01 X68.8277 Y19.4786
G01 X68.8155 Y19.5611
G01 X68.7952 Y19.6420
G01 X68.7671 Y19.7206
G01 X68.7314 Y19.7960
G01 X68.6892 Y19.8665
G01 X68.6389 Y19.9345
G01 X68.5828 Y19.9963
G01 X68.5210 Y20.0524
G01 X68.4520 Y20.1034
G01 X68.3803 Y20.1460
G01 X68.3071 Y20.1806
G01 X68.2309 Y20.2079
G01 X68.1476 Y20.2290
G01 X68.0663 Y20.2411
G01 X67.9818 Y20.2453
G01 X67.1818 Y20.2453
G01 X67.0985 Y20.2412
G01 X67.0160 Y20.2290
G01 X66.9327 Y20.2079
G01 X66.8565 Y20.1806
G01 X66.7833 Y20.1460
G01 X66.7106 Y20.1027
G01 X66.6426 Y20.0524
G01 X66.5791 Y19.9946
G01 X66.5247 Y19.9345
G01 X66.4765 Y19.8695
G01 X66.4322 Y19.7960
G01 X66.3956 Y19.7183
G01 X66.3684 Y19.6420
G01 X66.3487 Y19.5635
G01 X66.3359 Y19.4786
G01 X66.3319 Y19.3928
G01 X66.3359 Y19.3120
G01 X66.3477 Y19.2319
G01 X66.3684 Y19.1486
G01 X66.3975 Y19.0678
G01 X66.4322 Y18.9946
G01 X66.4737 Y18.9251
G01 X66.5247 Y18.8561
G01 X66.5825 Y18.7926
G01 X66.6426 Y18.7382
G01 X66.7076 Y18.6900
G01 X66.7800 Y18.6463
G00 Z2.0000
G00 X66.7800 Y21.1863
G01 F60.00
G01 Z-0.0000
G01 F120.00
G01 X66.8565 Y21.1500
G01 X66.9351 Y21.1219
G01 X67.0160 Y21.1016
G01 X67.0997 Y21.0893
G01 X67.1818 Y21.0853
G01 X67.9830 Y21.0853
G01 X68.0651 Y21.0894
G01 X68.1452 Y21.1012
G01 X68.2285 Y21.1219
G01 X68.3093 Y21.1510
G01 X68.3825 Y21.1857
G01 X68.4530 Y21.2279
G01 X68.5210 Y21.2782
G01 X68.5828 Y21.3343
G01 X68.6389 Y21.3961
G01 X68.6885 Y21.4631
G01 X68.7314 Y21.5346
G01 X68.7671 Y21.6100
G01 X68.7952 Y21.6886
G01 X68.8155 Y21.7695
G01 X68.8277 Y21.8520
G01 X68.8318 Y21.9353
G01 X68.8277 Y22.0186
G01 X68.8155 Y22.1011
G01 X68.7952 Y22.1820
G01 X68.7671 Y22.2606
G01 X68.7314 Y22.3360
G01 X68.6892 Y22.4065
G01 X68.6389 Y22.4745
G01 X68.5828 Y22.5363
G01 X68.5210 Y22.5924
G01 X68.4520 Y22.6434
G01 X68.3803 Y22.6860
G01 X68.3071 Y22.7206
G01 X68.2309 Y22.7479
G01 X68.1476 Y22.7690
G01 X68.0663 Y22.7811
G01 X67.9818 Y22.7853
G01 X67.1818 Y22.7853
G01 X67.0985 Y22.7812
G01 X67.0160 Y22.7690
G01 X66.9327 Y22.7479
G01 X66.8565 Y22.7206
G01 X66.7833 Y22.6860
G01 X66.7106 Y22.6427
G01 X66.6426 Y22.5924
G01 X66.5791 Y22.5346
G01 X66.5247 Y22.4745
G01 X66.4765 Y22.4095
G01 X66.4322 Y22.3360
G01 X66.3956 Y22.2583
G01 X66.3684 Y22.1820
G01 X66.3487 Y22.1035
G01 X66.3359 Y22.0186
G01 X66.3319 Y21.9328
G01 X66.3359 Y21.8520
G01 X66.3477 Y21.7719
G01 X66.3684 Y21.6886
G01 X66.3975 Y21.6078
G01 X66.4322 Y21.5346
G01 X66.4737 Y21.4651
G01 X66.5247 Y21.3961
G01 X66.5825 Y21.3326
G01 X66.6426 Y21.2782
G01 X66.7076 Y21.2300
G01 X66.7800 Y21.1863
G00 Z2.0000
G00 X59.5542 Y31.6957
G01 F60.00
G01 Z-0.0000
G01 F120.00
G01 X59.5528 Y31.6663
G01 X59.5528 Y30.4151
G01 X59.5542 Y30.3869
G01 X59.5581 Y30.3602
G01 X59.5657 Y30.3292
G01 X59.5756 Y30.3015
G01 X59.5871 Y30.2771
G01 X59.6041 Y30.2486
G01 X59.6209 Y30.2260
G01 X59.6424 Y30.2025
G01 X59.6625 Y30.1844
G01 X59.6841 Y30.1683
G01 X59.7092 Y30.1529
G01 X59.7380 Y30.1391
G01 X59.7657 Y30.1292
G01 X59.7943 Y30.1221
G01 X59.8246 Y30.1176
G01 X59.8528 Y30.1163
G01 X60.4778 Y30.1163
G01 X60.5048 Y30.1176
G01 X60.5363 Y30.1221
G01 X60.5672 Y30.1300
G01 X60.5926 Y30.1391
G01 X60.6170 Y30.1506
G01 X60.6455 Y30.1676
G01 X60.6700 Y30.1860
G01 X60.6899 Y30.2042
G01 X60.7081 Y30.2241
G01 X60.7272 Y30.2496
G01 X60.7424 Y30.2749
G01 X60.7550 Y30.3015
G01 X60.7655 Y30.3316
G01 X60.7720 Y30.3578
G01 X60.7761 Y30.3845
G01 X60.7777 Y30.4138
G01 X60.7777 Y31.6686
G01 X60.7765 Y31.6940
G01 X60.7727 Y31.7214
G01 X60.7663 Y31.7484
G01 X60.7583 Y31.7725
G01 X60.7453 Y31.8021
G01 X60.7329 Y31.8242
G01 X60.7179 Y31.8462
G01 X60.6995 Y31.8684
G01 X60.6799 Y31.8880
G01 X60.6586 Y31.9057
G01 X60.6337 Y31.9225
G01 X60.6115 Y31.9348
G01 X60.5840 Y31.9468
G01 X60.5577 Y31.9554
G01 X60.5329 Y31.9612
G01 X60.5078 Y31.9648
G01 X60.4778 Y31.9663
G01 X59.8528 Y31.9663
G01 X59.8222 Y31.9647
G01 X59.7943 Y31.9605
G01 X59.7657 Y31.9534
G01 X59.7380 Y31.9435
G01 X59.7136 Y31.9320
G01 X59.6841 Y31.9143
G01 X59.6625 Y31.8982
G01 X59.6407 Y31.8784
G01 X59.6209 Y31.8566
G01 X59.6048 Y31.8350
G01 X59.5871 Y31.8055
G01 X59.5756 Y31.7811
G01 X59.5657 Y31.7534
G01 X59.5586 Y31.7248
G01 X59.5542 Y31.6957
G00 Z2.0000
G00 X56.6292 Y31.6957
G01 F60.00
G01 Z-0.0000
G01 F120.00
G01 X56.6278 Y31.6663
G01 X56.6278 Y30.4151
G01 X56.6292 Y30.3869
G01 X56.6331 Y30.3602
G01 X56.6407 Y30.3292
G01 X56.6506 Y30.3015
G01 X56.6621 Y30.2771
G01 X56.6791 Y30.2486
G01 X56.6959 Y30.2260
G01 X56.7174 Y30.2025
G01 X56.7375 Y30.1844
G01 X56.7591 Y30.1683
G01 X56.7842 Y30.1529
G01 X56.8130 Y30.1391
G01 X56.8407 Y30.1292
G01 X56.8693 Y30.1221
G01 X56.8996 Y30.1176
G01 X56.9278 Y30.1163
G01 X57.5528 Y30.1163
G01 X57.5798 Y30.1176
G01 X57.6113 Y30.1221
G01 X57.6422 Y30.1300
G01 X57.6676 Y30.1391
G01 X57.6920 Y30.1506
G01 X57.7205 Y30.1676
G01 X57.7450 Y30.1860
G01 X57.7649 Y30.2042
G01 X57.7831 Y30.2241
G01 X57.8022 Y30.2496
G01 X57.8174 Y30.2749
G01 X57.8300 Y30.3015
G01 X57.8405 Y30.3316
G01 X57.8470 Y30.3578
G01 X57.8511 Y30.3845
G01 X57.8527 Y30.4138
G01 X57.8527 Y31.6686
G01 X57.8515 Y31.6940
G01 X57.8477 Y31.7214
G01 X57.8413 Y31.7484
G01 X57.8333 Y31.7725
G01 X57.8203 Y31.8021
G01 X57.8079 Y31.8242
G01 X57.7929 Y31.8462
G01 X57.7745 Y31.8684
G01 X57.7549 Y31.8880
G01 X57.7336 Y31.9057
G01 X57.7087 Y31.9225
G01 X57.6865 Y31.9348
G01 X57.6590 Y31.9468
G01 X57.6327 Y31.9554
G01 X57.6079 Y31.9612
G01 X57.5828 Y31.9648
G01 X57.5528 Y31.9663
G01 X56.9278 Y31.9663
G01 X56.8972 Y31.9647
G01 X56.8693 Y31.9605
G01 X56.8407 Y31.9534
G01 X56.8130 Y31.9435
G01 X56.7886 Y31.9320
G01 X56.7591 Y31.9143
G01 X56.7375 Y31.8982
G01 X56.7157 Y31.8784
G01 X56.6959 Y31.8566
G01 X56.6798 Y31.8350
G01 X56.6621 Y31.8055
G01 X56.6506 Y31.7811
G01 X56.6407 Y31.7534
G01 X56.6336 Y31.7248
G01 X56.6292 Y31.6957
G00 Z2.0000
G00 X55.9721 Y36.6120
G01 F60.00
G01 Z-0.0000
G01 F120.00
G01 X56.0597 Y36.5705
G01 X56.1521 Y36.5376
G01 X56.2426 Y36.5150
G01 X56.3348 Y36.5013
G01 X56.4328 Y36.4963
G01 X57.6308 Y36.4963
G01 X57.7251 Y36.5009
G01 X57.8210 Y36.5150
G01 X57.9138 Y36.5383
G01 X58.0039 Y36.5705
G01 X58.0904 Y36.6114
G01 X58.1725 Y36.6606
G01 X58.2493 Y36.7176
G01 X58.3202 Y36.7819
G01 X58.3845 Y36.8528
G01 X58.4415 Y36.9296
G01 X58.4907 Y37.0117
G01 X58.5316 Y37.0982
G01 X58.5638 Y37.1883
G01 X58.5871 Y37.2811
G01 X58.6011 Y37.3757
G01 X58.6058 Y37.4713
G01 X58.6011 Y37.5669
G01 X58.5871 Y37.6615
G01 X58.5638 Y37.7543
G01 X58.5316 Y37.8444
G01 X58.4907 Y37.9309
G01 X58.4415 Y38.0130
G01 X58.3829 Y38.0917
G01 X58.3185 Y38.1624
G01 X58.2493 Y38.2250
G01 X58.1745 Y38.2806
G01 X58.0904 Y38.3312
G01 X58.0039 Y38.3721
G01 X57.9138 Y38.4043
G01 X57.8186 Y38.4280
G01 X57.7264 Y38.4416
G01 X57.6308 Y38.4463
G01 X56.4328 Y38.4463
G01 X56.3397 Y38.4418
G01 X56.2426 Y38.4276
G01 X56.1498 Y38.4043
G01 X56.0597 Y38.3721
G01 X55.9732 Y38.3312
G01 X55.8891 Y38.2806
G01 X55.8143 Y38.2250
G01 X55.7451 Y38.1624
G01 X55.6791 Y38.0898
G01 X55.6208 Y38.0109
G01 X55.5729 Y37.9309
G01 X55.5330 Y37.8467
G01 X55.4998 Y37.7543
G01 X55.4765 Y37.6615
G01 X55.4628 Y37.5693
G01 X55.4578 Y37.4713
G01 X55.4628 Y37.3733
G01 X55.4765 Y37.2811
G01 X55.4991 Y37.1906
G01 X55.5320 Y37.0982
G01 X55.5741 Y37.0096
G01 X55.6221 Y36.9296
G01 X55.6776 Y36.8547
G01 X55.7434 Y36.7819
G01 X55.8162 Y36.7161
G01 X55.8911 Y36.6606
G01 X55.9721 Y36.6120
G00 Z2.0000
G00 X55.9721 Y41.6120
G01 F60.00
G01 Z-0.0000
G01 F120.00
G01 X56.0597 Y41.5705
G01 X56.1521 Y41.5376
G01 X56.2426 Y41.5150
G01 X56.3348 Y41.5013
G01 X56.4328 Y41.4963
G01 X57.6308 Y41.4963
G01 X57.7251 Y41.5009
G01 X57.8210 Y41.5150
G01 X57.9138 Y41.5383
G01 X58.0039 Y41.5705
G01 X58.0904 Y41.6114
G01 X58.1725 Y41.6606
G01 X58.2493 Y41.7176
G01 X58.3202 Y41.7819
G01 X58.3845 Y41.8528
G01 X58.4415 Y41.9296
G01 X58.4907 Y42.0117
