(G-CODE GENERATED BY FLATCAM v8.994 - www.flatcam.org - Version Date: 2020/11/7)

(Name: OFICINA-TELE-ENCHUFES-INTERFAZ-F_Cu.gbr_iso_combined_cnc)
(Type: G-code from Geometry)
(Units: MM)

(Created on miércoles, 21 julio 2021 at 16:25)

(This preprocessor is the default preprocessor used by FlatCAM.)
(It is made to work with MACH3 compatible motion controllers.)

(TOOL DIAMETER: 0.1 mm)
(Feedrate_XY: 120.0 mm/min)
(Feedrate_Z: 60.0 mm/min)
(Feedrate rapids 1500.0 mm/min)

(Z_Cut: 0.0 mm)
(Z_Move: 2.0 mm)
(Z Start: None mm)
(Z End: 15.0 mm)
(X,Y End: None mm)
(Steps per circle: 64)
(Preprocessor Geometry: default)

(X range:  -46.0183 ...   46.2116  mm)
(Y range:  -34.6733 ...   34.2820  mm)

(Spindle Speed: 10000.0 RPM)
G21
G90
G94

G01 F120.00

M5
G00 Z15.0000
G00 X0.0000 Y0.0000
T1
M6    
(MSG, Change to Tool Dia = 0.1000)
M0
G00 Z15.0000

M03 S10000.0
G4 P1.0
G01 F120.00
G00 X2.9128 Y1.9341
G01 F60.00
G01 Z0.0000
G01 F120.00
G01 X2.9213 Y1.9187
G01 X2.9679 Y1.8409
G01 X2.9743 Y1.8308
G01 X3.0345 Y1.7492
G01 X3.0419 Y1.7398
G01 X3.1098 Y1.6645
G01 X3.1176 Y1.6563
G01 X3.1930 Y1.5875
G01 X3.2095 Y1.5740
G01 X3.2926 Y1.5127
G01 X3.3800 Y1.4599
G01 X3.3910 Y1.4538
G01 X3.3999 Y1.4493
G01 X3.4922 Y1.4060
G01 X3.5029 Y1.4019
G01 X3.5883 Y1.3713
G01 X3.5986 Y1.3679
G01 X3.6099 Y1.3647
G01 X3.6980 Y1.3427
G01 X3.7088 Y1.3402
G01 X3.7201 Y1.3383
G01 X3.8208 Y1.3236
G01 X3.8324 Y1.3227
G01 X3.9343 Y1.3180
G01 X5.1380 Y1.3181
G01 X5.2343 Y1.3227
G01 X5.2459 Y1.3236
G01 X5.3465 Y1.3383
G01 X5.3633 Y1.3414
G01 X5.4567 Y1.3647
G01 X5.4680 Y1.3679
G01 X5.5638 Y1.4019
G01 X5.5745 Y1.4060
G01 X5.5846 Y1.4105
G01 X5.6757 Y1.4538
G01 X5.6866 Y1.4599
G01 X5.7645 Y1.5066
G01 X5.7745 Y1.5130
G01 X5.8561 Y1.5732
G01 X5.8655 Y1.5806
G01 X5.9409 Y1.6485
G01 X5.9490 Y1.6563
G01 X5.9568 Y1.6645
G01 X6.0248 Y1.7398
G01 X6.0321 Y1.7492
G01 X6.0927 Y1.8313
G01 X6.1454 Y1.9187
G01 X6.1515 Y1.9297
G01 X6.1948 Y2.0207
G01 X6.1993 Y2.0309
G01 X6.2035 Y2.0415
G01 X6.2375 Y2.1373
G01 X6.2406 Y2.1486
G01 X6.2651 Y2.2474
G01 X6.2671 Y2.2588
G01 X6.2817 Y2.3594
G01 X6.2826 Y2.3710
G01 X6.2873 Y2.4730
G01 X6.2826 Y2.5750
G01 X6.2817 Y2.5866
G01 X6.2671 Y2.6872
G01 X6.2639 Y2.7040
G01 X6.2406 Y2.7974
G01 X6.2375 Y2.8087
G01 X6.2340 Y2.8190
G01 X6.2035 Y2.9045
G01 X6.1993 Y2.9151
G01 X6.1560 Y3.0074
G01 X6.1515 Y3.0163
G01 X6.1454 Y3.0273
G01 X6.0987 Y3.1051
G01 X6.0923 Y3.1152
G01 X6.0314 Y3.1978
G01 X6.0178 Y3.2143
G01 X5.9490 Y3.2897
G01 X5.8736 Y3.3585
G01 X5.8571 Y3.3720
G01 X5.7740 Y3.4333
G01 X5.6866 Y3.4861
G01 X5.6757 Y3.4922
G01 X5.6667 Y3.4967
G01 X5.5745 Y3.5400
G01 X5.5638 Y3.5441
G01 X5.4783 Y3.5747
G01 X5.4680 Y3.5781
G01 X5.4567 Y3.5813
G01 X5.3687 Y3.6033
G01 X5.3579 Y3.6058
G01 X5.3465 Y3.6077
G01 X5.2459 Y3.6224
G01 X5.2343 Y3.6233
G01 X5.1380 Y3.6279
G01 X3.9287 Y3.6279
G01 X3.8324 Y3.6233
G01 X3.8208 Y3.6224
G01 X3.7201 Y3.6077
G01 X3.7034 Y3.6046
G01 X3.6099 Y3.5813
G01 X3.5986 Y3.5781
G01 X3.5029 Y3.5441
G01 X3.4922 Y3.5400
G01 X3.4820 Y3.5355
G01 X3.3910 Y3.4922
G01 X3.3800 Y3.4861
G01 X3.3022 Y3.4394
G01 X3.2921 Y3.4330
G01 X3.2834 Y3.4268
G01 X3.2095 Y3.3720
G01 X3.1930 Y3.3585
G01 X3.1176 Y3.2897
G01 X3.1098 Y3.2815
G01 X3.0419 Y3.2062
G01 X3.0345 Y3.1968
G01 X2.9740 Y3.1147
G01 X2.9213 Y3.0273
G01 X2.9151 Y3.0163
G01 X2.9106 Y3.0074
G01 X2.8673 Y2.9151
G01 X2.8632 Y2.9045
G01 X2.8326 Y2.8190
G01 X2.8292 Y2.8087
G01 X2.8260 Y2.7974
G01 X2.8040 Y2.7093
G01 X2.8016 Y2.6986
G01 X2.7996 Y2.6872
G01 X2.7849 Y2.5866
G01 X2.7841 Y2.5750
G01 X2.7793 Y2.4730
G01 X2.7841 Y2.3710
G01 X2.7849 Y2.3594
G01 X2.7996 Y2.2588
G01 X2.8016 Y2.2474
G01 X2.8040 Y2.2367
G01 X2.8260 Y2.1486
G01 X2.8292 Y2.1373
G01 X2.8632 Y2.0415
G01 X2.8673 Y2.0309
G01 X2.8718 Y2.0207
G01 X2.9128 Y1.9341
G00 Z2.0000
G00 X2.9933 Y1.9744
G01 F60.00
G01 Z0.0000
G01 F120.00
G01 X2.9985 Y1.9650
G01 X3.0490 Y1.8810
G01 X3.1113 Y1.7971
G01 X3.1813 Y1.7199
G01 X3.2535 Y1.6542
G01 X3.2635 Y1.6460
G01 X3.3370 Y1.5914
G01 X3.3484 Y1.5838
G01 X3.4330 Y1.5334
G01 X3.5205 Y1.4919
G01 X3.5332 Y1.4866
G01 X3.6249 Y1.4539
G01 X3.7231 Y1.4292
G01 X3.7333 Y1.4273
G01 X3.8297 Y1.4131
G01 X3.9343 Y1.4080
G01 X5.1358 Y1.4080
G01 X5.2369 Y1.4131
G01 X5.3333 Y1.4273
G01 X5.3435 Y1.4292
G01 X5.4417 Y1.4539
G01 X5.5400 Y1.4891
G01 X5.6337 Y1.5334
G01 X5.7243 Y1.5877
G01 X5.8082 Y1.6500
G01 X5.8854 Y1.7199
G01 X5.9553 Y1.7971
G01 X6.0178 Y1.8813
G01 X6.0719 Y1.9716
G01 X6.1162 Y2.0654
G01 X6.1514 Y2.1636
G01 X6.1768 Y2.2651
G01 X6.1922 Y2.3684
G01 X6.1973 Y2.4730
G01 X6.1922 Y2.5776
G01 X6.1780 Y2.6740
G01 X6.1761 Y2.6842
G01 X6.1533 Y2.7755
G01 X6.1493 Y2.7887
G01 X6.1162 Y2.8806
G01 X6.0747 Y2.9689
G01 X6.0682 Y2.9810
G01 X6.0176 Y3.0650
G01 X5.9594 Y3.1438
G01 X5.9511 Y3.1538
G01 X5.8854 Y3.2261
G01 X5.8132 Y3.2918
G01 X5.8031 Y3.3000
G01 X5.7240 Y3.3585
G01 X5.6403 Y3.4089
G01 X5.6282 Y3.4153
G01 X5.5400 Y3.4569
G01 X5.4451 Y3.4910
G01 X5.4349 Y3.4940
G01 X5.3468 Y3.5160
G01 X5.3333 Y3.5187
G01 X5.2369 Y3.5329
G01 X5.1358 Y3.5380
G01 X3.9309 Y3.5380
G01 X3.8297 Y3.5329
G01 X3.7333 Y3.5187
G01 X3.7231 Y3.5168
G01 X3.6249 Y3.4921
G01 X3.5332 Y3.4594
G01 X3.5205 Y3.4541
G01 X3.4330 Y3.4126
G01 X3.3484 Y3.3622
G01 X3.3370 Y3.3546
G01 X3.2635 Y3.3000
G01 X3.2535 Y3.2918
G01 X3.1813 Y3.2261
G01 X3.1113 Y3.1489
G01 X3.0488 Y3.0647
G01 X2.9985 Y2.9810
G01 X2.9920 Y2.9689
G01 X2.9504 Y2.8806
G01 X2.9173 Y2.7887
G01 X2.9133 Y2.7755
G01 X2.8913 Y2.6875
G01 X2.8886 Y2.6740
G01 X2.8745 Y2.5776
G01 X2.8693 Y2.4730
G01 X2.8745 Y2.3684
G01 X2.8886 Y2.2720
G01 X2.8913 Y2.2585
G01 X2.9153 Y2.1636
G01 X2.9479 Y2.0719
G01 X2.9532 Y2.0592
G01 X2.9933 Y1.9744
G00 Z2.0000
G00 X3.0738 Y2.0146
G01 F60.00
G01 Z0.0000
G01 F120.00
G01 X3.1237 Y1.9312
G01 X3.1807 Y1.8544
G01 X3.2449 Y1.7836
G01 X3.3177 Y1.7178
G01 X3.3947 Y1.6610
G01 X3.4750 Y1.6130
G01 X3.5590 Y1.5732
G01 X3.6512 Y1.5400
G01 X3.7429 Y1.5170
G01 X3.8387 Y1.5027
G01 X3.9343 Y1.4980
G01 X5.1335 Y1.4980
G01 X5.2280 Y1.5027
G01 X5.3238 Y1.5170
G01 X5.4154 Y1.5400
G01 X5.5055 Y1.5722
G01 X5.5917 Y1.6130
G01 X5.6741 Y1.6624
G01 X5.7510 Y1.7194
G01 X5.8217 Y1.7836
G01 X5.8859 Y1.8544
G01 X5.9430 Y1.9313
G01 X5.9923 Y2.0136
G01 X6.0331 Y2.0999
G01 X6.0653 Y2.1899
G01 X6.0886 Y2.2827
G01 X6.1026 Y2.3774
G01 X6.1073 Y2.4730
G01 X6.1026 Y2.5686
G01 X6.0883 Y2.6644
G01 X6.0646 Y2.7584
G01 X6.0331 Y2.8461
G01 X5.9933 Y2.9304
G01 X5.9429 Y3.0148
G01 X5.8844 Y3.0934
G01 X5.8217 Y3.1624
G01 X5.7527 Y3.2251
G01 X5.6740 Y3.2837
G01 X5.5897 Y3.3340
G01 X5.5055 Y3.3738
G01 X5.4166 Y3.4056
G01 X5.3201 Y3.4297
G01 X5.2280 Y3.4433
G01 X5.1335 Y3.4480
G01 X3.9331 Y3.4480
G01 X3.8387 Y3.4433
G01 X3.7429 Y3.4290
G01 X3.6512 Y3.4060
G01 X3.5590 Y3.3728
G01 X3.4750 Y3.3330
G01 X3.3947 Y3.2850
G01 X3.3177 Y3.2282
G01 X3.2449 Y3.1624
G01 X3.1807 Y3.0916
G01 X3.1236 Y3.0147
G01 X3.0733 Y2.9304
G01 X3.0335 Y2.8461
G01 X3.0021 Y2.7584
G01 X2.9786 Y2.6656
G01 X2.9640 Y2.5686
G01 X2.9593 Y2.4730
G01 X2.9640 Y2.3774
G01 X2.9786 Y2.2804
G01 X3.0013 Y2.1899
G01 X3.0327 Y2.1022
G01 X3.0738 Y2.0146
G00 Z2.0000
G00 X2.9128 Y6.9341
G01 F60.00
G01 Z0.0000
G01 F120.00
G01 X2.9213 Y6.9187
G01 X2.9679 Y6.8409
G01 X2.9743 Y6.8308
G01 X3.0345 Y6.7492
G01 X3.0419 Y6.7398
G01 X3.1098 Y6.6645
G01 X3.1176 Y6.6563
G01 X3.1930 Y6.5875
G01 X3.2095 Y6.5740
G01 X3.2926 Y6.5127
G01 X3.3800 Y6.4599
G01 X3.3910 Y6.4538
G01 X3.3999 Y6.4493
G01 X3.4922 Y6.4060
G01 X3.5029 Y6.4019
G01 X3.5883 Y6.3713
G01 X3.5986 Y6.3679
G01 X3.6099 Y6.3647
G01 X3.6980 Y6.3427
G01 X3.7088 Y6.3402
G01 X3.7201 Y6.3383
G01 X3.8208 Y6.3236
G01 X3.8324 Y6.3227
G01 X3.9343 Y6.3180
G01 X5.1380 Y6.3181
G01 X5.2343 Y6.3227
G01 X5.2459 Y6.3236
G01 X5.3465 Y6.3383
G01 X5.3633 Y6.3414
G01 X5.4567 Y6.3647
G01 X5.4680 Y6.3679
G01 X5.5638 Y6.4019
G01 X5.5745 Y6.4060
G01 X5.5846 Y6.4105
G01 X5.6757 Y6.4538
G01 X5.6866 Y6.4599
G01 X5.7645 Y6.5066
G01 X5.7745 Y6.5130
G01 X5.8561 Y6.5732
G01 X5.8655 Y6.5806
G01 X5.9409 Y6.6485
G01 X5.9490 Y6.6563
G01 X5.9568 Y6.6645
G01 X6.0248 Y6.7398
G01 X6.0321 Y6.7492
G01 X6.0927 Y6.8313
G01 X6.1454 Y6.9187
G01 X6.1515 Y6.9297
G01 X6.1948 Y7.0207
G01 X6.1993 Y7.0309
G01 X6.2035 Y7.0415
G01 X6.2375 Y7.1373
G01 X6.2406 Y7.1486
G01 X6.2651 Y7.2474
G01 X6.2671 Y7.2588
G01 X6.2817 Y7.3594
G01 X6.2826 Y7.3710
G01 X6.2873 Y7.4730
G01 X6.2826 Y7.5750
G01 X6.2817 Y7.5866
G01 X6.2671 Y7.6872
G01 X6.2639 Y7.7040
G01 X6.2406 Y7.7974
G01 X6.2375 Y7.8087
G01 X6.2340 Y7.8190
G01 X6.2035 Y7.9045
G01 X6.1993 Y7.9151
G01 X6.1560 Y8.0074
G01 X6.1515 Y8.0163
G01 X6.1454 Y8.0273
G01 X6.0987 Y8.1051
G01 X6.0923 Y8.1152
G01 X6.0314 Y8.1978
G01 X6.0178 Y8.2143
G01 X5.9490 Y8.2897
G01 X5.8736 Y8.3585
G01 X5.8571 Y8.3720
G01 X5.7740 Y8.4333
G01 X5.6866 Y8.4861
G01 X5.6757 Y8.4922
G01 X5.6667 Y8.4967
G01 X5.5745 Y8.5400
G01 X5.5638 Y8.5441
G01 X5.4783 Y8.5747
G01 X5.4680 Y8.5781
G01 X5.4567 Y8.5813
G01 X5.3687 Y8.6033
G01 X5.3579 Y8.6058
G01 X5.3465 Y8.6077
G01 X5.2459 Y8.6224
G01 X5.2343 Y8.6233
G01 X5.1380 Y8.6279
G01 X3.9287 Y8.6279
G01 X3.8324 Y8.6233
G01 X3.8208 Y8.6224
G01 X3.7201 Y8.6077
G01 X3.7034 Y8.6046
G01 X3.6099 Y8.5813
G01 X3.5986 Y8.5781
G01 X3.5029 Y8.5441
G01 X3.4922 Y8.5400
G01 X3.4820 Y8.5355
G01 X3.3910 Y8.4922
G01 X3.3800 Y8.4861
G01 X3.3022 Y8.4394
G01 X3.2921 Y8.4330
G01 X3.2834 Y8.4268
G01 X3.2095 Y8.3720
G01 X3.1930 Y8.3585
G01 X3.1176 Y8.2897
G01 X3.1098 Y8.2815
G01 X3.0419 Y8.2062
G01 X3.0345 Y8.1968
G01 X2.9740 Y8.1147
G01 X2.9213 Y8.0273
G01 X2.9151 Y8.0163
G01 X2.9106 Y8.0074
G01 X2.8673 Y7.9151
G01 X2.8632 Y7.9045
G01 X2.8326 Y7.8190
G01 X2.8292 Y7.8087
G01 X2.8260 Y7.7974
G01 X2.8040 Y7.7093
G01 X2.8016 Y7.6986
G01 X2.7996 Y7.6872
G01 X2.7849 Y7.5866
G01 X2.7841 Y7.5750
G01 X2.7793 Y7.4730
G01 X2.7841 Y7.3710
G01 X2.7849 Y7.3594
G01 X2.7996 Y7.2588
G01 X2.8016 Y7.2474
G01 X2.8040 Y7.2367
G01 X2.8260 Y7.1486
G01 X2.8292 Y7.1373
G01 X2.8632 Y7.0415
G01 X2.8673 Y7.0309
G01 X2.8718 Y7.0207
G01 X2.9128 Y6.9341
G00 Z2.0000
G00 X2.9933 Y6.9744
G01 F60.00
G01 Z0.0000
G01 F120.00
G01 X2.9985 Y6.9650
G01 X3.0490 Y6.8810
G01 X3.1113 Y6.7971
G01 X3.1813 Y6.7199
G01 X3.2535 Y6.6542
G01 X3.2635 Y6.6460
G01 X3.3370 Y6.5914
G01 X3.3484 Y6.5838
G01 X3.4330 Y6.5334
G01 X3.5205 Y6.4919
G01 X3.5332 Y6.4866
G01 X3.6249 Y6.4539
G01 X3.7231 Y6.4292
G01 X3.7333 Y6.4273
G01 X3.8297 Y6.4131
G01 X3.9343 Y6.4080
G01 X5.1358 Y6.4080
G01 X5.2369 Y6.4131
G01 X5.3333 Y6.4273
G01 X5.3435 Y6.4292
G01 X5.4417 Y6.4539
G01 X5.5400 Y6.4891
G01 X5.6337 Y6.5334
G01 X5.7243 Y6.5877
G01 X5.8082 Y6.6500
G01 X5.8854 Y6.7199
G01 X5.9553 Y6.7971
G01 X6.0178 Y6.8813
G01 X6.0719 Y6.9716
G01 X6.1162 Y7.0654
G01 X6.1514 Y7.1636
G01 X6.1768 Y7.2651
G01 X6.1922 Y7.3684
G01 X6.1973 Y7.4730
G01 X6.1922 Y7.5776
G01 X6.1780 Y7.6740
G01 X6.1761 Y7.6842
G01 X6.1533 Y7.7755
G01 X6.1493 Y7.7887
G01 X6.1162 Y7.8806
G01 X6.0747 Y7.9689
G01 X6.0682 Y7.9810
G01 X6.0176 Y8.0650
G01 X5.9594 Y8.1438
G01 X5.9511 Y8.1538
G01 X5.8854 Y8.2261
G01 X5.8132 Y8.2918
G01 X5.8031 Y8.3000
G01 X5.7240 Y8.3585
G01 X5.6403 Y8.4089
G01 X5.6282 Y8.4153
G01 X5.5400 Y8.4569
G01 X5.4451 Y8.4910
G01 X5.4349 Y8.4940
G01 X5.3468 Y8.5160
G01 X5.3333 Y8.5187
G01 X5.2369 Y8.5329
G01 X5.1358 Y8.5380
G01 X3.9309 Y8.5380
G01 X3.8297 Y8.5329
G01 X3.7333 Y8.5187
G01 X3.7231 Y8.5168
G01 X3.6249 Y8.4921
G01 X3.5332 Y8.4594
G01 X3.5205 Y8.4541
G01 X3.4330 Y8.4126
G01 X3.3484 Y8.3622
G01 X3.3370 Y8.3546
G01 X3.2635 Y8.3000
G01 X3.2535 Y8.2918
G01 X3.1813 Y8.2261
G01 X3.1113 Y8.1489
G01 X3.0488 Y8.0647
G01 X2.9985 Y7.9810
G01 X2.9920 Y7.9689
G01 X2.9504 Y7.8806
G01 X2.9173 Y7.7887
G01 X2.9133 Y7.7755
G01 X2.8913 Y7.6875
G01 X2.8886 Y7.6740
G01 X2.8745 Y7.5776
G01 X2.8693 Y7.4730
G01 X2.8745 Y7.3684
G01 X2.8886 Y7.2720
G01 X2.8913 Y7.2585
G01 X2.9153 Y7.1636
G01 X2.9479 Y7.0719
G01 X2.9532 Y7.0592
G01 X2.9933 Y6.9744
G00 Z2.0000
G00 X3.0738 Y7.0146
G01 F60.00
G01 Z0.0000
G01 F120.00
G01 X3.1237 Y6.9312
G01 X3.1807 Y6.8544
G01 X3.2449 Y6.7836
G01 X3.3177 Y6.7178
G01 X3.3947 Y6.6610
G01 X3.4750 Y6.6130
G01 X3.5590 Y6.5732
G01 X3.6512 Y6.5400
G01 X3.7429 Y6.5170
G01 X3.8387 Y6.5027
G01 X3.9343 Y6.4980
G01 X5.1335 Y6.4980
G01 X5.2280 Y6.5027
G01 X5.3238 Y6.5170
G01 X5.4154 Y6.5400
G01 X5.5055 Y6.5722
G01 X5.5917 Y6.6130
G01 X5.6741 Y6.6624
G01 X5.7510 Y6.7194
G01 X5.8217 Y6.7836
G01 X5.8859 Y6.8544
G01 X5.9430 Y6.9313
G01 X5.9923 Y7.0136
G01 X6.0331 Y7.0999
G01 X6.0653 Y7.1899
G01 X6.0886 Y7.2827
G01 X6.1026 Y7.3774
G01 X6.1073 Y7.4730
G01 X6.1026 Y7.5686
G01 X6.0883 Y7.6644
G01 X6.0646 Y7.7584
G01 X6.0331 Y7.8461
G01 X5.9933 Y7.9304
G01 X5.9429 Y8.0148
G01 X5.8844 Y8.0934
G01 X5.8217 Y8.1624
G01 X5.7527 Y8.2251
G01 X5.6740 Y8.2837
G01 X5.5897 Y8.3340
G01 X5.5055 Y8.3738
G01 X5.4166 Y8.4056
G01 X5.3201 Y8.4297
G01 X5.2280 Y8.4433
G01 X5.1335 Y8.4480
G01 X3.9331 Y8.4480
G01 X3.8387 Y8.4433
G01 X3.7429 Y8.4290
G01 X3.6512 Y8.4060
G01 X3.5590 Y8.3728
G01 X3.4750 Y8.3330
G01 X3.3947 Y8.2850
G01 X3.3177 Y8.2282
G01 X3.2449 Y8.1624
G01 X3.1807 Y8.0916
G01 X3.1236 Y8.0147
G01 X3.0733 Y7.9304
G01 X3.0335 Y7.8461
G01 X3.0021 Y7.7584
G01 X2.9786 Y7.6656
G01 X2.9640 Y7.5686
G01 X2.9593 Y7.4730
G01 X2.9640 Y7.3774
G01 X2.9786 Y7.2804
G01 X3.0013 Y7.1899
G01 X3.0327 Y7.1022
G01 X3.0738 Y7.0146
G00 Z2.0000
G00 X-1.1661 Y14.6792
G01 F60.00
G01 Z0.0000
G01 F120.00
G01 X-1.1515 Y14.6548
G01 X-1.1339 Y14.6313
G01 X-1.1174 Y14.6132
G01 X-1.0993 Y14.5967
G01 X-1.0757 Y14.5790
G01 X-1.0504 Y14.5640
G01 X-1.0282 Y14.5536
G01 X-1.0051 Y14.5452
G01 X-0.9765 Y14.5379
G01 X-0.9487 Y14.5338
G01 X-0.9229 Y14.5326
G01 X0.8295 Y14.5326
G01 X0.8553 Y14.5338
G01 X0.8831 Y14.5379
G01 X0.9095 Y14.5445
G01 X0.9348 Y14.5536
G01 X0.9590 Y14.5650
G01 X0.9825 Y14.5790
G01 X1.0041 Y14.5951
G01 X1.0240 Y14.6132
G01 X1.0421 Y14.6331
G01 X1.0583 Y14.6549
G01 X1.0723 Y14.6783
G01 X1.0837 Y14.7024
G01 X1.0928 Y14.7278
G01 X1.0994 Y14.7541
G01 X1.1033 Y14.7807
G01 X1.1046 Y14.8077
G01 X1.1034 Y14.8335
G01 X1.0994 Y14.8613
G01 X1.0934 Y14.8852
G01 X1.0827 Y14.9152
G01 X1.0723 Y14.9372
G01 X1.0582 Y14.9607
G01 X1.0421 Y14.9823
G01 X1.0240 Y15.0022
G01 X1.0041 Y15.0203
G01 X0.9844 Y15.0350
G01 X0.9570 Y15.0514
G01 X0.9348 Y15.0619
G01 X0.9095 Y15.0710
G01 X0.8831 Y15.0776
G01 X0.8577 Y15.0814
G01 X0.8295 Y15.0828
G01 X-0.9229 Y15.0828
G01 X-0.9487 Y15.0816
G01 X-0.9765 Y15.0776
G01 X-1.0051 Y15.0702
G01 X-1.0282 Y15.0619
G01 X-1.0504 Y15.0514
G01 X-1.0758 Y15.0364
G01 X-1.0993 Y15.0188
G01 X-1.1174 Y15.0022
G01 X-1.1339 Y14.9841
G01 X-1.1516 Y14.9606
G01 X-1.1656 Y14.9372
G01 X-1.1779 Y14.9107
G01 X-1.1861 Y14.8877
G01 X-1.1922 Y14.8638
G01 X-1.1967 Y14.8348
G01 X-1.1980 Y14.8077
G01 X-1.1967 Y14.7807
G01 X-1.1922 Y14.7516
G01 X-1.1861 Y14.7278
G01 X-1.1779 Y14.7047
G01 X-1.1661 Y14.6792
G00 Z2.0000
G00 X-1.2466 Y14.6390
G01 F60.00
G01 Z0.0000
G01 F120.00
G01 X-1.2415 Y14.6296
G01 X-1.2263 Y14.6046
G01 X-1.2089 Y14.5809
G01 X-1.2006 Y14.5709
G01 X-1.1810 Y14.5495
G01 X-1.1597 Y14.5300
G01 X-1.1497 Y14.5217
G01 X-1.1257 Y14.5041
G01 X-1.0943 Y14.4854
G01 X-1.0659 Y14.4718
G01 X-1.0562 Y14.4679
G01 X-1.0291 Y14.4584
G01 X-1.0008 Y14.4511
G01 X-0.9906 Y14.4490
G01 X-0.9589 Y14.4444
G01 X-0.9229 Y14.4426
G01 X0.8295 Y14.4426
G01 X0.8620 Y14.4441
G01 X0.8721 Y14.4452
G01 X0.9005 Y14.4496
G01 X0.9357 Y14.4584
G01 X0.9693 Y14.4704
G01 X1.0009 Y14.4854
G01 X1.0327 Y14.5043
G01 X1.0614 Y14.5257
G01 X1.0877 Y14.5495
G01 X1.1115 Y14.5758
G01 X1.1331 Y14.6049
G01 X1.1519 Y14.6363
G01 X1.1668 Y14.6679
G01 X1.1788 Y14.7015
G01 X1.1876 Y14.7367
G01 X1.1928 Y14.7717
G01 X1.1946 Y14.8077
G01 X1.1932 Y14.8402
G01 X1.1920 Y14.8503
G01 X1.1876 Y14.8787
G01 X1.1807 Y14.9071
G01 X1.1767 Y14.9202
G01 X1.1693 Y14.9410
G01 X1.1654 Y14.9507
G01 X1.1519 Y14.9791
G01 X1.1329 Y15.0109
G01 X1.1115 Y15.0396
G01 X1.0924 Y15.0609
G01 X1.0827 Y15.0706
G01 X1.0639 Y15.0876
G01 X1.0563 Y15.0937
G01 X1.0324 Y15.1113
G01 X1.0009 Y15.1301
G01 X0.9693 Y15.1450
G01 X0.9391 Y15.1560
G01 X0.9289 Y15.1589
G01 X0.9074 Y15.1643
G01 X0.8940 Y15.1670
G01 X0.8655 Y15.1710
G01 X0.8295 Y15.1728
G01 X-0.9229 Y15.1728
G01 X-0.9553 Y15.1714
G01 X-0.9655 Y15.1702
G01 X-0.9939 Y15.1659
G01 X-1.0222 Y15.1589
G01 X-1.0354 Y15.1550
G01 X-1.0627 Y15.1450
G01 X-1.0888 Y15.1328
G01 X-1.1010 Y15.1263
G01 X-1.1260 Y15.1111
G01 X-1.1548 Y15.0897
G01 X-1.1786 Y15.0683
G01 X-1.1858 Y15.0609
G01 X-1.2049 Y15.0396
G01 X-1.2225 Y15.0162
G01 X-1.2283 Y15.0077
G01 X-1.2438 Y14.9818
G01 X-1.2480 Y14.9737
G01 X-1.2602 Y14.9475
G01 X-1.2711 Y14.9173
G01 X-1.2741 Y14.9071
G01 X-1.2810 Y14.8787
G01 X-1.2854 Y14.8503
G01 X-1.2867 Y14.8366
G01 X-1.2880 Y14.8077
G01 X-1.2862 Y14.7717
G01 X-1.2816 Y14.7400
G01 X-1.2795 Y14.7298
G01 X-1.2722 Y14.7015
G01 X-1.2627 Y14.6744
G01 X-1.2588 Y14.6647
G01 X-1.2466 Y14.6390
G00 Z2.0000
G00 X-1.3271 Y14.5988
G01 F60.00
G01 Z0.0000
G01 F120.00
G01 X-1.3187 Y14.5834
G01 X-1.3010 Y14.5544
G01 X-1.2809 Y14.5269
G01 X-1.2673 Y14.5104
G01 X-1.2447 Y14.4859
G01 X-1.2201 Y14.4633
G01 X-1.2037 Y14.4497
G01 X-1.1757 Y14.4293
G01 X-1.1472 Y14.4119
G01 X-1.1363 Y14.4057
G01 X-1.1024 Y14.3896
G01 X-1.0865 Y14.3832
G01 X-1.0554 Y14.3723
G01 X-1.0227 Y14.3638
G01 X-1.0059 Y14.3603
G01 X-0.9678 Y14.3548
G01 X-0.9562 Y14.3540
G01 X-0.9229 Y14.3526
G01 X0.8295 Y14.3526
G01 X0.8629 Y14.3540
G01 X0.8745 Y14.3548
G01 X0.9072 Y14.3594
G01 X0.9180 Y14.3613
G01 X0.9507 Y14.3692
G01 X0.9620 Y14.3723
G01 X0.9931 Y14.3832
G01 X1.0038 Y14.3873
G01 X1.0140 Y14.3918
G01 X1.0429 Y14.4057
G01 X1.0539 Y14.4119
G01 X1.0828 Y14.4296
G01 X1.1093 Y14.4490
G01 X1.1187 Y14.4563
G01 X1.1431 Y14.4781
G01 X1.1513 Y14.4859
G01 X1.1591 Y14.4941
G01 X1.1809 Y14.5185
G01 X1.1883 Y14.5279
G01 X1.2079 Y14.5549
G01 X1.2253 Y14.5834
G01 X1.2315 Y14.5943
G01 X1.2454 Y14.6232
G01 X1.2499 Y14.6334
G01 X1.2540 Y14.6441
G01 X1.2649 Y14.6752
G01 X1.2680 Y14.6865
G01 X1.2759 Y14.7193
G01 X1.2778 Y14.7300
G01 X1.2824 Y14.7628
G01 X1.2833 Y14.7744
G01 X1.2846 Y14.8077
G01 X1.2833 Y14.8411
G01 X1.2824 Y14.8527
G01 X1.2778 Y14.8854
G01 X1.2759 Y14.8962
G01 X1.2665 Y14.9346
G01 X1.2631 Y14.9458
G01 X1.2540 Y14.9713
G01 X1.2499 Y14.9820
G01 X1.2454 Y14.9922
G01 X1.2338 Y15.0167
G01 X1.2291 Y15.0255
G01 X1.2140 Y15.0510
G01 X1.2076 Y15.0610
G01 X1.1843 Y15.0928
G01 X1.1775 Y15.1010
G01 X1.1591 Y15.1214
G01 X1.1513 Y15.1295
G01 X1.1431 Y15.1373
G01 X1.1228 Y15.1557
G01 X1.1146 Y15.1625
G01 X1.0824 Y15.1861
G01 X1.0473 Y15.2073
G01 X1.0340 Y15.2142
G01 X1.0091 Y15.2259
G01 X0.9985 Y15.2303
G01 X0.9723 Y15.2397
G01 X0.9620 Y15.2431
G01 X0.9507 Y15.2462
G01 X0.9233 Y15.2530
G01 X0.9126 Y15.2551
G01 X0.8745 Y15.2606
G01 X0.8629 Y15.2615
G01 X0.8295 Y15.2628
G01 X-0.9229 Y15.2628
G01 X-0.9562 Y15.2615
G01 X-0.9678 Y15.2606
G01 X-1.0059 Y15.2551
G01 X-1.0227 Y15.2516
G01 X-1.0554 Y15.2431
G01 X-1.0865 Y15.2322
G01 X-1.1024 Y15.2259
G01 X-1.1363 Y15.2097
G01 X-1.1472 Y15.2035
G01 X-1.1762 Y15.1858
G01 X-1.2037 Y15.1657
G01 X-1.2161 Y15.1557
G01 X-1.2406 Y15.1335
G01 X-1.2525 Y15.1214
G01 X-1.2743 Y15.0969
G01 X-1.2948 Y15.0698
G01 X-1.3044 Y15.0558
G01 X-1.3225 Y15.0255
G01 X-1.3293 Y15.0122
G01 X-1.3433 Y14.9820
G01 X-1.3565 Y14.9458
G01 X-1.3614 Y14.9289
G01 X-1.3693 Y14.8962
G01 X-1.3744 Y14.8635
G01 X-1.3763 Y14.8469
G01 X-1.3780 Y14.8077
G01 X-1.3766 Y14.7744
G01 X-1.3751 Y14.7573
G01 X-1.3703 Y14.7246
G01 X-1.3668 Y14.7079
G01 X-1.3583 Y14.6752
G01 X-1.3474 Y14.6441
G01 X-1.3410 Y14.6282
G01 X-1.3271 Y14.5988
G00 Z2.0000
G00 X-3.2741 Y16.2828
G01 F60.00
G01 Z0.0000
G01 F120.00
G01 X-3.2776 Y16.2586
G01 X-3.2789 Y16.2315
G01 X-3.2789 Y13.9315
G01 X-3.2773 Y13.9021
G01 X-3.2737 Y13.8779
G01 X-3.2677 Y13.8540
G01 X-3.2580 Y13.8262
G01 X-3.2461 Y13.8011
G01 X-3.2312 Y13.7767
G01 X-3.2164 Y13.7569
G01 X-3.2000 Y13.7388
G01 X-3.1785 Y13.7189
G01 X-3.1567 Y13.7028
G01 X-3.1313 Y13.6878
G01 X-3.1091 Y13.6774
G01 X-3.0860 Y13.6690
G01 X-3.0574 Y13.6617
G01 X-3.0296 Y13.6576
G01 X-3.0038 Y13.6564
G01 X-1.9074 Y13.6564
G01 X-1.8792 Y13.6580
G01 X-1.8550 Y13.6617
G01 X-1.8311 Y13.6676
G01 X-1.8033 Y13.6774
G01 X-1.7782 Y13.6893
G01 X-1.7556 Y13.7028
G01 X-1.7360 Y13.7173
G01 X-1.7141 Y13.7370
G01 X-1.6946 Y13.7587
G01 X-1.6798 Y13.7787
G01 X-1.6672 Y13.7997
G01 X-1.6544 Y13.8262
G01 X-1.6447 Y13.8540
G01 X-1.6387 Y13.8779
G01 X-1.6351 Y13.9021
G01 X-1.6335 Y13.9315
G01 X-1.6351 Y13.9609
G01 X-1.6387 Y13.9851
G01 X-1.6447 Y14.0090
G01 X-1.6544 Y14.0368
G01 X-1.6672 Y14.0633
G01 X-1.6799 Y14.0845
G01 X-1.6946 Y14.1043
G01 X-1.7141 Y14.1261
G01 X-1.7360 Y14.1457
G01 X-1.7557 Y14.1603
G01 X-1.7782 Y14.1738
G01 X-1.8033 Y14.1857
G01 X-1.8311 Y14.1954
G01 X-1.8550 Y14.2014
G01 X-1.8792 Y14.2050
G01 X-1.9074 Y14.2066
G01 X-2.7287 Y14.2066
G01 X-2.7287 Y14.8612
G01 X-2.2359 Y14.8612
G01 X-2.2101 Y14.8625
G01 X-2.1836 Y14.8664
G01 X-2.1572 Y14.8730
G01 X-2.1342 Y14.8812
G01 X-2.1053 Y14.8949
G01 X-2.0842 Y14.9076
G01 X-2.0625 Y14.9237
G01 X-2.0426 Y14.9418
G01 X-2.0261 Y14.9599
G01 X-2.0084 Y14.9834
G01 X-1.9934 Y15.0088
G01 X-1.9830 Y15.0310
G01 X-1.9739 Y15.0563
G01 X-1.9669 Y15.0850
G01 X-1.9634 Y15.1092
G01 X-1.9620 Y15.1363
G01 X-1.9634 Y15.1633
G01 X-1.9669 Y15.1875
G01 X-1.9739 Y15.2162
G01 X-1.9830 Y15.2416
G01 X-1.9934 Y15.2638
G01 X-2.0085 Y15.2892
G01 X-2.0261 Y15.3127
G01 X-2.0426 Y15.3308
G01 X-2.0625 Y15.3489
G01 X-2.0843 Y15.3650
G01 X-2.1053 Y15.3777
G01 X-2.1342 Y15.3913
G01 X-2.1572 Y15.3995
G01 X-2.1836 Y15.4061
G01 X-2.2101 Y15.4101
G01 X-2.2359 Y15.4114
G01 X-2.7287 Y15.4114
G01 X-2.7287 Y15.9564
G01 X-1.9074 Y15.9564
G01 X-1.8815 Y15.9577
G01 X-1.8550 Y15.9617
G01 X-1.8286 Y15.9683
G01 X-1.8044 Y15.9769
G01 X-1.7791 Y15.9888
G01 X-1.7556 Y16.0028
G01 X-1.7340 Y16.0189
G01 X-1.7141 Y16.0370
G01 X-1.6960 Y16.0569
G01 X-1.6798 Y16.0787
G01 X-1.6658 Y16.1021
G01 X-1.6535 Y16.1285
G01 X-1.6447 Y16.1540
G01 X-1.6387 Y16.1779
G01 X-1.6351 Y16.2021
G01 X-1.6335 Y16.2315
G01 X-1.6346 Y16.2560
G01 X-1.6387 Y16.2851
G01 X-1.6453 Y16.3115
G01 X-1.6544 Y16.3368
G01 X-1.6663 Y16.3619
G01 X-1.6813 Y16.3864
G01 X-1.6960 Y16.4062
G01 X-1.7124 Y16.4243
G01 X-1.7340 Y16.4441
G01 X-1.7557 Y16.4603
G01 X-1.7791 Y16.4743
G01 X-1.8056 Y16.4866
G01 X-1.8286 Y16.4948
G01 X-1.8525 Y16.5008
G01 X-1.8815 Y16.5053
G01 X-1.9086 Y16.5066
G01 X-3.0038 Y16.5066
G01 X-3.0283 Y16.5055
G01 X-3.0574 Y16.5014
G01 X-3.0813 Y16.4954
G01 X-3.1113 Y16.4847
G01 X-3.1333 Y16.4743
G01 X-3.1568 Y16.4602
G01 X-3.1785 Y16.4441
G01 X-3.1966 Y16.4278
G01 X-3.2178 Y16.4043
G01 X-3.2326 Y16.3844
G01 X-3.2466 Y16.3610
G01 X-3.2580 Y16.3368
G01 X-3.2663 Y16.3137
G01 X-3.2741 Y16.2828
G00 Z2.0000
G00 X-3.3631 Y16.2960
G01 F60.00
G01 Z0.0000
G01 F120.00
G01 X-3.3672 Y16.2675
G01 X-3.3689 Y16.2315
G01 X-3.3689 Y13.9281
G01 X-3.3672 Y13.8955
G01 X-3.3631 Y13.8671
G01 X-3.3604 Y13.8536
G01 X-3.3531 Y13.8253
G01 X-3.3436 Y13.7982
G01 X-3.3384 Y13.7855
G01 X-3.3262 Y13.7601
G01 X-3.3092 Y13.7314
G01 X-3.3034 Y13.7231
G01 X-3.2858 Y13.6996
G01 X-3.2667 Y13.6783
G01 X-3.2595 Y13.6710
G01 X-3.2382 Y13.6516
G01 X-3.2306 Y13.6455
G01 X-3.2067 Y13.6279
G01 X-3.1819 Y13.6129
G01 X-3.1725 Y13.6078
G01 X-3.1436 Y13.5942
G01 X-3.1100 Y13.5822
G01 X-3.0748 Y13.5734
G01 X-3.0464 Y13.5690
G01 X-3.0363 Y13.5679
G01 X-3.0038 Y13.5664
G01 X-1.9017 Y13.5666
G01 X-1.8726 Y13.5682
G01 X-1.8441 Y13.5723
G01 X-1.8307 Y13.5749
G01 X-1.8024 Y13.5822
G01 X-1.7753 Y13.5917
G01 X-1.7626 Y13.5970
G01 X-1.7372 Y13.6092
G01 X-1.7085 Y13.6262
G01 X-1.7001 Y13.6319
G01 X-1.6767 Y13.6495
G01 X-1.6529 Y13.6710
G01 X-1.6457 Y13.6783
G01 X-1.6266 Y13.6996
G01 X-1.6090 Y13.7231
G01 X-1.6013 Y13.7345
G01 X-1.5862 Y13.7601
G01 X-1.5727 Y13.7885
G01 X-1.5688 Y13.7982
G01 X-1.5593 Y13.8253
G01 X-1.5520 Y13.8536
G01 X-1.5498 Y13.8638
G01 X-1.5453 Y13.8955
G01 X-1.5435 Y13.9315
G01 X-1.5453 Y13.9675
G01 X-1.5498 Y13.9993
G01 X-1.5520 Y14.0095
G01 X-1.5593 Y14.0378
G01 X-1.5688 Y14.0648
G01 X-1.5727 Y14.0745
G01 X-1.5862 Y14.1030
G01 X-1.6052 Y14.1347
G01 X-1.6226 Y14.1583
G01 X-1.6308 Y14.1684
G01 X-1.6504 Y14.1897
G01 X-1.6718 Y14.2093
G01 X-1.6818 Y14.2175
G01 X-1.7029 Y14.2332
G01 X-1.7115 Y14.2388
G01 X-1.7372 Y14.2539
G01 X-1.7656 Y14.2674
G01 X-1.7753 Y14.2713
G01 X-1.8024 Y14.2808
G01 X-1.8307 Y14.2881
G01 X-1.8441 Y14.2908
G01 X-1.8660 Y14.2940
G01 X-1.8761 Y14.2952
G01 X-1.9086 Y14.2966
G01 X-2.6387 Y14.2966
G01 X-2.6387 Y14.7712
G01 X-2.2372 Y14.7712
G01 X-2.2047 Y14.7726
G01 X-2.1945 Y14.7738
G01 X-2.1661 Y14.7781
G01 X-2.1343 Y14.7860
G01 X-2.1246 Y14.7891
G01 X-2.1006 Y14.7977
G01 X-2.0912 Y14.8018
G01 X-2.0712 Y14.8112
G01 X-2.0591 Y14.8177
G01 X-2.0401 Y14.8290
G01 X-2.0310 Y14.8350
G01 X-2.0052 Y14.8543
G01 X-1.9840 Y14.8734
G01 X-1.9766 Y14.8806
G01 X-1.9552 Y14.9044
G01 X-1.9375 Y14.9278
G01 X-1.9299 Y14.9392
G01 X-1.9148 Y14.9649
G01 X-1.9026 Y14.9903
G01 X-1.8974 Y15.0030
G01 X-1.8878 Y15.0301
G01 X-1.8806 Y15.0584
G01 X-1.8779 Y15.0718
G01 X-1.8738 Y15.1003
G01 X-1.8720 Y15.1363
G01 X-1.8738 Y15.1723
G01 X-1.8779 Y15.2007
G01 X-1.8806 Y15.2142
G01 X-1.8878 Y15.2425
G01 X-1.8974 Y15.2696
G01 X-1.9026 Y15.2823
G01 X-1.9148 Y15.3077
G01 X-1.9299 Y15.3333
G01 X-1.9358 Y15.3424
G01 X-1.9552 Y15.3682
G01 X-1.9766 Y15.3920
G01 X-1.9840 Y15.3992
G01 X-2.0052 Y15.4183
G01 X-2.0315 Y15.4379
G01 X-2.0401 Y15.4435
G01 X-2.0591 Y15.4549
G01 X-2.0712 Y15.4614
G01 X-2.0912 Y15.4708
G01 X-2.1006 Y15.4749
G01 X-2.1246 Y15.4835
G01 X-2.1343 Y15.4866
G01 X-2.1661 Y15.4944
G01 X-2.1945 Y15.4988
G01 X-2.2047 Y15.4999
G01 X-2.2372 Y15.5014
G01 X-2.6387 Y15.5014
G01 X-2.6387 Y15.8664
G01 X-1.9017 Y15.8666
G01 X-1.8761 Y15.8679
G01 X-1.8660 Y15.8690
G01 X-1.8376 Y15.8734
G01 X-1.8092 Y15.8803
G01 X-1.7990 Y15.8833
G01 X-1.7688 Y15.8942
G01 X-1.7426 Y15.9064
G01 X-1.7345 Y15.9106
G01 X-1.7054 Y15.9281
G01 X-1.6767 Y15.9495
G01 X-1.6504 Y15.9734
G01 X-1.6308 Y15.9947
G01 X-1.6245 Y16.0021
G01 X-1.6050 Y16.0287
G01 X-1.5862 Y16.0601
G01 X-1.5740 Y16.0855
G01 X-1.5700 Y16.0949
G01 X-1.5604 Y16.1219
G01 X-1.5574 Y16.1322
G01 X-1.5504 Y16.1605
G01 X-1.5461 Y16.1889
G01 X-1.5449 Y16.1991
G01 X-1.5436 Y16.2247
G01 X-1.5435 Y16.2350
G01 X-1.5449 Y16.2640
G01 X-1.5461 Y16.2741
G01 X-1.5493 Y16.2960
G01 X-1.5511 Y16.3058
G01 X-1.5583 Y16.3343
G01 X-1.5613 Y16.3440
G01 X-1.5700 Y16.3681
G01 X-1.5740 Y16.3775
G01 X-1.5862 Y16.4030
G01 X-1.6032 Y16.4316
G01 X-1.6090 Y16.4400
G01 X-1.6266 Y16.4634
G01 X-1.6504 Y16.4897
G01 X-1.6718 Y16.5093
G01 X-1.6792 Y16.5156
G01 X-1.7029 Y16.5332
G01 X-1.7115 Y16.5388
G01 X-1.7372 Y16.5539
G01 X-1.7626 Y16.5661
G01 X-1.7720 Y16.5701
G01 X-1.7961 Y16.5788
G01 X-1.8058 Y16.5818
G01 X-1.8343 Y16.5890
G01 X-1.8441 Y16.5908
G01 X-1.8693 Y16.5945
G01 X-1.8797 Y16.5954
G01 X-1.9086 Y16.5966
G01 X-3.0038 Y16.5966
G01 X-3.0363 Y16.5952
G01 X-3.0464 Y16.5940
G01 X-3.0748 Y16.5897
G01 X-3.1032 Y16.5827
G01 X-3.1163 Y16.5788
G01 X-3.1371 Y16.5713
G01 X-3.1468 Y16.5674
G01 X-3.1752 Y16.5539
G01 X-3.2070 Y16.5349
G01 X-3.2357 Y16.5135
G01 X-3.2570 Y16.4944
G01 X-3.2667 Y16.4847
G01 X-3.2837 Y16.4659
G01 X-3.2898 Y16.4583
G01 X-3.3074 Y16.4344
G01 X-3.3262 Y16.4030
G01 X-3.3411 Y16.3713
G01 X-3.3521 Y16.3411
G01 X-3.3550 Y16.3309
G01 X-3.3604 Y16.3095
G01 X-3.3631 Y16.2960
G00 Z2.0000
G00 X-3.4521 Y16.3092
G01 F60.00
G01 Z0.0000
G01 F120.00
G01 X-3.4567 Y16.2765
G01 X-3.4576 Y16.2649
G01 X-3.4589 Y16.2315
G01 X-3.4589 Y14.2630
G01 X-3.4772 Y14.2795
G01 X-3.4854 Y14.2863
G01 X-3.5176 Y14.3099
G01 X-3.5527 Y14.3311
G01 X-3.5615 Y14.3358
G01 X-3.5860 Y14.3474
G01 X-3.5962 Y14.3519
G01 X-3.6069 Y14.3561
G01 X-3.6324 Y14.3651
G01 X-3.6436 Y14.3686
G01 X-3.6820 Y14.3780
G01 X-3.7201 Y14.3838
G01 X-3.7371 Y14.3853
G01 X-3.7705 Y14.3866
G01 X-4.4106 Y14.3866
G01 X-4.4107 Y16.2372
G01 X-4.4128 Y16.2765
G01 X-4.4174 Y16.3092
G01 X-4.4193 Y16.3200
G01 X-4.4272 Y16.3528
G01 X-4.4303 Y16.3640
G01 X-4.4432 Y16.4005
G01 X-4.4498 Y16.4160
G01 X-4.4615 Y16.4405
G01 X-4.4661 Y16.4493
G01 X-4.4813 Y16.4748
G01 X-4.4876 Y16.4849
G01 X-4.5077 Y16.5123
G01 X-4.5178 Y16.5248
G01 X-4.5439 Y16.5533
G01 X-4.5725 Y16.5795
G01 X-4.5849 Y16.5895
G01 X-4.6129 Y16.6099
G01 X-4.6414 Y16.6273
G01 X-4.6568 Y16.6358
G01 X-4.6914 Y16.6519
G01 X-4.7277 Y16.6651
G01 X-4.7445 Y16.6701
G01 X-4.7773 Y16.6780
G01 X-4.7881 Y16.6798
G01 X-4.8208 Y16.6844
G01 X-4.8601 Y16.6866
G01 X-4.8770 Y16.6864
G01 X-4.9107 Y16.6844
G01 X-4.9488 Y16.6790
G01 X-4.9655 Y16.6754
G01 X-4.9982 Y16.6669
G01 X-5.0347 Y16.6541
G01 X-5.0502 Y16.6474
G01 X-5.0791 Y16.6335
G01 X-5.1090 Y16.6160
G01 X-5.1239 Y16.6062
G01 X-5.1549 Y16.5829
G01 X-5.1794 Y16.5611
G01 X-5.1875 Y16.5533
G01 X-5.2102 Y16.5288
G01 X-5.2237 Y16.5123
G01 X-5.2441 Y16.4844
G01 X-5.2615 Y16.4559
G01 X-5.2677 Y16.4449
G01 X-5.2722 Y16.4360
G01 X-5.2861 Y16.4058
G01 X-5.2903 Y16.3952
G01 X-5.3011 Y16.3640
G01 X-5.3110 Y16.3253
G01 X-5.3140 Y16.3092
G01 X-5.3186 Y16.2765
G01 X-5.3195 Y16.2649
G01 X-5.3208 Y16.2315
G01 X-5.3208 Y13.9259
G01 X-5.3186 Y13.8866
G01 X-5.3140 Y13.8539
G01 X-5.3110 Y13.8377
G01 X-5.3011 Y13.7990
G01 X-5.2883 Y13.7625
G01 X-5.2816 Y13.7470
G01 X-5.2677 Y13.7181
G01 X-5.2615 Y13.7072
G01 X-5.2471 Y13.6832
G01 X-5.2376 Y13.6694
G01 X-5.2171 Y13.6423
G01 X-5.1915 Y13.6138
G01 X-5.1794 Y13.6019
G01 X-5.1549 Y13.5801
G01 X-5.1278 Y13.5596
G01 X-5.1138 Y13.5500
G01 X-5.0835 Y13.5319
G01 X-5.0702 Y13.5251
G01 X-5.0400 Y13.5111
G01 X-5.0086 Y13.4995
G01 X-4.9926 Y13.4945
G01 X-4.9595 Y13.4862
G01 X-4.9434 Y13.4832
G01 X-4.9107 Y13.4786
G01 X-4.8770 Y13.4767
G01 X-4.8657 Y13.4764
G01 X-3.7705 Y13.4764
G01 X-3.7313 Y13.4781
G01 X-3.7147 Y13.4800
G01 X-3.6820 Y13.4851
G01 X-3.6493 Y13.4930
G01 X-3.6324 Y13.4979
G01 X-3.6069 Y13.5070
G01 X-3.5909 Y13.5134
G01 X-3.5615 Y13.5273
G01 X-3.5461 Y13.5357
G01 X-3.5221 Y13.5502
G01 X-3.5084 Y13.5596
G01 X-3.4813 Y13.5801
G01 X-3.4569 Y13.6019
G01 X-3.4487 Y13.6097
G01 X-3.4261 Y13.6343
G01 X-3.4157 Y13.6465
G01 X-3.3953 Y13.6740
G01 X-3.3872 Y13.6864
G01 X-3.3785 Y13.6733
G01 X-3.3586 Y13.6465
G01 X-3.3483 Y13.6343
G01 X-3.3256 Y13.6097
G01 X-3.3011 Y13.5871
G01 X-3.2889 Y13.5768
G01 X-3.2613 Y13.5563
G01 X-3.2471 Y13.5471
G01 X-3.2172 Y13.5296
G01 X-3.1883 Y13.5156
G01 X-3.1728 Y13.5090
G01 X-3.1419 Y13.4979
G01 X-3.1251 Y13.4930
G01 X-3.0923 Y13.4851
G01 X-3.0596 Y13.4800
G01 X-3.0430 Y13.4781
G01 X-3.0038 Y13.4764
G01 X-1.9086 Y13.4764
G01 X-1.8752 Y13.4778
G01 X-1.8582 Y13.4792
G01 X-1.8201 Y13.4851
G01 X-1.7874 Y13.4930
G01 X-1.7705 Y13.4979
G01 X-1.7343 Y13.5111
G01 X-1.7041 Y13.5251
G01 X-1.6908 Y13.5319
G01 X-1.6602 Y13.5502
G01 X-1.6465 Y13.5596
G01 X-1.6194 Y13.5801
G01 X-1.5949 Y13.6019
G01 X-1.5868 Y13.6097
G01 X-1.5642 Y13.6343
G01 X-1.5538 Y13.6465
G01 X-1.5334 Y13.6740
G01 X-1.5241 Y13.6882
G01 X-1.5066 Y13.7181
G01 X-1.4927 Y13.7470
G01 X-1.4860 Y13.7625
G01 X-1.4750 Y13.7934
G01 X-1.4701 Y13.8103
G01 X-1.4622 Y13.8431
G01 X-1.4603 Y13.8539
G01 X-1.4557 Y13.8866
G01 X-1.4548 Y13.8982
G01 X-1.4535 Y13.9315
G01 X-1.4548 Y13.9649
G01 X-1.4563 Y13.9819
G01 X-1.4612 Y14.0146
G01 X-1.4647 Y14.0313
G01 X-1.4732 Y14.0640
G01 X-1.4841 Y14.0952
G01 X-1.4904 Y14.1111
G01 X-1.5066 Y14.1449
G01 X-1.5128 Y14.1559
G01 X-1.5305 Y14.1849
G01 X-1.5498 Y14.2113
G01 X-1.5572 Y14.2207
G01 X-1.5790 Y14.2452
G01 X-1.5908 Y14.2573
G01 X-1.6194 Y14.2829
G01 X-1.6511 Y14.3067
G01 X-1.6605 Y14.3130
G01 X-1.6842 Y14.3273
G01 X-1.6952 Y14.3335
G01 X-1.7041 Y14.3380
G01 X-1.7343 Y14.3519
G01 X-1.7450 Y14.3561
G01 X-1.7761 Y14.3669
G01 X-1.7874 Y14.3701
G01 X-1.8201 Y14.3780
G01 X-1.8582 Y14.3838
G01 X-1.8752 Y14.3853
G01 X-1.9086 Y14.3866
G01 X-2.5487 Y14.3866
G01 X-2.5487 Y14.6812
G01 X-2.2372 Y14.6812
G01 X-2.2038 Y14.6825
G01 X-2.1922 Y14.6834
G01 X-2.1595 Y14.6880
G01 X-2.1487 Y14.6899
G01 X-2.1159 Y14.6978
G01 X-2.1047 Y14.7009
G01 X-2.0735 Y14.7118
G01 X-2.0576 Y14.7181
G01 X-2.0282 Y14.7320
G01 X-2.0128 Y14.7405
G01 X-1.9838 Y14.7582
G01 X-1.9563 Y14.7783
G01 X-1.9439 Y14.7883
G01 X-1.9153 Y14.8145
G01 X-1.8892 Y14.8430
G01 X-1.8791 Y14.8555
G01 X-1.8587 Y14.8834
G01 X-1.8413 Y14.9119
G01 X-1.8329 Y14.9273
G01 X-1.8167 Y14.9620
G01 X-1.8052 Y14.9935
G01 X-1.8001 Y15.0094
G01 X-1.7907 Y15.0478
G01 X-1.7856 Y15.0805
G01 X-1.7838 Y15.0971
G01 X-1.7820 Y15.1363
G01 X-1.7834 Y15.1696
G01 X-1.7843 Y15.1812
G01 X-1.7889 Y15.2140
G01 X-1.7918 Y15.2301
G01 X-1.8001 Y15.2632
G01 X-1.8035 Y15.2744
G01 X-1.8146 Y15.3053
G01 X-1.8213 Y15.3208
G01 X-1.8352 Y15.3497
G01 X-1.8527 Y15.3796
G01 X-1.8624 Y15.3945
G01 X-1.8791 Y15.4171
G01 X-1.8892 Y15.4296
G01 X-1.9114 Y15.4541
G01 X-1.9235 Y15.4659
G01 X-1.9480 Y15.4877
G01 X-1.9797 Y15.5115
G01 X-1.9938 Y15.5207
G01 X-2.0237 Y15.5383
G01 X-2.0527 Y15.5522
G01 X-2.0682 Y15.5588
G01 X-2.1047 Y15.5717
G01 X-2.1374 Y15.5802
G01 X-2.1541 Y15.5837
G01 X-2.1922 Y15.5892
G01 X-2.2315 Y15.5913
G01 X-2.5487 Y15.5914
G01 X-2.5487 Y15.7764
G01 X-1.9086 Y15.7764
G01 X-1.8694 Y15.7781
G01 X-1.8528 Y15.7800
G01 X-1.8201 Y15.7851
G01 X-1.7817 Y15.7945
G01 X-1.7658 Y15.7995
G01 X-1.7343 Y15.8111
G01 X-1.6996 Y15.8273
G01 X-1.6842 Y15.8357
G01 X-1.6553 Y15.8534
G01 X-1.6288 Y15.8728
G01 X-1.6194 Y15.8801
G01 X-1.5949 Y15.9019
G01 X-1.5868 Y15.9097
G01 X-1.5790 Y15.9179
G01 X-1.5572 Y15.9423
G01 X-1.5498 Y15.9517
G01 X-1.5302 Y15.9787
G01 X-1.5128 Y16.0072
G01 X-1.5066 Y16.0181
G01 X-1.4927 Y16.0470
G01 X-1.4882 Y16.0572
G01 X-1.4841 Y16.0679
G01 X-1.4732 Y16.0990
G01 X-1.4701 Y16.1103
G01 X-1.4622 Y16.1431
G01 X-1.4603 Y16.1539
G01 X-1.4557 Y16.1866
G01 X-1.4548 Y16.1982
G01 X-1.4535 Y16.2315
G01 X-1.4548 Y16.2649
G01 X-1.4557 Y16.2765
G01 X-1.4603 Y16.3092
G01 X-1.4622 Y16.3200
G01 X-1.4701 Y16.3528
G01 X-1.4732 Y16.3640
G01 X-1.4841 Y16.3952
G01 X-1.4882 Y16.4058
G01 X-1.4927 Y16.4160
G01 X-1.5066 Y16.4449
G01 X-1.5128 Y16.4559
G01 X-1.5273 Y16.4799
G01 X-1.5367 Y16.4936
G01 X-1.5572 Y16.5207
G01 X-1.5790 Y16.5452
G01 X-1.5868 Y16.5533
G01 X-1.6113 Y16.5760
G01 X-1.6235 Y16.5863
G01 X-1.6511 Y16.6067
G01 X-1.6653 Y16.6160
G01 X-1.6952 Y16.6335
G01 X-1.7241 Y16.6474
G01 X-1.7396 Y16.6541
G01 X-1.7658 Y16.6635
G01 X-1.7817 Y16.6686
G01 X-1.8148 Y16.6768
G01 X-1.8309 Y16.6798
G01 X-1.8582 Y16.6838
G01 X-1.8752 Y16.6853
G01 X-1.9086 Y16.6866
G01 X-3.0038 Y16.6866
G01 X-3.0372 Y16.6853
G01 X-3.0488 Y16.6844
G01 X-3.0815 Y16.6798
G01 X-3.0923 Y16.6780
G01 X-3.1307 Y16.6686
G01 X-3.1419 Y16.6651
G01 X-3.1675 Y16.6561
G01 X-3.1781 Y16.6519
G01 X-3.1883 Y16.6474
G01 X-3.2128 Y16.6358
G01 X-3.2216 Y16.6311
G01 X-3.2471 Y16.6160
G01 X-3.2572 Y16.6096
G01 X-3.2836 Y16.5903
G01 X-3.2930 Y16.5829
G01 X-3.3216 Y16.5573
G01 X-3.3296 Y16.5493
G01 X-3.3483 Y16.5288
G01 X-3.3618 Y16.5123
G01 X-3.3822 Y16.4844
G01 X-3.3996 Y16.4559
G01 X-3.4058 Y16.4449
G01 X-3.4197 Y16.4160
G01 X-3.4242 Y16.4058
G01 X-3.4374 Y16.3696
G01 X-3.4409 Y16.3584
G01 X-3.4477 Y16.3313
G01 X-3.4503 Y16.3200
G01 X-3.4521 Y16.3092
G00 Z2.0000
G00 X-5.1080 Y13.8011
G01 F60.00
G01 Z0.0000
G01 F120.00
G01 X-5.0931 Y13.7767
G01 X-5.0783 Y13.7569
G01 X-5.0620 Y13.7388
G01 X-5.0404 Y13.7189
G01 X-5.0186 Y13.7028
G01 X-4.9952 Y13.6888
G01 X-4.9687 Y13.6765
G01 X-4.9457 Y13.6683
G01 X-4.9218 Y13.6622
G01 X-4.8928 Y13.6577
G01 X-4.8657 Y13.6564
G01 X-3.7705 Y13.6564
G01 X-3.7447 Y13.6576
G01 X-3.7169 Y13.6617
G01 X-3.6930 Y13.6676
G01 X-3.6630 Y13.6783
G01 X-3.6410 Y13.6888
G01 X-3.6175 Y13.7028
G01 X-3.5959 Y13.7189
G01 X-3.5760 Y13.7370
G01 X-3.5579 Y13.7569
G01 X-3.5432 Y13.7767
G01 X-3.5268 Y13.8040
G01 X-3.5163 Y13.8262
G01 X-3.5072 Y13.8516
G01 X-3.5006 Y13.8779
G01 X-3.4967 Y13.9045
G01 X-3.4954 Y13.9315
G01 X-3.4967 Y13.9586
G01 X-3.5006 Y13.9851
G01 X-3.5066 Y14.0090
G01 X-3.5173 Y14.0390
G01 X-3.5277 Y14.0610
G01 X-3.5418 Y14.0845
G01 X-3.5579 Y14.1062
G01 X-3.5760 Y14.1261
G01 X-3.5959 Y14.1441
G01 X-3.6156 Y14.1589
G01 X-3.6430 Y14.1753
G01 X-3.6652 Y14.1857
G01 X-3.6918 Y14.1951
G01 X-3.7192 Y14.2018
G01 X-3.7434 Y14.2053
G01 X-3.7693 Y14.2066
G01 X-4.5906 Y14.2066
G01 X-4.5906 Y16.2315
G01 X-4.5919 Y16.2586
G01 X-4.5959 Y16.2851
G01 X-4.6025 Y16.3115
G01 X-4.6116 Y16.3368
G01 X-4.6220 Y16.3590
G01 X-4.6384 Y16.3864
G01 X-4.6531 Y16.4062
G01 X-4.6712 Y16.4261
G01 X-4.6911 Y16.4441
G01 X-4.7109 Y16.4589
G01 X-4.7382 Y16.4753
G01 X-4.7604 Y16.4857
G01 X-4.7858 Y16.4948
G01 X-4.8121 Y16.5014
G01 X-4.8387 Y16.5053
G01 X-4.8657 Y16.5066
G01 X-4.8928 Y16.5053
G01 X-4.9193 Y16.5014
G01 X-4.9457 Y16.4948
G01 X-4.9710 Y16.4857
G01 X-4.9952 Y16.4743
G01 X-5.0187 Y16.4602
G01 X-5.0404 Y16.4441
G01 X-5.0603 Y16.4261
G01 X-5.0783 Y16.4062
G01 X-5.0945 Y16.3844
G01 X-5.1085 Y16.3610
G01 X-5.1199 Y16.3368
G01 X-5.1290 Y16.3115
G01 X-5.1356 Y16.2851
G01 X-5.1395 Y16.2586
G01 X-5.1408 Y16.2315
G01 X-5.1408 Y13.9303
G01 X-5.1392 Y13.9021
G01 X-5.1356 Y13.8779
G01 X-5.1296 Y13.8540
G01 X-5.1199 Y13.8262
G01 X-5.1080 Y13.8011
G00 Z2.0000
G00 X-5.1866 Y13.7574
G01 F60.00
G01 Z0.0000
G01 F120.00
G01 X-5.1711 Y13.7314
G01 X-5.1654 Y13.7231
G01 X-5.1477 Y13.6996
G01 X-5.1286 Y13.6783
G01 X-5.1214 Y13.6710
G01 X-5.0976 Y13.6495
G01 X-5.0686 Y13.6279
G01 X-5.0372 Y13.6092
G01 X-5.0087 Y13.5956
G01 X-4.9990 Y13.5917
G01 X-4.9720 Y13.5822
G01 X-4.9437 Y13.5749
G01 X-4.9335 Y13.5728
G01 X-4.9050 Y13.5686
G01 X-4.8947 Y13.5677
G01 X-4.8657 Y13.5664
G01 X-3.7705 Y13.5664
G01 X-3.7380 Y13.5679
G01 X-3.7279 Y13.5690
G01 X-3.6995 Y13.5734
G01 X-3.6711 Y13.5803
G01 X-3.6609 Y13.5833
G01 X-3.6372 Y13.5917
G01 X-3.6245 Y13.5970
G01 X-3.5964 Y13.6106
G01 X-3.5673 Y13.6281
G01 X-3.5386 Y13.6495
G01 X-3.5123 Y13.6734
G01 X-3.4885 Y13.6996
G01 X-3.4709 Y13.7231
G01 X-3.4632 Y13.7345
G01 X-3.4496 Y13.7574
G01 X-3.4454 Y13.7655
G01 X-3.4332 Y13.7917
G01 X-3.4212 Y13.8253
G01 X-3.4124 Y13.8605
G01 X-3.4075 Y13.8922
G01 X-3.4066 Y13.9026
G01 X-3.4055 Y13.9247
G01 X-3.4055 Y13.9384
G01 X-3.4072 Y13.9675
G01 X-3.4112 Y13.9960
G01 X-3.4130 Y14.0058
G01 X-3.4212 Y14.0378
G01 X-3.4332 Y14.0713
G01 X-3.4481 Y14.1030
G01 X-3.4632 Y14.1286
G01 X-3.4709 Y14.1400
G01 X-3.4865 Y14.1609
G01 X-3.4927 Y14.1684
G01 X-3.5123 Y14.1897
G01 X-3.5386 Y14.2135
G01 X-3.5676 Y14.2351
G01 X-3.5924 Y14.2501
G01 X-3.6018 Y14.2553
G01 X-3.6245 Y14.2661
G01 X-3.6372 Y14.2713
G01 X-3.6643 Y14.2808
G01 X-3.6995 Y14.2897
G01 X-3.7345 Y14.2949
G01 X-3.7671 Y14.2966
G01 X-4.5006 Y14.2966
G01 X-4.5006 Y16.2315
G01 X-4.5019 Y16.2605
G01 X-4.5032 Y16.2741
G01 X-4.5076 Y16.3026
G01 X-4.5164 Y16.3377
G01 X-4.5284 Y16.3713
G01 X-4.5406 Y16.3975
G01 X-4.5448 Y16.4056
G01 X-4.5585 Y16.4286
G01 X-4.5661 Y16.4400
G01 X-4.5837 Y16.4634
G01 X-4.6076 Y16.4897
G01 X-4.6338 Y16.5135
G01 X-4.6573 Y16.5311
G01 X-4.6687 Y16.5388
G01 X-4.6916 Y16.5524
G01 X-4.6998 Y16.5566
G01 X-4.7259 Y16.5688
G01 X-4.7595 Y16.5808
G01 X-4.7947 Y16.5897
G01 X-4.8264 Y16.5945
G01 X-4.8368 Y16.5954
G01 X-4.8657 Y16.5966
G01 X-4.9017 Y16.5949
G01 X-4.9368 Y16.5897
G01 X-4.9720 Y16.5808
G01 X-5.0055 Y16.5688
G01 X-5.0372 Y16.5539
G01 X-5.0689 Y16.5349
G01 X-5.0951 Y16.5156
G01 X-5.1026 Y16.5093
G01 X-5.1239 Y16.4897
G01 X-5.1477 Y16.4634
G01 X-5.1693 Y16.4344
G01 X-5.1866 Y16.4056
G01 X-5.1908 Y16.3975
G01 X-5.2030 Y16.3713
G01 X-5.2150 Y16.3377
G01 X-5.2239 Y16.3026
G01 X-5.2287 Y16.2708
G01 X-5.2296 Y16.2605
G01 X-5.2308 Y16.2315
G01 X-5.2308 Y13.9281
G01 X-5.2294 Y13.8991
G01 X-5.2282 Y13.8889
G01 X-5.2239 Y13.8605
G01 X-5.2170 Y13.8322
G01 X-5.2140 Y13.8219
G01 X-5.2030 Y13.7917
G01 X-5.1908 Y13.7655
G01 X-5.1866 Y13.7574
G00 Z2.0000
G00 X-7.2203 Y16.2597
G01 F60.00
G01 Z0.0000
G01 F120.00
G01 X-7.2218 Y16.2315
G01 X-7.2218 Y13.9303
G01 X-7.2202 Y13.9021
G01 X-7.2165 Y13.8779
G01 X-7.2106 Y13.8540
G01 X-7.2008 Y13.8262
G01 X-7.1881 Y13.7997
G01 X-7.1740 Y13.7767
G01 X-7.1593 Y13.7569
G01 X-7.1429 Y13.7388
G01 X-7.1213 Y13.7189
G01 X-7.0995 Y13.7028
G01 X-7.0742 Y13.6878
G01 X-7.0520 Y13.6774
G01 X-7.0289 Y13.6690
G01 X-7.0003 Y13.6617
G01 X-6.9725 Y13.6576
G01 X-6.9467 Y13.6564
G01 X-5.8502 Y13.6564
G01 X-5.8220 Y13.6580
G01 X-5.7978 Y13.6617
G01 X-5.7739 Y13.6676
G01 X-5.7461 Y13.6774
G01 X-5.7196 Y13.6901
G01 X-5.6985 Y13.7028
G01 X-5.6786 Y13.7175
G01 X-5.6569 Y13.7370
G01 X-5.6374 Y13.7587
G01 X-5.6227 Y13.7787
G01 X-5.6100 Y13.7997
G01 X-5.5973 Y13.8262
G01 X-5.5875 Y13.8540
G01 X-5.5816 Y13.8779
G01 X-5.5780 Y13.9021
G01 X-5.5763 Y13.9315
G01 X-5.5780 Y13.9609
G01 X-5.5816 Y13.9851
G01 X-5.5875 Y14.0090
G01 X-5.5973 Y14.0368
G01 X-5.6100 Y14.0633
G01 X-5.6228 Y14.0845
G01 X-5.6374 Y14.1043
G01 X-5.6569 Y14.1261
G01 X-5.6788 Y14.1457
G01 X-5.6986 Y14.1603
G01 X-5.7210 Y14.1738
G01 X-5.7461 Y14.1857
G01 X-5.7739 Y14.1954
G01 X-5.7978 Y14.2014
G01 X-5.8220 Y14.2050
G01 X-5.8502 Y14.2066
G01 X-6.6716 Y14.2066
G01 X-6.6716 Y14.8612
G01 X-6.1788 Y14.8612
G01 X-6.1530 Y14.8625
G01 X-6.1264 Y14.8664
G01 X-6.1001 Y14.8730
G01 X-6.0770 Y14.8812
G01 X-6.0482 Y14.8949
G01 X-6.0271 Y14.9076
G01 X-6.0054 Y14.9237
G01 X-5.9855 Y14.9418
G01 X-5.9690 Y14.9599
G01 X-5.9513 Y14.9834
G01 X-5.9363 Y15.0088
G01 X-5.9259 Y15.0310
G01 X-5.9168 Y15.0563
G01 X-5.9098 Y15.0850
G01 X-5.9062 Y15.1092
G01 X-5.9049 Y15.1363
G01 X-5.9062 Y15.1633
G01 X-5.9098 Y15.1875
G01 X-5.9168 Y15.2162
G01 X-5.9259 Y15.2416
G01 X-5.9363 Y15.2638
G01 X-5.9513 Y15.2892
G01 X-5.9690 Y15.3127
G01 X-5.9855 Y15.3308
G01 X-6.0054 Y15.3489
G01 X-6.0272 Y15.3650
G01 X-6.0482 Y15.3777
G01 X-6.0770 Y15.3913
G01 X-6.1001 Y15.3995
G01 X-6.1264 Y15.4061
G01 X-6.1530 Y15.4101
G01 X-6.1788 Y15.4114
G01 X-6.6716 Y15.4114
G01 X-6.6716 Y15.9564
G01 X-5.8502 Y15.9564
G01 X-5.8244 Y15.9577
G01 X-5.7978 Y15.9617
G01 X-5.7715 Y15.9683
G01 X-5.7473 Y15.9769
G01 X-5.7220 Y15.9888
G01 X-5.6985 Y16.0028
G01 X-5.6768 Y16.0189
G01 X-5.6552 Y16.0388
G01 X-5.6381 Y16.0578
G01 X-5.6214 Y16.0808
G01 X-5.6087 Y16.1021
G01 X-5.5983 Y16.1240
G01 X-5.5889 Y16.1493
G01 X-5.5816 Y16.1779
G01 X-5.5777 Y16.2045
G01 X-5.5763 Y16.2315
G01 X-5.5777 Y16.2586
G01 X-5.5816 Y16.2851
G01 X-5.5882 Y16.3115
G01 X-5.5973 Y16.3368
G01 X-5.6100 Y16.3633
G01 X-5.6241 Y16.3864
G01 X-5.6389 Y16.4062
G01 X-5.6552 Y16.4243
G01 X-5.6768 Y16.4441
G01 X-5.6986 Y16.4603
G01 X-5.7220 Y16.4743
G01 X-5.7485 Y16.4866
G01 X-5.7715 Y16.4948
G01 X-5.7954 Y16.5008
G01 X-5.8244 Y16.5053
G01 X-5.8514 Y16.5066
G01 X-6.9467 Y16.5066
G01 X-6.9725 Y16.5054
G01 X-7.0003 Y16.5014
G01 X-7.0242 Y16.4954
G01 X-7.0542 Y16.4847
G01 X-7.0761 Y16.4743
G01 X-7.0996 Y16.4602
G01 X-7.1213 Y16.4441
G01 X-7.1412 Y16.4261
G01 X-7.1593 Y16.4062
G01 X-7.1740 Y16.3864
G01 X-7.1904 Y16.3590
G01 X-7.2008 Y16.3368
G01 X-7.2099 Y16.3115
G01 X-7.2165 Y16.2851
G01 X-7.2203 Y16.2597
G00 Z2.0000
G00 X-7.3096 Y16.2708
G01 F60.00
G01 Z0.0000
G01 F120.00
G01 X-7.3105 Y16.2605
G01 X-7.3118 Y16.2315
G01 X-7.3118 Y13.9281
G01 X-7.3100 Y13.8955
G01 X-7.3060 Y13.8671
G01 X-7.3033 Y13.8536
G01 X-7.2960 Y13.8253
G01 X-7.2865 Y13.7982
G01 X-7.2812 Y13.7855
G01 X-7.2690 Y13.7601
G01 X-7.2520 Y13.7314
G01 X-7.2463 Y13.7231
G01 X-7.2287 Y13.6996
G01 X-7.2096 Y13.6783
G01 X-7.2024 Y13.6710
G01 X-7.1811 Y13.6516
G01 X-7.1735 Y13.6455
G01 X-7.1495 Y13.6279
G01 X-7.1248 Y13.6129
G01 X-7.1154 Y13.6078
G01 X-7.0865 Y13.5942
G01 X-7.0529 Y13.5822
G01 X-7.0177 Y13.5734
G01 X-6.9893 Y13.5690
G01 X-6.9791 Y13.5679
G01 X-6.9467 Y13.5664
G01 X-5.8446 Y13.5666
G01 X-5.8154 Y13.5682
G01 X-5.7870 Y13.5723
G01 X-5.7735 Y13.5749
G01 X-5.7452 Y13.5822
G01 X-5.7181 Y13.5917
G01 X-5.7054 Y13.5970
G01 X-5.6800 Y13.6092
G01 X-5.6513 Y13.6262
G01 X-5.6430 Y13.6319
G01 X-5.6195 Y13.6495
G01 X-5.5957 Y13.6710
G01 X-5.5885 Y13.6783
G01 X-5.5694 Y13.6996
G01 X-5.5518 Y13.7231
G01 X-5.5442 Y13.7345
G01 X-5.5291 Y13.7601
G01 X-5.5155 Y13.7885
G01 X-5.5116 Y13.7982
G01 X-5.5021 Y13.8253
G01 X-5.4949 Y13.8536
G01 X-5.4927 Y13.8638
G01 X-5.4881 Y13.8955
G01 X-5.4863 Y13.9315
G01 X-5.4881 Y13.9675
G01 X-5.4927 Y13.9993
G01 X-5.4949 Y14.0095
G01 X-5.5021 Y14.0378
G01 X-5.5116 Y14.0648
G01 X-5.5155 Y14.0745
G01 X-5.5291 Y14.1030
G01 X-5.5481 Y14.1347
G01 X-5.5654 Y14.1583
G01 X-5.5737 Y14.1684
G01 X-5.5933 Y14.1897
G01 X-5.6146 Y14.2093
G01 X-5.6246 Y14.2175
G01 X-5.6458 Y14.2332
G01 X-5.6544 Y14.2388
G01 X-5.6800 Y14.2539
G01 X-5.7084 Y14.2674
G01 X-5.7181 Y14.2713
G01 X-5.7452 Y14.2808
G01 X-5.7735 Y14.2881
G01 X-5.7870 Y14.2908
G01 X-5.8088 Y14.2940
G01 X-5.8190 Y14.2952
G01 X-5.8514 Y14.2966
G01 X-6.5816 Y14.2966
G01 X-6.5816 Y14.7712
G01 X-6.1800 Y14.7712
G01 X-6.1475 Y14.7726
G01 X-6.1374 Y14.7738
G01 X-6.1090 Y14.7781
G01 X-6.0772 Y14.7860
G01 X-6.0675 Y14.7891
G01 X-6.0434 Y14.7977
G01 X-6.0340 Y14.8018
G01 X-6.0140 Y14.8112
G01 X-6.0019 Y14.8177
G01 X-5.9830 Y14.8290
G01 X-5.9739 Y14.8350
G01 X-5.9481 Y14.8543
G01 X-5.9268 Y14.8734
G01 X-5.9194 Y14.8806
G01 X-5.8980 Y14.9044
G01 X-5.8804 Y14.9278
G01 X-5.8728 Y14.9392
G01 X-5.8576 Y14.9649
G01 X-5.8455 Y14.9903
G01 X-5.8402 Y15.0030
G01 X-5.8307 Y15.0301
G01 X-5.8234 Y15.0584
G01 X-5.8207 Y15.0718
G01 X-5.8167 Y15.1003
G01 X-5.8149 Y15.1363
G01 X-5.8167 Y15.1723
G01 X-5.8207 Y15.2007
G01 X-5.8234 Y15.2142
G01 X-5.8307 Y15.2425
G01 X-5.8402 Y15.2696
G01 X-5.8455 Y15.2823
G01 X-5.8576 Y15.3077
G01 X-5.8728 Y15.3333
G01 X-5.8787 Y15.3424
G01 X-5.8980 Y15.3682
G01 X-5.9194 Y15.3920
G01 X-5.9268 Y15.3992
G01 X-5.9481 Y15.4183
G01 X-5.9743 Y15.4379
G01 X-5.9830 Y15.4435
G01 X-6.0019 Y15.4549
G01 X-6.0140 Y15.4614
G01 X-6.0340 Y15.4708
G01 X-6.0434 Y15.4749
G01 X-6.0675 Y15.4835
G01 X-6.0772 Y15.4866
G01 X-6.1090 Y15.4944
G01 X-6.1374 Y15.4988
G01 X-6.1475 Y15.4999
G01 X-6.1800 Y15.5014
G01 X-6.5816 Y15.5014
G01 X-6.5816 Y15.8664
G01 X-5.8446 Y15.8666
G01 X-5.8190 Y15.8679
G01 X-5.8088 Y15.8690
G01 X-5.7804 Y15.8734
G01 X-5.7521 Y15.8803
G01 X-5.7418 Y15.8833
G01 X-5.7116 Y15.8942
G01 X-5.6855 Y15.9064
G01 X-5.6773 Y15.9106
G01 X-5.6483 Y15.9281
G01 X-5.6195 Y15.9495
G01 X-5.5933 Y15.9734
G01 X-5.5737 Y15.9947
G01 X-5.5674 Y16.0021
G01 X-5.5479 Y16.0287
G01 X-5.5291 Y16.0601
G01 X-5.5169 Y16.0855
G01 X-5.5129 Y16.0949
G01 X-5.5032 Y16.1219
G01 X-5.5002 Y16.1322
G01 X-5.4933 Y16.1605
G01 X-5.4889 Y16.1889
G01 X-5.4878 Y16.1991
G01 X-5.4865 Y16.2247
G01 X-5.4864 Y16.2350
G01 X-5.4878 Y16.2640
G01 X-5.4889 Y16.2741
G01 X-5.4922 Y16.2960
G01 X-5.4940 Y16.3058
G01 X-5.5011 Y16.3343
G01 X-5.5042 Y16.3440
G01 X-5.5129 Y16.3681
G01 X-5.5169 Y16.3775
G01 X-5.5291 Y16.4030
G01 X-5.5461 Y16.4316
G01 X-5.5518 Y16.4400
G01 X-5.5694 Y16.4634
G01 X-5.5933 Y16.4897
G01 X-5.6146 Y16.5093
G01 X-5.6221 Y16.5156
G01 X-5.6458 Y16.5332
G01 X-5.6544 Y16.5388
G01 X-5.6800 Y16.5539
G01 X-5.7054 Y16.5661
G01 X-5.7149 Y16.5701
G01 X-5.7389 Y16.5788
G01 X-5.7486 Y16.5818
G01 X-5.7772 Y16.5890
G01 X-5.7870 Y16.5908
G01 X-5.8121 Y16.5945
G01 X-5.8225 Y16.5954
G01 X-5.8514 Y16.5966
G01 X-6.9467 Y16.5966
G01 X-6.9827 Y16.5949
G01 X-7.0177 Y16.5897
G01 X-7.0529 Y16.5808
G01 X-7.0865 Y16.5688
G01 X-7.1127 Y16.5566
G01 X-7.1208 Y16.5524
G01 X-7.1437 Y16.5388
G01 X-7.1551 Y16.5311
G01 X-7.1786 Y16.5135
G01 X-7.2049 Y16.4897
G01 X-7.2287 Y16.4634
G01 X-7.2463 Y16.4400
G01 X-7.2539 Y16.4286
G01 X-7.2676 Y16.4056
G01 X-7.2718 Y16.3975
G01 X-7.2840 Y16.3713
G01 X-7.2960 Y16.3377
G01 X-7.3048 Y16.3026
G01 X-7.3096 Y16.2708
G00 Z2.0000
G00 X-7.3054 Y16.5113
G01 F60.00
G01 Z0.0000
G01 F120.00
G01 X-7.3219 Y16.4890
G01 X-7.3300 Y16.4766
G01 X-7.3386 Y16.4897
G01 X-7.3586 Y16.5166
G01 X-7.3689 Y16.5288
G01 X-7.3915 Y16.5533
G01 X-7.4161 Y16.5760
G01 X-7.4283 Y16.5863
G01 X-7.4558 Y16.6067
G01 X-7.4700 Y16.6160
G01 X-7.4999 Y16.6335
G01 X-7.5289 Y16.6474
G01 X-7.5444 Y16.6541
G01 X-7.5753 Y16.6651
G01 X-7.5921 Y16.6701
G01 X-7.6249 Y16.6780
G01 X-7.6357 Y16.6798
G01 X-7.6684 Y16.6844
G01 X-7.6800 Y16.6853
G01 X-7.7133 Y16.6866
G01 X-9.0333 Y16.6866
G01 X-9.0726 Y16.6844
G01 X-9.1053 Y16.6798
G01 X-9.1214 Y16.6768
G01 X-9.1601 Y16.6669
G01 X-9.1966 Y16.6541
G01 X-9.2121 Y16.6474
G01 X-9.2410 Y16.6335
G01 X-9.2709 Y16.6160
G01 X-9.2859 Y16.6062
G01 X-9.3168 Y16.5829
G01 X-9.3454 Y16.5573
G01 X-9.3572 Y16.5452
G01 X-9.3790 Y16.5207
G01 X-9.4029 Y16.4890
G01 X-9.4121 Y16.4748
G01 X-9.4296 Y16.4449
G01 X-9.4435 Y16.4160
G01 X-9.4480 Y16.4058
G01 X-9.4596 Y16.3744
G01 X-9.4647 Y16.3584
G01 X-9.4741 Y16.3200
G01 X-9.4759 Y16.3092
G01 X-9.4805 Y16.2765
G01 X-9.4825 Y16.2428
G01 X-9.4827 Y16.2315
G01 X-9.4825 Y16.2202
G01 X-9.4810 Y16.1924
G01 X-9.4799 Y16.1811
G01 X-9.4741 Y16.1431
G01 X-9.4647 Y16.1046
G01 X-9.4612 Y16.0934
G01 X-9.4522 Y16.0679
G01 X-9.4458 Y16.0520
G01 X-9.4296 Y16.0181
G01 X-9.4234 Y16.0072
G01 X-9.4090 Y15.9832
G01 X-9.4023 Y15.9733
G01 X-9.3856 Y15.9507
G01 X-9.3721 Y15.9343
G01 X-9.3494 Y15.9097
G01 X-9.3209 Y15.8836
G01 X-9.3075 Y15.8728
G01 X-9.2851 Y15.8563
G01 X-9.2757 Y15.8500
G01 X-9.2520 Y15.8357
G01 X-9.2410 Y15.8296
G01 X-9.2072 Y15.8134
G01 X-9.1913 Y15.8070
G01 X-9.1657 Y15.7979
G01 X-9.1545 Y15.7945
G01 X-9.1274 Y15.7876
G01 X-9.1107 Y15.7841
G01 X-9.0780 Y15.7792
G01 X-9.0610 Y15.7778
G01 X-9.0276 Y15.7764
G01 X-8.8256 Y15.7764
G01 X-8.8255 Y13.9259
G01 X-8.8239 Y13.8924
G01 X-8.8220 Y13.8757
G01 X-8.8169 Y13.8431
G01 X-8.8090 Y13.8103
G01 X-8.8041 Y13.7934
G01 X-8.7909 Y13.7572
G01 X-8.7769 Y13.7271
G01 X-8.7701 Y13.7137
G01 X-8.7518 Y13.6832
G01 X-8.7424 Y13.6694
G01 X-8.7219 Y13.6423
G01 X-8.6962 Y13.6138
G01 X-8.6841 Y13.6019
G01 X-8.6597 Y13.5801
G01 X-8.6280 Y13.5563
G01 X-8.6138 Y13.5471
G01 X-8.5839 Y13.5296
G01 X-8.5550 Y13.5156
G01 X-8.5395 Y13.5090
G01 X-8.5030 Y13.4961
G01 X-8.4643 Y13.4862
G01 X-8.4482 Y13.4832
G01 X-8.4154 Y13.4786
G01 X-8.3818 Y13.4767
G01 X-8.3648 Y13.4765
G01 X-8.3255 Y13.4786
G01 X-8.2928 Y13.4832
G01 X-8.2767 Y13.4862
G01 X-8.2380 Y13.4961
G01 X-8.2069 Y13.5070
G01 X-8.1909 Y13.5134
G01 X-8.1571 Y13.5296
G01 X-8.1272 Y13.5471
G01 X-8.1123 Y13.5568
G01 X-8.0813 Y13.5801
G01 X-8.0569 Y13.6019
G01 X-8.0447 Y13.6138
G01 X-8.0191 Y13.6423
G01 X-7.9986 Y13.6694
G01 X-7.9890 Y13.6834
G01 X-7.9747 Y13.7072
G01 X-7.9685 Y13.7181
G01 X-7.9546 Y13.7470
G01 X-7.9480 Y13.7625
G01 X-7.9351 Y13.7990
G01 X-7.9252 Y13.8377
G01 X-7.9222 Y13.8539
G01 X-7.9176 Y13.8866
G01 X-7.9154 Y13.9259
G01 X-7.9154 Y15.7764
G01 X-7.7133 Y15.7764
G01 X-7.7021 Y15.7767
G01 X-7.6742 Y15.7781
G01 X-7.6630 Y15.7792
G01 X-7.6303 Y15.7841
G01 X-7.6135 Y15.7876
G01 X-7.5808 Y15.7961
G01 X-7.5497 Y15.8070
G01 X-7.5338 Y15.8134
G01 X-7.4999 Y15.8296
G01 X-7.4700 Y15.8471
G01 X-7.4551 Y15.8568
G01 X-7.4241 Y15.8801
G01 X-7.4018 Y15.9000
G01 X-7.4018 Y13.9315
G01 X-7.4015 Y13.9202
G01 X-7.3996 Y13.8866
G01 X-7.3950 Y13.8539
G01 X-7.3931 Y13.8431
G01 X-7.3837 Y13.8046
G01 X-7.3803 Y13.7934
G01 X-7.3712 Y13.7679
G01 X-7.3671 Y13.7572
G01 X-7.3626 Y13.7470
G01 X-7.3509 Y13.7226
G01 X-7.3463 Y13.7137
G01 X-7.3311 Y13.6882
G01 X-7.3248 Y13.6782
G01 X-7.3047 Y13.6507
G01 X-7.2947 Y13.6383
G01 X-7.2724 Y13.6138
G01 X-7.2603 Y13.6019
G01 X-7.2359 Y13.5801
G01 X-7.2265 Y13.5728
G01 X-7.1995 Y13.5531
G01 X-7.1710 Y13.5357
G01 X-7.1601 Y13.5296
G01 X-7.1312 Y13.5156
G01 X-7.1210 Y13.5111
G01 X-7.1103 Y13.5070
G01 X-7.0792 Y13.4961
G01 X-7.0679 Y13.4930
G01 X-7.0351 Y13.4851
G01 X-7.0025 Y13.4800
G01 X-6.9858 Y13.4781
G01 X-6.9467 Y13.4764
G01 X-5.8514 Y13.4764
G01 X-5.8402 Y13.4767
G01 X-5.8065 Y13.4786
G01 X-5.7738 Y13.4832
G01 X-5.7576 Y13.4862
G01 X-5.7246 Y13.4945
G01 X-5.7086 Y13.4995
G01 X-5.6771 Y13.5111
G01 X-5.6470 Y13.5251
G01 X-5.6336 Y13.5319
G01 X-5.6031 Y13.5502
G01 X-5.5894 Y13.5596
G01 X-5.5622 Y13.5801
G01 X-5.5378 Y13.6019
G01 X-5.5257 Y13.6138
G01 X-5.5000 Y13.6423
G01 X-5.4927 Y13.6517
G01 X-5.4730 Y13.6787
G01 X-5.4556 Y13.7072
G01 X-5.4495 Y13.7181
G01 X-5.4333 Y13.7520
G01 X-5.4269 Y13.7679
G01 X-5.4178 Y13.7934
G01 X-5.4129 Y13.8103
G01 X-5.4050 Y13.8431
G01 X-5.3999 Y13.8757
G01 X-5.3980 Y13.8924
G01 X-5.3964 Y13.9259
G01 X-5.3966 Y13.9428
G01 X-5.3986 Y13.9765
G01 X-5.4031 Y14.0092
G01 X-5.4050 Y14.0200
G01 X-5.4129 Y14.0528
G01 X-5.4178 Y14.0696
G01 X-5.4289 Y14.1005
G01 X-5.4355 Y14.1160
G01 X-5.4495 Y14.1449
G01 X-5.4670 Y14.1748
G01 X-5.4767 Y14.1897
G01 X-5.4967 Y14.2166
G01 X-5.5070 Y14.2288
G01 X-5.5296 Y14.2533
G01 X-5.5378 Y14.2611
G01 X-5.5622 Y14.2829
G01 X-5.5894 Y14.3034
G01 X-5.5986 Y14.3099
G01 X-5.6081 Y14.3160
G01 X-5.6336 Y14.3311
G01 X-5.6425 Y14.3358
G01 X-5.6771 Y14.3519
G01 X-5.6878 Y14.3561
G01 X-5.7189 Y14.3669
G01 X-5.7576 Y14.3768
G01 X-5.7684 Y14.3790
G01 X-5.7956 Y14.3831
G01 X-5.8123 Y14.3849
G01 X-5.8514 Y14.3866
G01 X-6.4916 Y14.3866
G01 X-6.4916 Y14.6812
G01 X-6.1800 Y14.6812
G01 X-6.1687 Y14.6815
G01 X-6.1409 Y14.6829
G01 X-6.1242 Y14.6847
G01 X-6.0916 Y14.6899
G01 X-6.0588 Y14.6978
G01 X-6.0475 Y14.7009
G01 X-6.0372 Y14.7043
G01 X-6.0110 Y14.7137
G01 X-6.0005 Y14.7181
G01 X-5.9756 Y14.7298
G01 X-5.9622 Y14.7367
G01 X-5.9367 Y14.7518
G01 X-5.9267 Y14.7582
G01 X-5.8950 Y14.7815
G01 X-5.8867 Y14.7883
G01 X-5.8664 Y14.8067
G01 X-5.8582 Y14.8145
G01 X-5.8504 Y14.8226
G01 X-5.8320 Y14.8430
G01 X-5.8253 Y14.8512
G01 X-5.8048 Y14.8788
G01 X-5.7956 Y14.8930
G01 X-5.7780 Y14.9229
G01 X-5.7619 Y14.9567
G01 X-5.7555 Y14.9727
G01 X-5.7446 Y15.0038
G01 X-5.7347 Y15.0425
G01 X-5.7317 Y15.0586
G01 X-5.7271 Y15.0913
G01 X-5.7252 Y15.1250
G01 X-5.7250 Y15.1419
G01 X-5.7271 Y15.1812
G01 X-5.7326 Y15.2194
G01 X-5.7361 Y15.2361
G01 X-5.7446 Y15.2688
G01 X-5.7575 Y15.3053
G01 X-5.7641 Y15.3208
G01 X-5.7780 Y15.3497
G01 X-5.7842 Y15.3606
G01 X-5.8019 Y15.3896
G01 X-5.8213 Y15.4161
G01 X-5.8286 Y15.4255
G01 X-5.8504 Y15.4499
G01 X-5.8582 Y15.4581
G01 X-5.8664 Y15.4659
G01 X-5.8908 Y15.4877
G01 X-5.9002 Y15.4950
G01 X-5.9272 Y15.5147
G01 X-5.9557 Y15.5321
G01 X-5.9666 Y15.5383
G01 X-5.9955 Y15.5522
G01 X-6.0110 Y15.5588
G01 X-6.0475 Y15.5717
G01 X-6.0802 Y15.5802
G01 X-6.0916 Y15.5827
G01 X-6.1023 Y15.5846
G01 X-6.1296 Y15.5886
G01 X-6.1409 Y15.5897
G01 X-6.1800 Y15.5914
G01 X-6.4916 Y15.5914
G01 X-6.4916 Y15.7764
G01 X-5.8514 Y15.7764
G01 X-5.8123 Y15.7781
G01 X-5.7956 Y15.7800
G01 X-5.7630 Y15.7851
G01 X-5.7302 Y15.7930
G01 X-5.7134 Y15.7979
G01 X-5.6771 Y15.8111
G01 X-5.6470 Y15.8251
G01 X-5.6336 Y15.8319
G01 X-5.6031 Y15.8502
G01 X-5.5932 Y15.8568
G01 X-5.5664 Y15.8768
G01 X-5.5542 Y15.8871
G01 X-5.5337 Y15.9058
G01 X-5.5257 Y15.9138
G01 X-5.5035 Y15.9383
G01 X-5.4934 Y15.9507
G01 X-5.4795 Y15.9694
G01 X-5.4700 Y15.9834
G01 X-5.4519 Y16.0137
G01 X-5.4472 Y16.0226
G01 X-5.4355 Y16.0470
G01 X-5.4310 Y16.0572
G01 X-5.4269 Y16.0679
G01 X-5.4178 Y16.0934
G01 X-5.4129 Y16.1103
G01 X-5.4061 Y16.1377
G01 X-5.4040 Y16.1485
G01 X-5.3992 Y16.1811
G01 X-5.3980 Y16.1924
G01 X-5.3966 Y16.2202
G01 X-5.3964 Y16.2372
G01 X-5.3977 Y16.2649
G01 X-5.3992 Y16.2819
G01 X-5.4050 Y16.3200
G01 X-5.4129 Y16.3528
G01 X-5.4160 Y16.3640
G01 X-5.4269 Y16.3952
G01 X-5.4310 Y16.4058
G01 X-5.4450 Y16.4360
G01 X-5.4519 Y16.4493
G01 X-5.4701 Y16.4799
G01 X-5.4795 Y16.4936
G01 X-5.5000 Y16.5207
G01 X-5.5257 Y16.5493
G01 X-5.5378 Y16.5611
G01 X-5.5622 Y16.5829
G01 X-5.5939 Y16.6067
G01 X-5.6081 Y16.6160
G01 X-5.6380 Y16.6335
G01 X-5.6670 Y16.6474
G01 X-5.6824 Y16.6541
G01 X-5.7189 Y16.6669
G01 X-5.7576 Y16.6768
G01 X-5.7738 Y16.6798
G01 X-5.8065 Y16.6844
G01 X-5.8458 Y16.6866
G01 X-6.9467 Y16.6866
G01 X-6.9800 Y16.6853
G01 X-6.9971 Y16.6838
G01 X-7.0351 Y16.6780
G01 X-7.0679 Y16.6701
G01 X-7.0792 Y16.6669
G01 X-7.1103 Y16.6561
G01 X-7.1210 Y16.6519
G01 X-7.1511 Y16.6380
G01 X-7.1645 Y16.6311
G01 X-7.1900 Y16.6160
G01 X-7.2000 Y16.6096
G01 X-7.2275 Y16.5895
G01 X-7.2400 Y16.5795
G01 X-7.2645 Y16.5573
G01 X-7.2724 Y16.5493
G01 X-7.2947 Y16.5248
G01 X-7.3054 Y16.5113
G00 Z2.0000
G00 X-9.2699 Y16.1011
G01 F60.00
G01 Z0.0000
G01 F120.00
G01 X-9.2563 Y16.0786
G01 X-9.2402 Y16.0569
G01 X-9.2222 Y16.0370
G01 X-9.2002 Y16.0173
G01 X-9.1784 Y16.0015
G01 X-9.1571 Y15.9888
G01 X-9.1352 Y15.9783
G01 X-9.1076 Y15.9683
G01 X-9.0824 Y15.9619
G01 X-9.0547 Y15.9577
G01 X-9.0289 Y15.9564
G01 X-8.6456 Y15.9564
G01 X-8.6456 Y13.9315
G01 X-8.6443 Y13.9045
G01 X-8.6405 Y13.8791
G01 X-8.6337 Y13.8516
G01 X-8.6246 Y13.8262
G01 X-8.6127 Y13.8011
G01 X-8.5978 Y13.7767
G01 X-8.5816 Y13.7551
G01 X-8.5650 Y13.7370
G01 X-8.5469 Y13.7205
G01 X-8.5233 Y13.7028
G01 X-8.4999 Y13.6888
G01 X-8.4758 Y13.6774
G01 X-8.4480 Y13.6676
G01 X-8.4241 Y13.6617
G01 X-8.3999 Y13.6580
G01 X-8.3729 Y13.6565
G01 X-8.3434 Y13.6577
G01 X-8.3169 Y13.6617
G01 X-8.2905 Y13.6683
G01 X-8.2652 Y13.6774
G01 X-8.2410 Y13.6888
G01 X-8.2197 Y13.7015
G01 X-8.1959 Y13.7189
G01 X-8.1743 Y13.7388
G01 X-8.1579 Y13.7569
G01 X-8.1432 Y13.7767
G01 X-8.1277 Y13.8021
G01 X-8.1154 Y13.8285
G01 X-8.1072 Y13.8516
G01 X-8.1012 Y13.8755
G01 X-8.0966 Y13.9057
G01 X-8.0954 Y13.9315
G01 X-8.0954 Y15.9564
G01 X-7.7133 Y15.9564
G01 X-7.6876 Y15.9576
G01 X-7.6597 Y15.9617
G01 X-7.6334 Y15.9683
G01 X-7.6080 Y15.9774
G01 X-7.5815 Y15.9901
G01 X-7.5604 Y16.0028
G01 X-7.5387 Y16.0189
G01 X-7.5188 Y16.0370
G01 X-7.5008 Y16.0569
G01 X-7.4846 Y16.0787
G01 X-7.4706 Y16.1021
G01 X-7.4592 Y16.1262
G01 X-7.4509 Y16.1493
G01 X-7.4435 Y16.1779
G01 X-7.4399 Y16.2021
G01 X-7.4383 Y16.2340
G01 X-7.4396 Y16.2586
G01 X-7.4435 Y16.2851
G01 X-7.4501 Y16.3115
G01 X-7.4592 Y16.3368
G01 X-7.4719 Y16.3633
G01 X-7.4847 Y16.3845
G01 X-7.4993 Y16.4043
G01 X-7.5188 Y16.4261
G01 X-7.5408 Y16.4457
G01 X-7.5605 Y16.4603
G01 X-7.5815 Y16.4729
G01 X-7.6080 Y16.4857
G01 X-7.6359 Y16.4954
G01 X-7.6597 Y16.5014
G01 X-7.6863 Y16.5053
G01 X-7.7133 Y16.5066
G01 X-9.0276 Y16.5066
G01 X-9.0559 Y16.5052
G01 X-9.0837 Y16.5008
G01 X-9.1076 Y16.4948
G01 X-9.1306 Y16.4866
G01 X-9.1571 Y16.4743
G01 X-9.1806 Y16.4602
G01 X-9.2040 Y16.4426
G01 X-9.2222 Y16.4261
G01 X-9.2387 Y16.4079
G01 X-9.2564 Y16.3844
G01 X-9.2704 Y16.3610
G01 X-9.2827 Y16.3345
G01 X-9.2909 Y16.3115
G01 X-9.2969 Y16.2876
G01 X-9.3014 Y16.2586
G01 X-9.3027 Y16.2315
G01 X-9.3011 Y16.2021
G01 X-9.2975 Y16.1779
G01 X-9.2916 Y16.1540
G01 X-9.2818 Y16.1262
G01 X-9.2699 Y16.1011
G00 Z2.0000
G00 X-9.3485 Y16.0574
G01 F60.00
G01 Z0.0000
G01 F120.00
G01 X-9.3310 Y16.0284
G01 X-9.3096 Y15.9996
G01 X-9.2858 Y15.9734
G01 X-9.2595 Y15.9495
G01 X-9.2305 Y15.9279
G01 X-9.1991 Y15.9092
G01 X-9.1674 Y15.8942
G01 X-9.1339 Y15.8822
G01 X-9.1056 Y15.8749
G01 X-9.0921 Y15.8723
G01 X-9.0636 Y15.8682
G01 X-9.0345 Y15.8666
G01 X-8.7356 Y15.8664
G01 X-8.7356 Y13.9315
G01 X-8.7338 Y13.8955
G01 X-8.7298 Y13.8671
G01 X-8.7279 Y13.8572
G01 X-8.7217 Y13.8322
G01 X-8.7187 Y13.8219
G01 X-8.7091 Y13.7949
G01 X-8.7050 Y13.7855
G01 X-8.6929 Y13.7601
G01 X-8.6777 Y13.7345
G01 X-8.6718 Y13.7254
G01 X-8.6565 Y13.7047
G01 X-8.6482 Y13.6947
G01 X-8.6287 Y13.6734
G01 X-8.6024 Y13.6495
G01 X-8.5733 Y13.6279
G01 X-8.5419 Y13.6092
G01 X-8.5165 Y13.5970
G01 X-8.5071 Y13.5929
G01 X-8.4801 Y13.5833
G01 X-8.4699 Y13.5803
G01 X-8.4415 Y13.5734
G01 X-8.4131 Y13.5690
G01 X-8.4030 Y13.5679
G01 X-8.3774 Y13.5666
G01 X-8.3636 Y13.5666
G01 X-8.3345 Y13.5682
G01 X-8.2995 Y13.5734
G01 X-8.2643 Y13.5822
G01 X-8.2372 Y13.5917
G01 X-8.2275 Y13.5956
G01 X-8.1991 Y13.6092
G01 X-8.1734 Y13.6243
G01 X-8.1644 Y13.6302
G01 X-8.1386 Y13.6495
G01 X-8.1148 Y13.6710
G01 X-8.1076 Y13.6783
G01 X-8.0885 Y13.6996
G01 X-8.0709 Y13.7231
G01 X-8.0632 Y13.7345
G01 X-8.0481 Y13.7601
G01 X-8.0346 Y13.7885
G01 X-8.0307 Y13.7982
G01 X-8.0212 Y13.8253
G01 X-8.0139 Y13.8536
G01 X-8.0117 Y13.8638
G01 X-8.0072 Y13.8955
G01 X-8.0054 Y13.9315
G01 X-8.0054 Y15.8664
G01 X-7.7099 Y15.8665
G01 X-7.6774 Y15.8682
G01 X-7.6489 Y15.8723
G01 X-7.6354 Y15.8749
G01 X-7.6071 Y15.8822
G01 X-7.5800 Y15.8917
G01 X-7.5673 Y15.8970
G01 X-7.5419 Y15.9092
G01 X-7.5163 Y15.9243
G01 X-7.5072 Y15.9302
G01 X-7.4814 Y15.9495
G01 X-7.4552 Y15.9734
G01 X-7.4356 Y15.9947
G01 X-7.4293 Y16.0021
G01 X-7.4137 Y16.0231
G01 X-7.4061 Y16.0345
G01 X-7.3910 Y16.0601
G01 X-7.3761 Y16.0917
G01 X-7.3640 Y16.1253
G01 X-7.3568 Y16.1536
G01 X-7.3546 Y16.1638
G01 X-7.3508 Y16.1889
G01 X-7.3495 Y16.2026
G01 X-7.3482 Y16.2315
G01 X-7.3500 Y16.2675
G01 X-7.3552 Y16.3026
G01 X-7.3621 Y16.3309
G01 X-7.3661 Y16.3440
G01 X-7.3736 Y16.3648
G01 X-7.3774 Y16.3745
G01 X-7.3910 Y16.4030
G01 X-7.4061 Y16.4286
G01 X-7.4120 Y16.4376
G01 X-7.4313 Y16.4634
G01 X-7.4528 Y16.4872
G01 X-7.4602 Y16.4944
G01 X-7.4814 Y16.5135
G01 X-7.5049 Y16.5311
G01 X-7.5134 Y16.5370
G01 X-7.5392 Y16.5524
G01 X-7.5673 Y16.5661
G01 X-7.5768 Y16.5701
G01 X-7.6037 Y16.5798
G01 X-7.6140 Y16.5827
G01 X-7.6423 Y16.5897
G01 X-7.6740 Y16.5945
G01 X-7.6844 Y16.5954
G01 X-7.7133 Y16.5966
G01 X-9.0276 Y16.5966
G01 X-9.0636 Y16.5949
G01 X-9.0954 Y16.5903
G01 X-9.1056 Y16.5881
G01 X-9.1339 Y16.5808
G01 X-9.1609 Y16.5713
G01 X-9.1706 Y16.5674
G01 X-9.1963 Y16.5553
G01 X-9.2057 Y16.5501
G01 X-9.2308 Y16.5349
G01 X-9.2544 Y16.5175
G01 X-9.2645 Y16.5093
G01 X-9.2858 Y16.4897
G01 X-9.3096 Y16.4634
G01 X-9.3312 Y16.4344
G01 X-9.3462 Y16.4096
G01 X-9.3527 Y16.3975
G01 X-9.3649 Y16.3713
G01 X-9.3749 Y16.3440
G01 X-9.3779 Y16.3343
G01 X-9.3851 Y16.3058
G01 X-9.3869 Y16.2960
G01 X-9.3910 Y16.2675
G01 X-9.3926 Y16.2384
G01 X-9.3927 Y16.2281
G01 X-9.3913 Y16.1991
G01 X-9.3901 Y16.1889
G01 X-9.3858 Y16.1605
G01 X-9.3789 Y16.1322
G01 X-9.3759 Y16.1219
G01 X-9.3649 Y16.0917
G01 X-9.3527 Y16.0655
G01 X-9.3485 Y16.0574
G00 Z2.0000
G00 X-11.7899 Y14.6792
G01 F60.00
G01 Z0.0000
G01 F120.00
G01 X-11.7754 Y14.6548
G01 X-11.7577 Y14.6313
G01 X-11.7412 Y14.6132
G01 X-11.7231 Y14.5967
G01 X-11.6995 Y14.5790
G01 X-11.6742 Y14.5640
G01 X-11.6520 Y14.5536
G01 X-11.6289 Y14.5452
G01 X-11.6003 Y14.5379
G01 X-11.5725 Y14.5338
G01 X-11.5467 Y14.5326
G01 X-9.7943 Y14.5326
G01 X-9.7685 Y14.5338
G01 X-9.7407 Y14.5379
G01 X-9.7144 Y14.5445
G01 X-9.6890 Y14.5536
G01 X-9.6649 Y14.5650
G01 X-9.6413 Y14.5790
G01 X-9.6197 Y14.5951
G01 X-9.5998 Y14.6132
G01 X-9.5817 Y14.6331
G01 X-9.5656 Y14.6549
G01 X-9.5515 Y14.6783
G01 X-9.5401 Y14.7024
G01 X-9.5311 Y14.7278
G01 X-9.5245 Y14.7541
G01 X-9.5205 Y14.7807
G01 X-9.5192 Y14.8077
G01 X-9.5204 Y14.8335
G01 X-9.5245 Y14.8613
G01 X-9.5304 Y14.8852
G01 X-9.5411 Y14.9152
G01 X-9.5515 Y14.9372
G01 X-9.5656 Y14.9607
G01 X-9.5817 Y14.9823
G01 X-9.5998 Y15.0022
G01 X-9.6197 Y15.0203
G01 X-9.6394 Y15.0350
G01 X-9.6668 Y15.0514
G01 X-9.6890 Y15.0619
G01 X-9.7144 Y15.0710
G01 X-9.7407 Y15.0776
G01 X-9.7661 Y15.0814
G01 X-9.7943 Y15.0828
G01 X-11.5467 Y15.0828
G01 X-11.5725 Y15.0816
G01 X-11.6003 Y15.0776
G01 X-11.6289 Y15.0702
G01 X-11.6520 Y15.0619
G01 X-11.6742 Y15.0514
G01 X-11.6996 Y15.0364
G01 X-11.7231 Y15.0188
G01 X-11.7412 Y15.0022
G01 X-11.7577 Y14.9841
G01 X-11.7754 Y14.9606
G01 X-11.7894 Y14.9372
G01 X-11.8017 Y14.9107
G01 X-11.8099 Y14.8877
G01 X-11.8160 Y14.8638
G01 X-11.8205 Y14.8348
G01 X-11.8218 Y14.8077
G01 X-11.8205 Y14.7807
G01 X-11.8160 Y14.7516
G01 X-11.8099 Y14.7278
G01 X-11.8017 Y14.7047
G01 X-11.7899 Y14.6792
G00 Z2.0000
G00 X-11.8704 Y14.6390
G01 F60.00
G01 Z0.0000
G01 F120.00
G01 X-11.8653 Y14.6296
G01 X-11.8501 Y14.6046
G01 X-11.8327 Y14.5809
G01 X-11.8244 Y14.5709
G01 X-11.8049 Y14.5495
G01 X-11.7835 Y14.5300
G01 X-11.7735 Y14.5217
G01 X-11.7495 Y14.5041
G01 X-11.7181 Y14.4854
G01 X-11.6897 Y14.4718
G01 X-11.6800 Y14.4679
G01 X-11.6529 Y14.4584
G01 X-11.6246 Y14.4511
G01 X-11.6144 Y14.4490
G01 X-11.5827 Y14.4444
G01 X-11.5467 Y14.4426
G01 X-9.7943 Y14.4426
G01 X-9.7618 Y14.4441
G01 X-9.7517 Y14.4452
G01 X-9.7233 Y14.4496
G01 X-9.6881 Y14.4584
G01 X-9.6545 Y14.4704
G01 X-9.6229 Y14.4854
G01 X-9.5912 Y14.5043
G01 X-9.5624 Y14.5257
G01 X-9.5361 Y14.5495
G01 X-9.5123 Y14.5758
G01 X-9.4907 Y14.6049
G01 X-9.4719 Y14.6363
G01 X-9.4570 Y14.6679
G01 X-9.4450 Y14.7015
G01 X-9.4362 Y14.7367
G01 X-9.4310 Y14.7717
G01 X-9.4292 Y14.8077
G01 X-9.4307 Y14.8402
G01 X-9.4318 Y14.8503
G01 X-9.4362 Y14.8787
G01 X-9.4431 Y14.9071
G01 X-9.4471 Y14.9202
G01 X-9.4545 Y14.9410
G01 X-9.4584 Y14.9507
G01 X-9.4719 Y14.9791
G01 X-9.4909 Y15.0109
G01 X-9.5123 Y15.0396
G01 X-9.5314 Y15.0609
G01 X-9.5411 Y15.0706
G01 X-9.5599 Y15.0876
G01 X-9.5675 Y15.0937
G01 X-9.5915 Y15.1113
G01 X-9.6229 Y15.1301
G01 X-9.6545 Y15.1450
G01 X-9.6847 Y15.1559
G01 X-9.6949 Y15.1589
G01 X-9.7164 Y15.1643
G01 X-9.7298 Y15.1670
G01 X-9.7583 Y15.1710
G01 X-9.7943 Y15.1728
G01 X-11.5467 Y15.1728
G01 X-11.5791 Y15.1714
G01 X-11.5893 Y15.1702
G01 X-11.6177 Y15.1659
G01 X-11.6460 Y15.1589
G01 X-11.6592 Y15.1550
G01 X-11.6865 Y15.1450
G01 X-11.7127 Y15.1328
G01 X-11.7248 Y15.1263
G01 X-11.7498 Y15.1111
G01 X-11.7786 Y15.0897
G01 X-11.8024 Y15.0683
G01 X-11.8096 Y15.0609
G01 X-11.8287 Y15.0396
G01 X-11.8463 Y15.0162
G01 X-11.8521 Y15.0077
G01 X-11.8676 Y14.9818
G01 X-11.8718 Y14.9737
G01 X-11.8840 Y14.9475
G01 X-11.8949 Y14.9173
G01 X-11.8979 Y14.9071
G01 X-11.9048 Y14.8787
G01 X-11.9092 Y14.8503
G01 X-11.9105 Y14.8366
G01 X-11.9118 Y14.8077
G01 X-11.9100 Y14.7717
G01 X-11.9054 Y14.7400
G01 X-11.9033 Y14.7298
G01 X-11.8960 Y14.7015
G01 X-11.8865 Y14.6744
G01 X-11.8826 Y14.6647
G01 X-11.8704 Y14.6390
G00 Z2.0000
G00 X-11.9509 Y14.5988
G01 F60.00
G01 Z0.0000
G01 F120.00
G01 X-11.9425 Y14.5834
G01 X-11.9248 Y14.5544
G01 X-11.9047 Y14.5269
G01 X-11.8911 Y14.5104
G01 X-11.8685 Y14.4859
G01 X-11.8439 Y14.4633
G01 X-11.8275 Y14.4497
G01 X-11.7995 Y14.4293
G01 X-11.7710 Y14.4119
G01 X-11.7601 Y14.4057
G01 X-11.7262 Y14.3896
G01 X-11.7103 Y14.3832
G01 X-11.6792 Y14.3723
G01 X-11.6465 Y14.3638
G01 X-11.6298 Y14.3603
G01 X-11.5916 Y14.3548
G01 X-11.5800 Y14.3540
G01 X-11.5467 Y14.3526
G01 X-9.7943 Y14.3526
G01 X-9.7609 Y14.3540
G01 X-9.7493 Y14.3548
G01 X-9.7166 Y14.3594
G01 X-9.7058 Y14.3613
G01 X-9.6731 Y14.3692
G01 X-9.6618 Y14.3723
G01 X-9.6307 Y14.3832
G01 X-9.6200 Y14.3873
G01 X-9.6098 Y14.3918
G01 X-9.5809 Y14.4057
G01 X-9.5699 Y14.4119
G01 X-9.5410 Y14.4296
G01 X-9.5145 Y14.4490
G01 X-9.5051 Y14.4563
G01 X-9.4807 Y14.4781
G01 X-9.4725 Y14.4859
G01 X-9.4647 Y14.4941
G01 X-9.4429 Y14.5185
G01 X-9.4355 Y14.5279
G01 X-9.4159 Y14.5549
G01 X-9.3985 Y14.5834
G01 X-9.3923 Y14.5943
G01 X-9.3784 Y14.6232
G01 X-9.3739 Y14.6334
G01 X-9.3698 Y14.6441
G01 X-9.3589 Y14.6752
G01 X-9.3558 Y14.6865
G01 X-9.3479 Y14.7193
G01 X-9.3460 Y14.7300
G01 X-9.3414 Y14.7628
G01 X-9.3405 Y14.7744
G01 X-9.3392 Y14.8077
G01 X-9.3405 Y14.8411
G01 X-9.3414 Y14.8527
G01 X-9.3460 Y14.8854
G01 X-9.3479 Y14.8962
G01 X-9.3573 Y14.9346
G01 X-9.3607 Y14.9458
G01 X-9.3698 Y14.9713
G01 X-9.3739 Y14.9820
G01 X-9.3784 Y14.9922
G01 X-9.3900 Y15.0167
G01 X-9.3947 Y15.0255
G01 X-9.4098 Y15.0510
G01 X-9.4162 Y15.0610
G01 X-9.4395 Y15.0928
G01 X-9.4463 Y15.1010
G01 X-9.4647 Y15.1214
G01 X-9.4725 Y15.1295
G01 X-9.4807 Y15.1373
G01 X-9.5010 Y15.1557
G01 X-9.5093 Y15.1625
G01 X-9.5415 Y15.1861
G01 X-9.5765 Y15.2073
G01 X-9.5898 Y15.2142
G01 X-9.6147 Y15.2259
G01 X-9.6253 Y15.2303
G01 X-9.6515 Y15.2397
G01 X-9.6618 Y15.2431
G01 X-9.6731 Y15.2462
G01 X-9.7005 Y15.2530
G01 X-9.7112 Y15.2551
G01 X-9.7493 Y15.2606
G01 X-9.7609 Y15.2615
G01 X-9.7943 Y15.2628
G01 X-11.5467 Y15.2628
G01 X-11.5800 Y15.2615
G01 X-11.5916 Y15.2606
G01 X-11.6298 Y15.2551
G01 X-11.6465 Y15.2516
G01 X-11.6792 Y15.2431
G01 X-11.7103 Y15.2322
G01 X-11.7262 Y15.2259
G01 X-11.7601 Y15.2097
G01 X-11.7710 Y15.2035
G01 X-11.8000 Y15.1858
G01 X-11.8275 Y15.1657
G01 X-11.8400 Y15.1557
G01 X-11.8645 Y15.1335
G01 X-11.8763 Y15.1214
G01 X-11.8981 Y15.0969
G01 X-11.9186 Y15.0698
G01 X-11.9282 Y15.0558
G01 X-11.9463 Y15.0255
G01 X-11.9531 Y15.0122
G01 X-11.9671 Y14.9820
G01 X-11.9803 Y14.9458
G01 X-11.9852 Y14.9289
G01 X-11.9931 Y14.8962
G01 X-11.9982 Y14.8635
G01 X-12.0001 Y14.8469
G01 X-12.0018 Y14.8077
G01 X-12.0004 Y14.7744
G01 X-11.9990 Y14.7573
G01 X-11.9941 Y14.7246
G01 X-11.9906 Y14.7079
G01 X-11.9821 Y14.6752
G01 X-11.9712 Y14.6441
G01 X-11.9648 Y14.6282
G01 X-11.9509 Y14.5988
G00 Z2.0000
G00 X-13.1211 Y14.9538
G01 F60.00
G01 Z0.0000
G01 F120.00
G01 X-13.0390 Y14.9538
G01 X-13.0800 Y15.0769
G01 X-13.1211 Y14.9538
G00 Z2.0000
G00 X-13.2459 Y14.8638
G01 F60.00
G01 Z0.0000
G01 F120.00
G01 X-12.9141 Y14.8638
G01 X-13.0800 Y15.3615
G01 X-13.2459 Y14.8638
G00 Z2.0000
G00 X-14.1181 Y13.8864
G01 F60.00
G01 Z0.0000
G01 F120.00
G01 X-14.1120 Y13.8587
G01 X-14.1036 Y13.8331
G01 X-14.0928 Y13.8086
G01 X-14.0781 Y13.7829
G01 X-14.0639 Y13.7626
G01 X-14.0481 Y13.7442
G01 X-14.0287 Y13.7253
G01 X-14.0058 Y13.7071
G01 X-13.9850 Y13.6938
G01 X-13.9588 Y13.6803
G01 X-13.9337 Y13.6705
G01 X-13.9077 Y13.6633
G01 X-13.8810 Y13.6586
G01 X-13.8541 Y13.6565
G01 X-13.8272 Y13.6571
G01 X-13.8003 Y13.6604
G01 X-13.7727 Y13.6666
G01 X-13.7482 Y13.6746
G01 X-13.7238 Y13.6854
G01 X-13.7003 Y13.6986
G01 X-13.6778 Y13.7144
G01 X-13.6574 Y13.7318
G01 X-13.6387 Y13.7515
G01 X-13.6222 Y13.7724
G01 X-13.6070 Y13.7964
G01 X-13.5954 Y13.8194
G01 X-13.5857 Y13.8445
G01 X-13.4293 Y14.3136
G01 X-12.7307 Y14.3136
G01 X-12.5743 Y13.8445
G01 X-12.5651 Y13.8205
G01 X-12.5525 Y13.7955
G01 X-12.5364 Y13.7705
G01 X-12.5210 Y13.7511
G01 X-12.5043 Y13.7335
G01 X-12.4814 Y13.7137
G01 X-12.4598 Y13.6986
G01 X-12.4342 Y13.6844
G01 X-12.4117 Y13.6746
G01 X-12.3884 Y13.6669
G01 X-12.3621 Y13.6608
G01 X-12.3326 Y13.6571
G01 X-12.3059 Y13.6565
G01 X-12.2791 Y13.6586
G01 X-12.2526 Y13.6632
G01 X-12.2265 Y13.6705
G01 X-12.1990 Y13.6814
G01 X-12.1750 Y13.6938
G01 X-12.1543 Y13.7071
G01 X-12.1350 Y13.7221
G01 X-12.1136 Y13.7424
G01 X-12.0962 Y13.7626
G01 X-12.0805 Y13.7851
G01 X-12.0662 Y13.8107
G01 X-12.0564 Y13.8332
G01 X-12.0480 Y13.8588
G01 X-12.0422 Y13.8852
G01 X-12.0389 Y13.9123
G01 X-12.0383 Y13.9389
G01 X-12.0404 Y13.9658
G01 X-12.0450 Y13.9923
G01 X-12.0520 Y14.0174
G01 X-12.8190 Y16.3185
G01 X-12.8289 Y16.3440
G01 X-12.8417 Y16.3689
G01 X-12.8563 Y16.3916
G01 X-12.8734 Y16.4131
G01 X-12.8929 Y16.4332
G01 X-12.9139 Y16.4508
G01 X-12.9359 Y16.4659
G01 X-12.9616 Y16.4798
G01 X-12.9858 Y16.4900
G01 X-13.0122 Y16.4981
G01 X-13.0389 Y16.5036
G01 X-13.0663 Y16.5063
G01 X-13.0938 Y16.5063
G01 X-13.1210 Y16.5036
G01 X-13.1478 Y16.4981
G01 X-13.1745 Y16.4899
G01 X-13.1998 Y16.4792
G01 X-13.2239 Y16.4660
G01 X-13.2463 Y16.4507
G01 X-13.2676 Y16.4328
G01 X-13.2866 Y16.4132
G01 X-13.3037 Y16.3916
G01 X-13.3187 Y16.3683
G01 X-13.3311 Y16.3440
G01 X-13.3410 Y16.3185
G01 X-14.1080 Y14.0175
G01 X-14.1149 Y13.9925
G01 X-14.1199 Y13.9635
G01 X-14.1217 Y13.9389
G01 X-14.1212 Y13.9145
G01 X-14.1181 Y13.8864
G00 Z2.0000
G00 X-14.2071 Y13.8733
G01 F60.00
G01 Z0.0000
G01 F120.00
G01 X-14.2053 Y13.8633
G01 X-14.1987 Y13.8347
G01 X-14.1875 Y13.8007
G01 X-14.1734 Y13.7686
G01 X-14.1559 Y13.7374
G01 X-14.1347 Y13.7071
G01 X-14.1116 Y13.6803
G01 X-14.0853 Y13.6552
G01 X-14.0608 Y13.6358
G01 X-14.0520 Y13.6297
G01 X-14.0324 Y13.6172
G01 X-14.0214 Y13.6111
G01 X-13.9953 Y13.5980
G01 X-13.9686 Y13.5875
G01 X-13.9589 Y13.5841
G01 X-13.9310 Y13.5763
G01 X-13.9209 Y13.5741
G01 X-13.8991 Y13.5703
G01 X-13.8888 Y13.5689
G01 X-13.8599 Y13.5667
G01 X-13.8497 Y13.5665
G01 X-13.8242 Y13.5671
G01 X-13.8140 Y13.5680
G01 X-13.7849 Y13.5717
G01 X-13.7534 Y13.5786
G01 X-13.7437 Y13.5814
G01 X-13.7158 Y13.5907
G01 X-13.6837 Y13.6048
G01 X-13.6526 Y13.6223
G01 X-13.6247 Y13.6417
G01 X-13.6175 Y13.6474
G01 X-13.5954 Y13.6666
G01 X-13.5703 Y13.6929
G01 X-13.5489 Y13.7203
G01 X-13.5308 Y13.7485
G01 X-13.5262 Y13.7568
G01 X-13.5132 Y13.7829
G01 X-13.5014 Y13.8128
G01 X-13.3645 Y14.2236
G01 X-12.7956 Y14.2236
G01 X-12.6597 Y13.8161
G01 X-12.6468 Y13.7829
G01 X-12.6338 Y13.7568
G01 X-12.6276 Y13.7458
G01 X-12.6151 Y13.7262
G01 X-12.6090 Y13.7174
G01 X-12.5888 Y13.6918
G01 X-12.5669 Y13.6688
G01 X-12.5593 Y13.6618
G01 X-12.5425 Y13.6474
G01 X-12.5317 Y13.6390
G01 X-12.5075 Y13.6223
G01 X-12.4827 Y13.6082
G01 X-12.4735 Y13.6035
G01 X-12.4470 Y13.5918
G01 X-12.4374 Y13.5882
G01 X-12.4131 Y13.5803
G01 X-12.4032 Y13.5777
G01 X-12.3748 Y13.5716
G01 X-12.3417 Y13.5675
G01 X-12.3324 Y13.5670
G01 X-12.3037 Y13.5665
G01 X-12.2680 Y13.5692
G01 X-12.2331 Y13.5753
G01 X-12.1984 Y13.5850
G01 X-12.1647 Y13.5980
G01 X-12.1331 Y13.6140
G01 X-12.1021 Y13.6337
G01 X-12.0737 Y13.6561
G01 X-12.0482 Y13.6805
G01 X-12.0293 Y13.7023
G01 X-12.0235 Y13.7095
G01 X-12.0042 Y13.7373
G01 X-11.9900 Y13.7622
G01 X-11.9853 Y13.7713
G01 X-11.9723 Y13.8010
G01 X-11.9612 Y13.8351
G01 X-11.9534 Y13.8701
G01 X-11.9491 Y13.9063
G01 X-11.9484 Y13.9412
G01 X-11.9511 Y13.9769
G01 X-11.9572 Y14.0118
G01 X-11.9650 Y14.0404
G01 X-12.7336 Y16.3470
G01 X-12.7467 Y16.3805
G01 X-12.7639 Y16.4143
G01 X-12.7830 Y16.4439
G01 X-12.8056 Y16.4724
G01 X-12.8320 Y16.4995
G01 X-12.8599 Y16.5228
G01 X-12.8882 Y16.5422
G01 X-12.9213 Y16.5603
G01 X-12.9552 Y16.5746
G01 X-12.9903 Y16.5854
G01 X-13.0255 Y16.5925
G01 X-13.0618 Y16.5962
G01 X-13.0982 Y16.5962
G01 X-13.1344 Y16.5926
G01 X-13.1697 Y16.5854
G01 X-13.2056 Y16.5743
G01 X-13.2392 Y16.5601
G01 X-13.2712 Y16.5426
G01 X-13.3005 Y16.5226
G01 X-13.3292 Y16.4984
G01 X-13.3542 Y16.4727
G01 X-13.3770 Y16.4439
G01 X-13.3970 Y16.4127
G01 X-13.4118 Y16.3839
G01 X-13.4158 Y16.3745
G01 X-13.4264 Y16.3470
G01 X-14.1940 Y14.0441
G01 X-14.2010 Y14.0191
G01 X-14.2034 Y14.0091
G01 X-14.2085 Y13.9805
G01 X-14.2096 Y13.9704
G01 X-14.2117 Y13.9412
G01 X-14.2112 Y13.9125
G01 X-14.2106 Y13.9022
G01 X-14.2071 Y13.8733
G00 Z2.0000
G00 X-13.5079 Y16.3862
G01 F60.00
G01 Z0.0000
G01 F120.00
G01 X-13.5118 Y16.3754
G01 X-14.1582 Y14.4361
G01 X-14.1582 Y16.2315
G01 X-14.1600 Y16.2707
G01 X-14.1611 Y16.2819
G01 X-14.1659 Y16.3146
G01 X-14.1680 Y16.3253
G01 X-14.1748 Y16.3528
G01 X-14.1797 Y16.3696
G01 X-14.1888 Y16.3952
G01 X-14.1929 Y16.4058
G01 X-14.1975 Y16.4160
G01 X-14.2091 Y16.4405
G01 X-14.2138 Y16.4493
G01 X-14.2289 Y16.4748
G01 X-14.2353 Y16.4849
G01 X-14.2546 Y16.5113
G01 X-14.2619 Y16.5207
G01 X-14.2837 Y16.5452
G01 X-14.2915 Y16.5533
G01 X-14.2997 Y16.5611
G01 X-14.3242 Y16.5829
G01 X-14.3335 Y16.5903
G01 X-14.3605 Y16.6099
G01 X-14.3890 Y16.6273
G01 X-14.3999 Y16.6335
G01 X-14.4289 Y16.6474
G01 X-14.4444 Y16.6541
G01 X-14.4753 Y16.6651
G01 X-14.4865 Y16.6686
G01 X-14.5135 Y16.6754
G01 X-14.5303 Y16.6790
G01 X-14.5630 Y16.6838
G01 X-14.5742 Y16.6849
G01 X-14.6077 Y16.6866
G01 X-14.6246 Y16.6864
G01 X-14.6525 Y16.6849
G01 X-14.6692 Y16.6831
G01 X-14.7018 Y16.6780
G01 X-14.7346 Y16.6701
G01 X-14.7514 Y16.6651
G01 X-14.7823 Y16.6541
G01 X-14.7929 Y16.6497
G01 X-14.8178 Y16.6380
G01 X-14.8312 Y16.6311
G01 X-14.8617 Y16.6129
G01 X-14.8716 Y16.6062
G01 X-14.8984 Y16.5863
G01 X-14.9106 Y16.5760
G01 X-14.9352 Y16.5533
G01 X-14.9613 Y16.5248
G01 X-14.9714 Y16.5123
G01 X-14.9853 Y16.4936
G01 X-14.9918 Y16.4844
G01 X-14.9978 Y16.4748
G01 X-15.0153 Y16.4449
G01 X-15.0292 Y16.4160
G01 X-15.0338 Y16.4058
G01 X-15.0470 Y16.3696
G01 X-15.0519 Y16.3528
G01 X-15.0598 Y16.3200
G01 X-15.0656 Y16.2819
G01 X-15.0671 Y16.2649
G01 X-15.0685 Y16.2315
G01 X-15.0685 Y15.6453
G01 X-15.5353 Y16.4621
G01 X-15.5565 Y16.4949
G01 X-15.5764 Y16.5207
G01 X-15.5868 Y16.5331
G01 X-15.6139 Y16.5612
G01 X-15.6388 Y16.5831
G01 X-15.6511 Y16.5929
G01 X-15.6743 Y16.6094
G01 X-15.6850 Y16.6166
G01 X-15.7121 Y16.6322
G01 X-15.7220 Y16.6375
G01 X-15.7520 Y16.6512
G01 X-15.7625 Y16.6556
G01 X-15.7935 Y16.6663
G01 X-15.8044 Y16.6696
G01 X-15.8363 Y16.6772
G01 X-15.8481 Y16.6796
G01 X-15.8902 Y16.6851
G01 X-15.9022 Y16.6858
G01 X-15.9314 Y16.6866
G01 X-15.9414 Y16.6864
G01 X-15.9682 Y16.6847
G01 X-15.9845 Y16.6830
G01 X-16.0183 Y16.6775
G01 X-16.0293 Y16.6751
G01 X-16.0549 Y16.6683
G01 X-16.0686 Y16.6642
G01 X-16.0967 Y16.6539
G01 X-16.1055 Y16.6505
G01 X-16.1172 Y16.6451
G01 X-16.1389 Y16.6345
G01 X-16.1521 Y16.6274
G01 X-16.1796 Y16.6105
G01 X-16.1884 Y16.6045
G01 X-16.2109 Y16.5876
G01 X-16.2218 Y16.5788
G01 X-16.2508 Y16.5520
G01 X-16.2598 Y16.5425
G01 X-16.2786 Y16.5212
G01 X-16.2867 Y16.5111
G01 X-16.3045 Y16.4866
G01 X-16.3106 Y16.4773
G01 X-16.3275 Y16.4489
G01 X-16.3327 Y16.4390
G01 X-16.3443 Y16.4142
G01 X-16.3504 Y16.3999
G01 X-16.3601 Y16.3729
G01 X-16.3636 Y16.3623
G01 X-16.3665 Y16.3515
G01 X-16.3730 Y16.3252
G01 X-16.3751 Y16.3142
G01 X-16.3800 Y16.2815
G01 X-16.3814 Y16.2645
G01 X-16.3827 Y16.2315
G01 X-16.3827 Y13.9315
G01 X-16.3814 Y13.8982
G01 X-16.3805 Y13.8866
G01 X-16.3759 Y13.8539
G01 X-16.3741 Y13.8431
G01 X-16.3662 Y13.8103
G01 X-16.3630 Y13.7990
G01 X-16.3522 Y13.7679
G01 X-16.3480 Y13.7572
G01 X-16.3435 Y13.7470
G01 X-16.3296 Y13.7181
G01 X-16.3234 Y13.7072
G01 X-16.3057 Y13.6782
G01 X-16.2864 Y13.6517
G01 X-16.2790 Y13.6423
G01 X-16.2572 Y13.6179
G01 X-16.2494 Y13.6097
G01 X-16.2413 Y13.6019
G01 X-16.2168 Y13.5801
G01 X-16.2075 Y13.5728
G01 X-16.1805 Y13.5531
G01 X-16.1520 Y13.5357
G01 X-16.1410 Y13.5296
G01 X-16.1121 Y13.5156
G01 X-16.0966 Y13.5090
G01 X-16.0657 Y13.4979
G01 X-16.0545 Y13.4945
G01 X-16.0274 Y13.4876
G01 X-16.0107 Y13.4841
G01 X-15.9780 Y13.4792
G01 X-15.9668 Y13.4781
G01 X-15.9333 Y13.4765
G01 X-15.9163 Y13.4767
G01 X-15.8885 Y13.4781
G01 X-15.8718 Y13.4800
G01 X-15.8392 Y13.4851
G01 X-15.8064 Y13.4930
G01 X-15.7896 Y13.4979
G01 X-15.7586 Y13.5090
G01 X-15.7481 Y13.5134
G01 X-15.7232 Y13.5251
G01 X-15.7098 Y13.5319
G01 X-15.6793 Y13.5502
G01 X-15.6694 Y13.5568
G01 X-15.6426 Y13.5768
G01 X-15.6304 Y13.5871
G01 X-15.6058 Y13.6097
G01 X-15.5797 Y13.6383
G01 X-15.5696 Y13.6507
G01 X-15.5557 Y13.6694
G01 X-15.5492 Y13.6787
G01 X-15.5432 Y13.6882
G01 X-15.5257 Y13.7181
G01 X-15.5117 Y13.7470
G01 X-15.5072 Y13.7572
G01 X-15.4940 Y13.7934
G01 X-15.4891 Y13.8103
G01 X-15.4812 Y13.8431
G01 X-15.4754 Y13.8811
G01 X-15.4739 Y13.8982
G01 X-15.4725 Y13.9315
G01 X-15.4725 Y14.5178
G01 X-15.0085 Y13.7057
G01 X-14.9910 Y13.6777
G01 X-14.9845 Y13.6681
G01 X-14.9582 Y13.6345
G01 X-14.9500 Y13.6254
G01 X-14.9271 Y13.6018
G01 X-14.9187 Y13.5942
G01 X-14.8941 Y13.5733
G01 X-14.8667 Y13.5536
G01 X-14.8560 Y13.5465
G01 X-14.8478 Y13.5416
G01 X-14.8240 Y13.5281
G01 X-14.8089 Y13.5207
G01 X-14.7835 Y13.5095
G01 X-14.7733 Y13.5055
G01 X-14.7471 Y13.4967
G01 X-14.7313 Y13.4920
G01 X-14.6929 Y13.4834
G01 X-14.6568 Y13.4785
G01 X-14.6448 Y13.4775
G01 X-14.6169 Y13.4766
G01 X-14.6046 Y13.4765
G01 X-14.5946 Y13.4769
G01 X-14.5676 Y13.4788
G01 X-14.5565 Y13.4800
G01 X-14.5290 Y13.4844
G01 X-14.5163 Y13.4869
G01 X-14.4769 Y13.4974
G01 X-14.4648 Y13.5015
G01 X-14.4399 Y13.5108
G01 X-14.4238 Y13.5179
G01 X-14.4021 Y13.5285
G01 X-14.3845 Y13.5383
G01 X-14.3614 Y13.5525
G01 X-14.3526 Y13.5585
G01 X-14.3301 Y13.5755
G01 X-14.3192 Y13.5842
G01 X-14.2902 Y13.6110
G01 X-14.2667 Y13.6369
G01 X-14.2543 Y13.6520
G01 X-14.2365 Y13.6764
G01 X-14.2300 Y13.6863
G01 X-14.2129 Y13.6616
G01 X-14.2055 Y13.6515
G01 X-14.1847 Y13.6270
G01 X-14.1769 Y13.6183
G01 X-14.1532 Y13.5953
G01 X-14.1439 Y13.5868
G01 X-14.1148 Y13.5638
G01 X-14.1004 Y13.5538
G01 X-14.0757 Y13.5382
G01 X-14.0667 Y13.5332
G01 X-14.0424 Y13.5208
G01 X-14.0269 Y13.5136
G01 X-14.0012 Y13.5036
G01 X-13.9906 Y13.4998
G01 X-13.9798 Y13.4965
G01 X-13.9476 Y13.4877
G01 X-13.9148 Y13.4817
G01 X-13.9034 Y13.4800
G01 X-13.8703 Y13.4772
G01 X-13.8587 Y13.4766
G01 X-13.8257 Y13.4770
G01 X-13.8144 Y13.4776
G01 X-13.7812 Y13.4813
G01 X-13.7695 Y13.4830
G01 X-13.7317 Y13.4912
G01 X-13.7202 Y13.4944
G01 X-13.6885 Y13.5048
G01 X-13.6785 Y13.5087
G01 X-13.6534 Y13.5197
G01 X-13.6343 Y13.5291
G01 X-13.6094 Y13.5432
G01 X-13.5998 Y13.5492
G01 X-13.5767 Y13.5653
G01 X-13.5667 Y13.5727
G01 X-13.5377 Y13.5974
G01 X-13.5293 Y13.6054
G01 X-13.5105 Y13.6250
G01 X-13.5020 Y13.6343
G01 X-13.4957 Y13.6420
G01 X-13.4790 Y13.6634
G01 X-13.4722 Y13.6729
G01 X-13.4561 Y13.6981
G01 X-13.4508 Y13.7070
G01 X-13.4360 Y13.7358
G01 X-13.4309 Y13.7463
G01 X-13.4168 Y13.7823
G01 X-13.2996 Y14.1336
G01 X-12.8604 Y14.1336
G01 X-12.7433 Y13.7823
G01 X-12.7312 Y13.7513
G01 X-12.7266 Y13.7410
G01 X-12.7117 Y13.7115
G01 X-12.7040 Y13.6981
G01 X-12.6845 Y13.6681
G01 X-12.6643 Y13.6420
G01 X-12.6565 Y13.6326
G01 X-12.6343 Y13.6090
G01 X-12.6262 Y13.6010
G01 X-12.6011 Y13.5791
G01 X-12.5934 Y13.5727
G01 X-12.5833 Y13.5653
G01 X-12.5603 Y13.5493
G01 X-12.5502 Y13.5429
G01 X-12.5169 Y13.5245
G01 X-12.5067 Y13.5197
G01 X-12.4760 Y13.5065
G01 X-12.4654 Y13.5027
G01 X-12.4336 Y13.4926
G01 X-12.4010 Y13.4851
G01 X-12.3844 Y13.4820
G01 X-12.3547 Y13.4784
G01 X-12.3445 Y13.4775
G01 X-12.3072 Y13.4765
G01 X-12.2897 Y13.4772
G01 X-12.2569 Y13.4799
G01 X-12.2453 Y13.4817
G01 X-12.2135 Y13.4875
G01 X-12.1761 Y13.4977
G01 X-12.1588 Y13.5036
G01 X-12.1282 Y13.5158
G01 X-12.1176 Y13.5208
G01 X-12.0888 Y13.5357
G01 X-12.0800 Y13.5409
G01 X-12.0548 Y13.5570
G01 X-12.0412 Y13.5669
G01 X-12.0144 Y13.5884
G01 X-11.9868 Y13.6146
G01 X-11.9753 Y13.6270
G01 X-11.9577 Y13.6476
G01 X-11.9515 Y13.6555
G01 X-11.9311 Y13.6846
G01 X-11.9224 Y13.6988
G01 X-11.9063 Y13.7280
G01 X-11.8926 Y13.7584
G01 X-11.8863 Y13.7742
G01 X-11.8744 Y13.8113
G01 X-11.8657 Y13.8494
G01 X-11.8631 Y13.8661
G01 X-11.8593 Y13.9003
G01 X-11.8584 Y13.9326
G01 X-11.8586 Y13.9493
G01 X-11.8617 Y13.9879
G01 X-11.8673 Y14.0214
G01 X-11.8707 Y14.0374
G01 X-11.8816 Y14.0754
G01 X-12.6483 Y16.3754
G01 X-12.6522 Y16.3862
G01 X-12.6644 Y16.4171
G01 X-12.6697 Y16.4282
G01 X-12.6838 Y16.4554
G01 X-12.6888 Y16.4639
G01 X-12.7036 Y16.4870
G01 X-12.7097 Y16.4961
G01 X-12.7169 Y16.5057
G01 X-12.7379 Y16.5317
G01 X-12.7461 Y16.5405
G01 X-12.7676 Y16.5624
G01 X-12.7748 Y16.5691
G01 X-12.7958 Y16.5868
G01 X-12.8099 Y16.5978
G01 X-12.8405 Y16.6185
G01 X-12.8720 Y16.6361
G01 X-12.8874 Y16.6438
G01 X-12.9245 Y16.6592
G01 X-12.9583 Y16.6699
G01 X-12.9787 Y16.6751
G01 X-13.0121 Y16.6815
G01 X-13.0516 Y16.6857
G01 X-13.0688 Y16.6864
G01 X-13.0970 Y16.6863
G01 X-13.1085 Y16.6857
G01 X-13.1477 Y16.6816
G01 X-13.1813 Y16.6751
G01 X-13.2018 Y16.6699
G01 X-13.2368 Y16.6588
G01 X-13.2674 Y16.6461
G01 X-13.2786 Y16.6410
G01 X-13.3078 Y16.6254
G01 X-13.3230 Y16.6163
G01 X-13.3546 Y16.5944
G01 X-13.3830 Y16.5710
G01 X-13.3983 Y16.5567
G01 X-13.4217 Y16.5321
G01 X-13.4470 Y16.5006
G01 X-13.4534 Y16.4916
G01 X-13.4686 Y16.4681
G01 X-13.4778 Y16.4526
G01 X-13.4956 Y16.4171
G01 X-13.5079 Y16.3862
G00 Z2.0000
G00 X-16.1980 Y16.2822
G01 F60.00
G01 Z0.0000
G01 F120.00
G01 X-16.2014 Y16.2583
G01 X-16.2027 Y16.2315
G01 X-16.2027 Y13.9303
G01 X-16.2014 Y13.9045
G01 X-16.1979 Y13.8803
G01 X-16.1909 Y13.8516
G01 X-16.1818 Y13.8262
G01 X-16.1714 Y13.8040
G01 X-16.1563 Y13.7786
G01 X-16.1387 Y13.7551
G01 X-16.1222 Y13.7370
G01 X-16.1023 Y13.7189
G01 X-16.0784 Y13.7015
G01 X-16.0571 Y13.6888
G01 X-16.0352 Y13.6783
G01 X-16.0051 Y13.6676
G01 X-15.9812 Y13.6617
G01 X-15.9570 Y13.6580
G01 X-15.9276 Y13.6564
G01 X-15.8982 Y13.6580
G01 X-15.8740 Y13.6617
G01 X-15.8501 Y13.6676
G01 X-15.8223 Y13.6774
G01 X-15.7982 Y13.6888
G01 X-15.7769 Y13.7015
G01 X-15.7530 Y13.7189
G01 X-15.7331 Y13.7370
G01 X-15.7166 Y13.7551
G01 X-15.6989 Y13.7787
G01 X-15.6839 Y13.8040
G01 X-15.6735 Y13.8262
G01 X-15.6651 Y13.8493
G01 X-15.6574 Y13.8803
G01 X-15.6539 Y13.9045
G01 X-15.6525 Y13.9315
G01 X-15.6525 Y15.1956
G01 X-14.8522 Y13.7950
G01 X-14.8378 Y13.7724
G01 X-14.8229 Y13.7534
G01 X-14.8011 Y13.7305
G01 X-14.7819 Y13.7141
G01 X-14.7588 Y13.6981
G01 X-14.7377 Y13.6861
G01 X-14.7132 Y13.6752
G01 X-14.6879 Y13.6667
G01 X-14.6595 Y13.6604
G01 X-14.6356 Y13.6573
G01 X-14.6085 Y13.6565
G01 X-14.5822 Y13.6582
G01 X-14.5554 Y13.6626
G01 X-14.5302 Y13.6693
G01 X-14.5052 Y13.6785
G01 X-14.4807 Y13.6905
G01 X-14.4582 Y13.7043
G01 X-14.4364 Y13.7209
G01 X-14.4155 Y13.7404
G01 X-14.3992 Y13.7589
G01 X-14.3850 Y13.7781
G01 X-14.3700 Y13.8031
G01 X-14.3588 Y13.8271
G01 X-14.3492 Y13.8548
G01 X-14.3434 Y13.8783
G01 X-14.3398 Y13.9024
G01 X-14.3382 Y13.9303
G01 X-14.3382 Y16.2328
G01 X-14.3396 Y16.2586
G01 X-14.3431 Y16.2828
G01 X-14.3501 Y16.3115
G01 X-14.3592 Y16.3368
G01 X-14.3696 Y16.3590
G01 X-14.3847 Y16.3845
G01 X-14.4023 Y16.4079
G01 X-14.4188 Y16.4261
G01 X-14.4387 Y16.4441
G01 X-14.4626 Y16.4616
G01 X-14.4839 Y16.4743
G01 X-14.5058 Y16.4847
G01 X-14.5359 Y16.4954
G01 X-14.5597 Y16.5014
G01 X-14.5839 Y16.5050
G01 X-14.6133 Y16.5066
G01 X-14.6427 Y16.5050
G01 X-14.6669 Y16.5014
G01 X-14.6908 Y16.4954
G01 X-14.7187 Y16.4857
G01 X-14.7428 Y16.4743
G01 X-14.7641 Y16.4616
G01 X-14.7880 Y16.4441
G01 X-14.8079 Y16.4261
G01 X-14.8244 Y16.4079
G01 X-14.8421 Y16.3844
G01 X-14.8571 Y16.3590
G01 X-14.8675 Y16.3368
G01 X-14.8758 Y16.3137
G01 X-14.8836 Y16.2828
G01 X-14.8871 Y16.2586
G01 X-14.8885 Y16.2315
G01 X-14.8885 Y14.9675
G01 X-15.6888 Y16.3680
G01 X-15.7046 Y16.3925
G01 X-15.7195 Y16.4114
G01 X-15.7371 Y16.4300
G01 X-15.7602 Y16.4498
G01 X-15.7804 Y16.4639
G01 X-15.8012 Y16.4758
G01 X-15.8277 Y16.4879
G01 X-15.8554 Y16.4969
G01 X-15.8792 Y16.5023
G01 X-15.9031 Y16.5055
G01 X-15.9325 Y16.5066
G01 X-15.9613 Y16.5045
G01 X-15.9856 Y16.5005
G01 X-16.0107 Y16.4938
G01 X-16.0383 Y16.4833
G01 X-16.0603 Y16.4725
G01 X-16.0828 Y16.4587
G01 X-16.1060 Y16.4409
G01 X-16.1235 Y16.4247
G01 X-16.1400 Y16.4063
G01 X-16.1573 Y16.3829
G01 X-16.1720 Y16.3578
G01 X-16.1822 Y16.3359
G01 X-16.1904 Y16.3129
G01 X-16.1980 Y16.2822
G00 Z2.0000
G00 X-16.2870 Y16.2953
G01 F60.00
G01 Z0.0000
G01 F120.00
G01 X-16.2910 Y16.2673
G01 X-16.2927 Y16.2315
G01 X-16.2927 Y13.9281
G01 X-16.2910 Y13.8955
G01 X-16.2869 Y13.8671
G01 X-16.2842 Y13.8536
G01 X-16.2770 Y13.8253
G01 X-16.2649 Y13.7917
G01 X-16.2527 Y13.7655
G01 X-16.2462 Y13.7534
G01 X-16.2349 Y13.7345
G01 X-16.2290 Y13.7254
G01 X-16.2136 Y13.7047
G01 X-16.2054 Y13.6947
G01 X-16.1858 Y13.6734
G01 X-16.1645 Y13.6538
G01 X-16.1544 Y13.6455
G01 X-16.1305 Y13.6279
G01 X-16.0991 Y13.6092
G01 X-16.0706 Y13.5956
G01 X-16.0609 Y13.5917
G01 X-16.0339 Y13.5822
G01 X-16.0056 Y13.5749
G01 X-15.9954 Y13.5728
G01 X-15.9636 Y13.5682
G01 X-15.9345 Y13.5666
G01 X-15.9208 Y13.5666
G01 X-15.8916 Y13.5682
G01 X-15.8632 Y13.5723
G01 X-15.8497 Y13.5749
G01 X-15.8214 Y13.5822
G01 X-15.7943 Y13.5917
G01 X-15.7816 Y13.5970
G01 X-15.7562 Y13.6092
G01 X-15.7306 Y13.6243
G01 X-15.7215 Y13.6302
G01 X-15.6957 Y13.6495
G01 X-15.6744 Y13.6686
G01 X-15.6671 Y13.6758
G01 X-15.6477 Y13.6971
G01 X-15.6416 Y13.7047
G01 X-15.6241 Y13.7287
G01 X-15.6090 Y13.7534
G01 X-15.6039 Y13.7628
G01 X-15.5903 Y13.7917
G01 X-15.5804 Y13.8190
G01 X-15.5773 Y13.8287
G01 X-15.5702 Y13.8572
G01 X-15.5684 Y13.8671
G01 X-15.5643 Y13.8955
G01 X-15.5627 Y13.9247
G01 X-15.5625 Y14.8567
G01 X-14.9304 Y13.7504
G01 X-14.9111 Y13.7203
G01 X-14.8918 Y13.6954
G01 X-14.8849 Y13.6876
G01 X-14.8698 Y13.6717
G01 X-14.8625 Y13.6647
G01 X-14.8359 Y13.6421
G01 X-14.8083 Y13.6228
G01 X-14.7783 Y13.6058
G01 X-14.7458 Y13.5913
G01 X-14.7123 Y13.5801
G01 X-14.6773 Y13.5721
G01 X-14.6469 Y13.5680
G01 X-14.6359 Y13.5672
G01 X-14.6096 Y13.5664
G01 X-14.5786 Y13.5682
G01 X-14.5687 Y13.5692
G01 X-14.5436 Y13.5732
G01 X-14.5303 Y13.5761
G01 X-14.5008 Y13.5842
G01 X-14.4677 Y13.5967
G01 X-14.4369 Y13.6119
G01 X-14.4130 Y13.6264
G01 X-14.4049 Y13.6318
G01 X-14.3811 Y13.6499
G01 X-14.3740 Y13.6560
G01 X-14.3538 Y13.6747
G01 X-14.3338 Y13.6968
G01 X-14.3263 Y13.7060
G01 X-14.3085 Y13.7306
G01 X-14.2904 Y13.7611
G01 X-14.2782 Y13.7870
G01 X-14.2745 Y13.7957
G01 X-14.2646 Y13.8234
G01 X-14.2618 Y13.8332
G01 X-14.2552 Y13.8606
G01 X-14.2508 Y13.8894
G01 X-14.2497 Y13.8993
G01 X-14.2483 Y13.9281
G01 X-14.2483 Y16.2350
G01 X-14.2500 Y16.2675
G01 X-14.2541 Y16.2960
G01 X-14.2568 Y16.3095
G01 X-14.2640 Y16.3378
G01 X-14.2761 Y16.3713
G01 X-14.2883 Y16.3975
G01 X-14.2947 Y16.4096
G01 X-14.3061 Y16.4286
G01 X-14.3120 Y16.4376
G01 X-14.3273 Y16.4583
G01 X-14.3356 Y16.4684
G01 X-14.3552 Y16.4897
G01 X-14.3765 Y16.5093
G01 X-14.3865 Y16.5175
G01 X-14.4105 Y16.5351
G01 X-14.4419 Y16.5539
G01 X-14.4703 Y16.5674
G01 X-14.4800 Y16.5713
G01 X-14.5071 Y16.5808
G01 X-14.5354 Y16.5881
G01 X-14.5456 Y16.5903
G01 X-14.5774 Y16.5949
G01 X-14.6065 Y16.5965
G01 X-14.6202 Y16.5965
G01 X-14.6493 Y16.5949
G01 X-14.6778 Y16.5908
G01 X-14.6913 Y16.5881
G01 X-14.7196 Y16.5808
G01 X-14.7467 Y16.5713
G01 X-14.7594 Y16.5661
G01 X-14.7848 Y16.5539
G01 X-14.8104 Y16.5388
G01 X-14.8195 Y16.5329
G01 X-14.8453 Y16.5135
G01 X-14.8665 Y16.4944
G01 X-14.8739 Y16.4872
G01 X-14.8932 Y16.4659
G01 X-14.8994 Y16.4583
G01 X-14.9169 Y16.4344
G01 X-14.9320 Y16.4096
G01 X-14.9371 Y16.4002
G01 X-14.9506 Y16.3713
G01 X-14.9606 Y16.3440
G01 X-14.9637 Y16.3343
G01 X-14.9708 Y16.3058
G01 X-14.9726 Y16.2960
G01 X-14.9767 Y16.2675
G01 X-14.9783 Y16.2384
G01 X-14.9785 Y15.3064
G01 X-15.6123 Y16.4156
G01 X-15.6298 Y16.4428
G01 X-15.6511 Y16.4700
G01 X-15.6760 Y16.4960
G01 X-15.6976 Y16.5149
G01 X-15.7051 Y16.5209
G01 X-15.7294 Y16.5381
G01 X-15.7377 Y16.5432
G01 X-15.7626 Y16.5572
G01 X-15.7890 Y16.5692
G01 X-15.8014 Y16.5740
G01 X-15.8287 Y16.5830
G01 X-15.8575 Y16.5898
G01 X-15.8699 Y16.5919
G01 X-15.8978 Y16.5954
G01 X-15.9270 Y16.5965
G01 X-15.9375 Y16.5965
G01 X-15.9687 Y16.5943
G01 X-15.9974 Y16.5898
G01 X-16.0107 Y16.5870
G01 X-16.0374 Y16.5797
G01 X-16.0680 Y16.5686
G01 X-16.0778 Y16.5642
G01 X-16.1040 Y16.5512
G01 X-16.1279 Y16.5367
G01 X-16.1387 Y16.5294
G01 X-16.1632 Y16.5105
G01 X-16.1831 Y16.4923
G01 X-16.1926 Y16.4826
G01 X-16.2123 Y16.4602
G01 X-16.2306 Y16.4353
G01 X-16.2361 Y16.4267
G01 X-16.2505 Y16.4019
G01 X-16.2641 Y16.3732
G01 X-16.2676 Y16.3644
G01 X-16.2774 Y16.3364
G01 X-16.2851 Y16.3055
G01 X-16.2870 Y16.2953
G00 Z2.0000
G00 X-17.2931 Y16.2828
G01 F60.00
G01 Z0.0000
G01 F120.00
G01 X-17.2967 Y16.2586
G01 X-17.2980 Y16.2315
G01 X-17.2980 Y13.9315
G01 X-17.2965 Y13.9033
G01 X-17.2927 Y13.8779
G01 X-17.2861 Y13.8516
G01 X-17.2770 Y13.8262
G01 X-17.2656 Y13.8021
G01 X-17.2515 Y13.7786
G01 X-17.2355 Y13.7569
G01 X-17.2174 Y13.7370
G01 X-17.1975 Y13.7189
G01 X-17.1757 Y13.7028
G01 X-17.1523 Y13.6888
G01 X-17.1282 Y13.6774
G01 X-17.1028 Y13.6683
G01 X-17.0765 Y13.6617
G01 X-17.0499 Y13.6577
G01 X-17.0229 Y13.6564
G01 X-16.9946 Y13.6579
G01 X-16.9693 Y13.6617
G01 X-16.9429 Y13.6683
G01 X-16.9176 Y13.6774
G01 X-16.8954 Y13.6878
G01 X-16.8680 Y13.7042
G01 X-16.8482 Y13.7189
G01 X-16.8283 Y13.7370
G01 X-16.8103 Y13.7569
G01 X-16.7955 Y13.7767
G01 X-16.7791 Y13.8040
G01 X-16.7687 Y13.8262
G01 X-16.7596 Y13.8516
G01 X-16.7530 Y13.8779
G01 X-16.7491 Y13.9045
G01 X-16.7478 Y13.9315
G01 X-16.7478 Y16.2315
G01 X-16.7492 Y16.2597
G01 X-16.7530 Y16.2851
G01 X-16.7596 Y16.3115
G01 X-16.7687 Y16.3368
G01 X-16.7791 Y16.3590
G01 X-16.7955 Y16.3864
G01 X-16.8103 Y16.4062
G01 X-16.8301 Y16.4278
G01 X-16.8482 Y16.4441
G01 X-16.8700 Y16.4603
G01 X-16.8934 Y16.4743
G01 X-16.9176 Y16.4857
G01 X-16.9429 Y16.4948
G01 X-16.9693 Y16.5014
G01 X-16.9958 Y16.5053
G01 X-17.0204 Y16.5066
G01 X-17.0523 Y16.5050
G01 X-17.0765 Y16.5014
G01 X-17.1051 Y16.4940
G01 X-17.1282 Y16.4857
G01 X-17.1523 Y16.4743
G01 X-17.1758 Y16.4602
G01 X-17.1975 Y16.4441
G01 X-17.2174 Y16.4261
G01 X-17.2355 Y16.4062
G01 X-17.2516 Y16.3844
G01 X-17.2643 Y16.3633
G01 X-17.2779 Y16.3345
G01 X-17.2861 Y16.3115
G01 X-17.2931 Y16.2828
G00 Z2.0000
G00 X-17.3821 Y16.2960
G01 F60.00
G01 Z0.0000
G01 F120.00
G01 X-17.3862 Y16.2675
G01 X-17.3880 Y16.2315
G01 X-17.3880 Y13.9315
G01 X-17.3862 Y13.8955
G01 X-17.3821 Y13.8671
G01 X-17.3803 Y13.8572
G01 X-17.3732 Y13.8287
G01 X-17.3701 Y13.8190
G01 X-17.3615 Y13.7949
G01 X-17.3574 Y13.7855
G01 X-17.3452 Y13.7601
G01 X-17.3282 Y13.7314
G01 X-17.3225 Y13.7231
G01 X-17.3049 Y13.6996
G01 X-17.2810 Y13.6734
G01 X-17.2548 Y13.6495
G01 X-17.2285 Y13.6299
G01 X-17.2199 Y13.6243
G01 X-17.1943 Y13.6092
G01 X-17.1627 Y13.5942
G01 X-17.1291 Y13.5822
G01 X-17.0972 Y13.5741
G01 X-17.0873 Y13.5723
G01 X-17.0589 Y13.5682
G01 X-17.0263 Y13.5665
G01 X-17.0160 Y13.5666
G01 X-16.9904 Y13.5679
G01 X-16.9803 Y13.5690
G01 X-16.9584 Y13.5723
G01 X-16.9449 Y13.5749
G01 X-16.9235 Y13.5803
G01 X-16.9133 Y13.5833
G01 X-16.8831 Y13.5942
G01 X-16.8514 Y13.6092
G01 X-16.8197 Y13.6281
G01 X-16.7961 Y13.6455
G01 X-16.7885 Y13.6516
G01 X-16.7697 Y13.6686
G01 X-16.7600 Y13.6783
G01 X-16.7409 Y13.6996
G01 X-16.7193 Y13.7287
G01 X-16.7020 Y13.7574
G01 X-16.6883 Y13.7855
G01 X-16.6831 Y13.7982
G01 X-16.6746 Y13.8219
G01 X-16.6716 Y13.8322
G01 X-16.6647 Y13.8605
G01 X-16.6595 Y13.8955
G01 X-16.6578 Y13.9315
G01 X-16.6578 Y16.2315
G01 X-16.6595 Y16.2675
G01 X-16.6636 Y16.2960
G01 X-16.6654 Y16.3058
G01 X-16.6726 Y16.3343
G01 X-16.6746 Y16.3411
G01 X-16.6831 Y16.3648
G01 X-16.6883 Y16.3775
G01 X-16.6991 Y16.4002
G01 X-16.7043 Y16.4096
G01 X-16.7195 Y16.4347
G01 X-16.7409 Y16.4634
G01 X-16.7647 Y16.4897
G01 X-16.7910 Y16.5135
G01 X-16.8200 Y16.5351
G01 X-16.8448 Y16.5501
G01 X-16.8542 Y16.5553
G01 X-16.8769 Y16.5661
G01 X-16.8896 Y16.5713
G01 X-16.9166 Y16.5808
G01 X-16.9518 Y16.5897
G01 X-16.9869 Y16.5949
G01 X-17.0229 Y16.5966
G01 X-17.0589 Y16.5949
G01 X-17.0939 Y16.5897
G01 X-17.1291 Y16.5808
G01 X-17.1562 Y16.5713
G01 X-17.1689 Y16.5661
G01 X-17.1916 Y16.5553
G01 X-17.2010 Y16.5501
G01 X-17.2260 Y16.5349
G01 X-17.2548 Y16.5135
G01 X-17.2810 Y16.4897
G01 X-17.3049 Y16.4634
G01 X-17.3265 Y16.4344
G01 X-17.3415 Y16.4096
G01 X-17.3466 Y16.4002
G01 X-17.3574 Y16.3775
G01 X-17.3627 Y16.3648
G01 X-17.3711 Y16.3411
G01 X-17.3732 Y16.3343
G01 X-17.3803 Y16.3058
G01 X-17.3821 Y16.2960
G00 Z2.0000
G00 X-17.4712 Y16.3092
G01 F60.00
G01 Z0.0000
G01 F120.00
G01 X-17.4758 Y16.2765
G01 X-17.4766 Y16.2649
G01 X-17.4780 Y16.2315
G01 X-17.4780 Y13.9315
G01 X-17.4766 Y13.8982
G01 X-17.4758 Y13.8866
G01 X-17.4712 Y13.8539
G01 X-17.4693 Y13.8431
G01 X-17.4614 Y13.8103
G01 X-17.4583 Y13.7990
G01 X-17.4474 Y13.7679
G01 X-17.4433 Y13.7572
G01 X-17.4388 Y13.7470
G01 X-17.4248 Y13.7181
G01 X-17.4187 Y13.7072
G01 X-17.4010 Y13.6782
G01 X-17.3816 Y13.6517
G01 X-17.3743 Y13.6423
G01 X-17.3525 Y13.6179
G01 X-17.3447 Y13.6097
G01 X-17.3365 Y13.6019
G01 X-17.3121 Y13.5801
G01 X-17.3027 Y13.5728
G01 X-17.2757 Y13.5531
G01 X-17.2472 Y13.5357
G01 X-17.2363 Y13.5296
G01 X-17.2074 Y13.5156
G01 X-17.1972 Y13.5111
G01 X-17.1865 Y13.5070
G01 X-17.1554 Y13.4961
G01 X-17.1441 Y13.4930
G01 X-17.1113 Y13.4851
G01 X-17.1005 Y13.4832
G01 X-17.0678 Y13.4786
G01 X-17.0562 Y13.4778
G01 X-17.0229 Y13.4764
G01 X-16.9895 Y13.4778
G01 X-16.9779 Y13.4786
G01 X-16.9452 Y13.4832
G01 X-16.9344 Y13.4851
G01 X-16.8960 Y13.4945
G01 X-16.8848 Y13.4979
G01 X-16.8592 Y13.5070
G01 X-16.8486 Y13.5111
G01 X-16.8384 Y13.5156
G01 X-16.8139 Y13.5273
G01 X-16.8051 Y13.5319
G01 X-16.7796 Y13.5471
G01 X-16.7695 Y13.5534
G01 X-16.7378 Y13.5768
G01 X-16.7296 Y13.5836
G01 X-16.7092 Y13.6019
G01 X-16.7011 Y13.6097
G01 X-16.6933 Y13.6179
G01 X-16.6749 Y13.6383
G01 X-16.6681 Y13.6465
G01 X-16.6445 Y13.6787
G01 X-16.6233 Y13.7137
G01 X-16.6186 Y13.7226
G01 X-16.6070 Y13.7470
G01 X-16.6025 Y13.7572
G01 X-16.5983 Y13.7679
G01 X-16.5893 Y13.7934
G01 X-16.5858 Y13.8046
G01 X-16.5764 Y13.8431
G01 X-16.5706 Y13.8811
G01 X-16.5691 Y13.8982
G01 X-16.5678 Y13.9315
G01 X-16.5678 Y16.2315
G01 X-16.5691 Y16.2649
G01 X-16.5700 Y16.2765
G01 X-16.5746 Y16.3092
G01 X-16.5764 Y16.3200
G01 X-16.5843 Y16.3528
G01 X-16.5875 Y16.3640
G01 X-16.6003 Y16.4005
G01 X-16.6047 Y16.4111
G01 X-16.6164 Y16.4360
G01 X-16.6209 Y16.4449
G01 X-16.6271 Y16.4559
G01 X-16.6448 Y16.4849
G01 X-16.6641 Y16.5113
G01 X-16.6715 Y16.5207
G01 X-16.6933 Y16.5452
G01 X-16.7011 Y16.5533
G01 X-16.7092 Y16.5611
G01 X-16.7337 Y16.5829
G01 X-16.7431 Y16.5903
G01 X-16.7700 Y16.6099
G01 X-16.7985 Y16.6273
G01 X-16.8139 Y16.6358
G01 X-16.8384 Y16.6474
G01 X-16.8486 Y16.6519
G01 X-16.8592 Y16.6561
G01 X-16.8848 Y16.6651
G01 X-16.8960 Y16.6686
G01 X-16.9344 Y16.6780
G01 X-16.9452 Y16.6798
G01 X-16.9779 Y16.6844
G01 X-16.9895 Y16.6853
G01 X-17.0229 Y16.6866
G01 X-17.0562 Y16.6853
G01 X-17.0678 Y16.6844
G01 X-17.1005 Y16.6798
G01 X-17.1113 Y16.6780
G01 X-17.1498 Y16.6686
G01 X-17.1610 Y16.6651
G01 X-17.1865 Y16.6561
G01 X-17.1972 Y16.6519
G01 X-17.2074 Y16.6474
G01 X-17.2318 Y16.6358
G01 X-17.2472 Y16.6273
G01 X-17.2762 Y16.6096
G01 X-17.3027 Y16.5903
G01 X-17.3121 Y16.5829
G01 X-17.3365 Y16.5611
G01 X-17.3447 Y16.5533
G01 X-17.3525 Y16.5452
G01 X-17.3743 Y16.5207
G01 X-17.3816 Y16.5113
G01 X-17.4013 Y16.4844
G01 X-17.4187 Y16.4559
G01 X-17.4271 Y16.4405
G01 X-17.4388 Y16.4160
G01 X-17.4433 Y16.4058
G01 X-17.4474 Y16.3952
G01 X-17.4565 Y16.3696
G01 X-17.4599 Y16.3584
G01 X-17.4682 Y16.3253
G01 X-17.4712 Y16.3092
G00 Z2.0000
G00 X-19.5894 Y15.7520
G01 F60.00
G01 Z0.0000
G01 F120.00
G01 X-19.6993 Y15.3125
G01 X-19.7054 Y15.2798
G01 X-19.7075 Y15.2458
G01 X-19.7075 Y14.9172
G01 X-19.7055 Y14.8844
G01 X-19.6993 Y14.8505
G01 X-19.5898 Y14.4124
G01 X-19.5814 Y14.3850
G01 X-19.5689 Y14.3561
G01 X-19.4589 Y14.1360
G01 X-19.4450 Y14.1117
G01 X-19.4266 Y14.0863
G01 X-19.4079 Y14.0656
G01 X-19.1880 Y13.8457
G01 X-19.1682 Y13.8279
G01 X-19.1497 Y13.8140
G01 X-19.1299 Y13.8017
G01 X-19.1053 Y13.7893
G01 X-19.0813 Y13.7801
G01 X-18.7527 Y13.6705
G01 X-18.7226 Y13.6624
G01 X-18.6948 Y13.6580
G01 X-18.6671 Y13.6564
G01 X-18.4467 Y13.6564
G01 X-18.4176 Y13.6580
G01 X-18.3887 Y13.6626
G01 X-18.3597 Y13.6705
G01 X-18.0289 Y13.7808
G01 X-18.0073 Y13.7893
G01 X-17.9844 Y13.8006
G01 X-17.9628 Y13.8139
G01 X-17.9418 Y13.8299
G01 X-17.9236 Y13.8465
G01 X-17.8141 Y13.9560
G01 X-17.7960 Y13.9759
G01 X-17.7798 Y13.9977
G01 X-17.7658 Y14.0211
G01 X-17.7544 Y14.0453
G01 X-17.7453 Y14.0706
G01 X-17.7387 Y14.0970
G01 X-17.7346 Y14.1261
G01 X-17.7335 Y14.1506
G01 X-17.7346 Y14.1751
G01 X-17.7387 Y14.2042
G01 X-17.7461 Y14.2328
G01 X-17.7544 Y14.2559
G01 X-17.7649 Y14.2781
G01 X-17.7799 Y14.3035
G01 X-17.7968 Y14.3261
G01 X-17.8141 Y14.3451
G01 X-17.8360 Y14.3647
G01 X-17.8578 Y14.3806
G01 X-17.8791 Y14.3933
G01 X-17.9011 Y14.4037
G01 X-17.9286 Y14.4138
G01 X-17.9550 Y14.4204
G01 X-17.9815 Y14.4244
G01 X-18.0110 Y14.4256
G01 X-18.0380 Y14.4241
G01 X-18.0622 Y14.4204
G01 X-18.0861 Y14.4145
G01 X-18.1139 Y14.4047
G01 X-18.1390 Y14.3928
G01 X-18.1615 Y14.3792
G01 X-18.1841 Y14.3624
G01 X-18.2031 Y14.3451
G01 X-18.2667 Y14.2815
G01 X-18.4913 Y14.2066
G01 X-18.6211 Y14.2066
G01 X-18.8457 Y14.2815
G01 X-18.9872 Y14.4231
G01 X-19.0633 Y14.5752
G01 X-19.1573 Y14.9511
G01 X-19.1573 Y15.2119
G01 X-19.0633 Y15.5879
G01 X-18.9872 Y15.7400
G01 X-18.8457 Y15.8815
G01 X-18.6211 Y15.9564
G01 X-18.4913 Y15.9564
G01 X-18.2667 Y15.8815
G01 X-18.2031 Y15.8179
G01 X-18.1823 Y15.7992
G01 X-18.1613 Y15.7836
G01 X-18.1404 Y15.7711
G01 X-18.1116 Y15.7574
G01 X-18.0883 Y15.7492
G01 X-18.0623 Y15.7427
G01 X-18.0362 Y15.7388
G01 X-18.0110 Y15.7374
G01 X-17.9792 Y15.7390
G01 X-17.9549 Y15.7427
G01 X-17.9289 Y15.7492
G01 X-17.9033 Y15.7583
G01 X-17.8768 Y15.7711
G01 X-17.8559 Y15.7836
G01 X-17.8360 Y15.7983
G01 X-17.8141 Y15.8179
G01 X-17.7946 Y15.8397
G01 X-17.7797 Y15.8598
G01 X-17.7672 Y15.8807
G01 X-17.7544 Y15.9072
G01 X-17.7453 Y15.9328
G01 X-17.7383 Y15.9612
G01 X-17.7348 Y15.9859
G01 X-17.7335 Y16.0100
G01 X-17.7348 Y16.0390
G01 X-17.7388 Y16.0662
G01 X-17.7461 Y16.0947
G01 X-17.7544 Y16.1178
G01 X-17.7649 Y16.1400
G01 X-17.7797 Y16.1652
G01 X-17.7969 Y16.1881
G01 X-17.8141 Y16.2070
G01 X-17.9236 Y16.3165
G01 X-17.9426 Y16.3339
G01 X-17.9629 Y16.3491
G01 X-17.9845 Y16.3625
G01 X-18.0075 Y16.3739
G01 X-18.0311 Y16.3830
G01 X-18.3597 Y16.4925
G01 X-18.3855 Y16.4997
G01 X-18.3908 Y16.5008
G01 X-18.4176 Y16.5051
G01 X-18.4453 Y16.5066
G01 X-18.6657 Y16.5066
G01 X-18.6948 Y16.5051
G01 X-18.7258 Y16.5000
G01 X-18.7527 Y16.4925
G01 X-19.0835 Y16.3822
G01 X-19.1052 Y16.3738
G01 X-19.1280 Y16.3624
G01 X-19.1495 Y16.3491
G01 X-19.1706 Y16.3332
G01 X-19.1888 Y16.3165
G01 X-19.4079 Y16.0975
G01 X-19.4273 Y16.0759
G01 X-19.4433 Y16.0538
G01 X-19.4462 Y16.0493
G01 X-19.4594 Y16.0260
G01 X-19.5695 Y15.8058
G01 X-19.5809 Y15.7793
G01 X-19.5894 Y15.7520
G00 Z2.0000
G00 X-19.6761 Y15.7763
G01 F60.00
G01 Z0.0000
G01 F120.00
G01 X-19.7866 Y15.3344
G01 X-19.7884 Y15.3260
G01 X-19.7946 Y15.2915
G01 X-19.7956 Y15.2819
G01 X-19.7975 Y15.2458
G01 X-19.7975 Y14.9172
G01 X-19.7950 Y14.8748
G01 X-19.7935 Y14.8642
G01 X-19.7866 Y14.8287
G01 X-19.6771 Y14.3906
G01 X-19.6653 Y14.3525
G01 X-19.6494 Y14.3159
G01 X-19.5384 Y14.0939
G01 X-19.5244 Y14.0692
G01 X-19.5192 Y14.0608
G01 X-19.5022 Y14.0370
G01 X-19.4928 Y14.0253
G01 X-19.4715 Y14.0019
G01 X-19.2502 Y13.7806
G01 X-19.2269 Y13.7596
G01 X-19.2057 Y13.7435
G01 X-19.1956 Y13.7365
G01 X-19.1745 Y13.7235
G01 X-19.1659 Y13.7189
G01 X-19.1418 Y13.7071
G01 X-19.1123 Y13.6955
G01 X-18.7812 Y13.5851
G01 X-18.7447 Y13.5751
G01 X-18.7123 Y13.5695
G01 X-18.7005 Y13.5681
G01 X-18.6657 Y13.5664
G01 X-18.4429 Y13.5665
G01 X-18.4087 Y13.5684
G01 X-18.3763 Y13.5734
G01 X-18.3677 Y13.5751
G01 X-18.3312 Y13.5851
G01 X-18.0026 Y13.6947
G01 X-17.9771 Y13.7044
G01 X-17.9679 Y13.7083
G01 X-17.9465 Y13.7189
G01 X-17.9352 Y13.7252
G01 X-17.9096 Y13.7414
G01 X-17.8877 Y13.7578
G01 X-17.8801 Y13.7643
G01 X-17.8599 Y13.7829
G01 X-17.7480 Y13.8949
G01 X-17.7266 Y13.9187
G01 X-17.7090 Y13.9421
G01 X-17.7031 Y13.9506
G01 X-17.6877 Y13.9765
G01 X-17.6727 Y14.0076
G01 X-17.6688 Y14.0173
G01 X-17.6593 Y14.0443
G01 X-17.6520 Y14.0726
G01 X-17.6498 Y14.0828
G01 X-17.6453 Y14.1146
G01 X-17.6435 Y14.1506
G01 X-17.6453 Y14.1866
G01 X-17.6498 Y14.2183
G01 X-17.6520 Y14.2285
G01 X-17.6593 Y14.2568
G01 X-17.6688 Y14.2839
G01 X-17.6727 Y14.2936
G01 X-17.6835 Y14.3165
G01 X-17.6900 Y14.3287
G01 X-17.7052 Y14.3537
G01 X-17.7266 Y14.3825
G01 X-17.7504 Y14.4087
G01 X-17.7718 Y14.4283
G01 X-17.7818 Y14.4366
G01 X-17.8029 Y14.4522
G01 X-17.8115 Y14.4578
G01 X-17.8372 Y14.4729
G01 X-17.8626 Y14.4851
G01 X-17.8753 Y14.4904
G01 X-17.9024 Y14.4999
G01 X-17.9376 Y14.5087
G01 X-17.9726 Y14.5139
G01 X-18.0017 Y14.5155
G01 X-18.0120 Y14.5156
G01 X-18.0446 Y14.5139
G01 X-18.0796 Y14.5087
G01 X-18.1148 Y14.4999
G01 X-18.1419 Y14.4904
G01 X-18.1516 Y14.4865
G01 X-18.1800 Y14.4729
G01 X-18.2056 Y14.4578
G01 X-18.2147 Y14.4519
G01 X-18.2380 Y14.4346
G01 X-18.2454 Y14.4283
G01 X-18.2642 Y14.4112
G01 X-18.3153 Y14.3602
G01 X-18.5059 Y14.2966
G01 X-18.6065 Y14.2966
G01 X-18.7971 Y14.3602
G01 X-18.9133 Y14.4764
G01 X-18.9784 Y14.6066
G01 X-19.0673 Y14.9622
G01 X-19.0673 Y15.2009
