(G-CODE GENERATED BY FLATCAM v8.994 - www.flatcam.org - Version Date: 2020/11/7)

(Name: OFICINA-TELE-ENCHUFES-INTERFAZ-B_Cu.gbr_iso_combined_cnc)
(Type: G-code from Geometry)
(Units: MM)

(Created on miércoles, 21 julio 2021 at 20:52)

(This preprocessor is the default preprocessor used by FlatCAM.)
(It is made to work with MACH3 compatible motion controllers.)

(TOOL DIAMETER: 0.1 mm)
(Feedrate_XY: 120.0 mm/min)
(Feedrate_Z: 60.0 mm/min)
(Feedrate rapids 1500.0 mm/min)

(Z_Cut: 0.0 mm)
(Z_Move: 3.0 mm)
(Z Start: None mm)
(Z End: 15.0 mm)
(X,Y End: None mm)
(Steps per circle: 64)
(Preprocessor Geometry: default)

(X range:  -45.8906 ...   43.2000  mm)
(Y range:  -35.3743 ...   34.1920  mm)

(Spindle Speed: 10000.0 RPM)
G21
G90
G94

G01 F120.00

M5
G00 Z15.0000
G00 X0.0000 Y0.0000
T1
M6    
(MSG, Change to Tool Dia = 0.1000)
M0
G00 Z15.0000

M03 S10000.0
G4 P1.0
G01 F120.00
G00 X-0.7845 Y13.8992
G01 F60.00
G01 Z0.0000
G01 F120.00
G01 X-0.7830 Y13.9315
G01 X-0.7831 Y16.2350
G01 X-0.7848 Y16.2673
G01 X-0.7889 Y16.2960
G01 X-0.7915 Y16.3095
G01 X-0.7987 Y16.3375
G01 X-0.8108 Y16.3712
G01 X-0.8230 Y16.3975
G01 X-0.8295 Y16.4096
G01 X-0.8409 Y16.4286
G01 X-0.8465 Y16.4372
G01 X-0.8659 Y16.4631
G01 X-0.8900 Y16.4897
G01 X-0.9165 Y16.5138
G01 X-0.9397 Y16.5311
G01 X-0.9482 Y16.5370
G01 X-0.9760 Y16.5535
G01 X-1.0021 Y16.5661
G01 X-1.0116 Y16.5701
G01 X-1.0356 Y16.5788
G01 X-1.0454 Y16.5819
G01 X-1.0735 Y16.5889
G01 X-1.0837 Y16.5908
G01 X-1.1055 Y16.5940
G01 X-1.1158 Y16.5952
G01 X-1.1413 Y16.5965
G01 X-1.1516 Y16.5966
G01 X-1.1771 Y16.5954
G01 X-1.1873 Y16.5945
G01 X-1.2160 Y16.5902
G01 X-1.2261 Y16.5881
G01 X-1.2475 Y16.5827
G01 X-1.2574 Y16.5799
G01 X-1.2847 Y16.5701
G01 X-1.2941 Y16.5661
G01 X-1.3172 Y16.5551
G01 X-1.3262 Y16.5501
G01 X-1.3510 Y16.5351
G01 X-1.3743 Y16.5180
G01 X-1.3824 Y16.5115
G01 X-1.4038 Y16.4921
G01 X-1.4110 Y16.4847
G01 X-1.4282 Y16.4658
G01 X-1.4346 Y16.4577
G01 X-1.4517 Y16.4344
G01 X-1.4685 Y16.4066
G01 X-1.4732 Y16.3975
G01 X-1.4854 Y16.3712
G01 X-1.4965 Y16.3408
G01 X-1.4994 Y16.3309
G01 X-1.5055 Y16.3061
G01 X-1.5074 Y16.2960
G01 X-1.5106 Y16.2741
G01 X-1.5120 Y16.2605
G01 X-1.5132 Y16.2315
G01 X-1.5132 Y15.5014
G01 X-2.0973 Y15.5014
G01 X-2.0973 Y16.2315
G01 X-2.0986 Y16.2605
G01 X-2.0999 Y16.2741
G01 X-2.1043 Y16.3028
G01 X-2.1130 Y16.3375
G01 X-2.1251 Y16.3712
G01 X-2.1373 Y16.3975
G01 X-2.1421 Y16.4066
G01 X-2.1588 Y16.4344
G01 X-2.1760 Y16.4577
G01 X-2.1824 Y16.4658
G01 X-2.1995 Y16.4847
G01 X-2.2067 Y16.4921
G01 X-2.2282 Y16.5115
G01 X-2.2362 Y16.5180
G01 X-2.2596 Y16.5351
G01 X-2.2843 Y16.5501
G01 X-2.2934 Y16.5551
G01 X-2.3164 Y16.5661
G01 X-2.3259 Y16.5701
G01 X-2.3532 Y16.5799
G01 X-2.3631 Y16.5827
G01 X-2.3845 Y16.5881
G01 X-2.3980 Y16.5908
G01 X-2.4266 Y16.5949
G01 X-2.4624 Y16.5966
G01 X-2.4982 Y16.5949
G01 X-2.5336 Y16.5896
G01 X-2.5684 Y16.5809
G01 X-2.6021 Y16.5688
G01 X-2.6345 Y16.5535
G01 X-2.6595 Y16.5388
G01 X-2.6681 Y16.5332
G01 X-2.6914 Y16.5159
G01 X-2.6992 Y16.5093
G01 X-2.7206 Y16.4897
G01 X-2.7402 Y16.4684
G01 X-2.7489 Y16.4577
G01 X-2.7660 Y16.4344
G01 X-2.7844 Y16.4036
G01 X-2.7997 Y16.3712
G01 X-2.8097 Y16.3440
G01 X-2.8136 Y16.3309
G01 X-2.8205 Y16.3028
G01 X-2.8249 Y16.2741
G01 X-2.8261 Y16.2639
G01 X-2.8275 Y16.2350
G01 X-2.8275 Y13.9281
G01 X-2.8258 Y13.8957
G01 X-2.8217 Y13.8671
G01 X-2.8190 Y13.8536
G01 X-2.8118 Y13.8255
G01 X-2.7997 Y13.7918
G01 X-2.7875 Y13.7655
G01 X-2.7810 Y13.7534
G01 X-2.7697 Y13.7345
G01 X-2.7641 Y13.7258
G01 X-2.7468 Y13.7026
G01 X-2.7402 Y13.6947
G01 X-2.7206 Y13.6734
G01 X-2.6992 Y13.6538
G01 X-2.6886 Y13.6451
G01 X-2.6653 Y13.6279
G01 X-2.6345 Y13.6095
G01 X-2.6021 Y13.5942
G01 X-2.5749 Y13.5843
G01 X-2.5618 Y13.5803
G01 X-2.5336 Y13.5734
G01 X-2.5050 Y13.5690
G01 X-2.4913 Y13.5677
G01 X-2.4624 Y13.5664
G01 X-2.4335 Y13.5677
G01 X-2.4198 Y13.5690
G01 X-2.3912 Y13.5734
G01 X-2.3631 Y13.5803
G01 X-2.3499 Y13.5843
G01 X-2.3227 Y13.5942
G01 X-2.2903 Y13.6095
G01 X-2.2654 Y13.6243
G01 X-2.2540 Y13.6319
G01 X-2.2308 Y13.6493
G01 X-2.2092 Y13.6686
G01 X-2.1995 Y13.6783
G01 X-2.1802 Y13.6999
G01 X-2.1628 Y13.7231
G01 X-2.1570 Y13.7316
G01 X-2.1404 Y13.7594
G01 X-2.1279 Y13.7855
G01 X-2.1238 Y13.7950
G01 X-2.1141 Y13.8223
G01 X-2.1112 Y13.8322
G01 X-2.1043 Y13.8603
G01 X-2.0999 Y13.8889
G01 X-2.0986 Y13.9026
G01 X-2.0973 Y13.9315
G01 X-2.0973 Y14.7712
G01 X-1.5132 Y14.7712
G01 X-1.5132 Y13.9315
G01 X-1.5120 Y13.9026
G01 X-1.5106 Y13.8889
G01 X-1.5074 Y13.8671
G01 X-1.5055 Y13.8569
G01 X-1.4985 Y13.8288
G01 X-1.4954 Y13.8190
G01 X-1.4854 Y13.7918
G01 X-1.4732 Y13.7655
G01 X-1.4685 Y13.7564
G01 X-1.4554 Y13.7345
G01 X-1.4478 Y13.7231
G01 X-1.4304 Y13.6999
G01 X-1.4063 Y13.6734
G01 X-1.3798 Y13.6493
G01 X-1.3510 Y13.6279
G01 X-1.3262 Y13.6129
G01 X-1.3141 Y13.6064
G01 X-1.2879 Y13.5942
G01 X-1.2606 Y13.5843
G01 X-1.2475 Y13.5803
G01 X-1.2194 Y13.5734
G01 X-1.1907 Y13.5690
G01 X-1.1771 Y13.5677
G01 X-1.1481 Y13.5664
G01 X-1.1192 Y13.5677
G01 X-1.1055 Y13.5690
G01 X-1.0769 Y13.5734
G01 X-1.0488 Y13.5803
G01 X-1.0356 Y13.5843
G01 X-1.0084 Y13.5942
G01 X-0.9822 Y13.6064
G01 X-0.9700 Y13.6129
G01 X-0.9453 Y13.6279
G01 X-0.9219 Y13.6451
G01 X-0.9113 Y13.6538
G01 X-0.8900 Y13.6734
G01 X-0.8704 Y13.6947
G01 X-0.8617 Y13.7053
G01 X-0.8445 Y13.7287
G01 X-0.8295 Y13.7534
G01 X-0.8230 Y13.7655
G01 X-0.8108 Y13.7918
G01 X-0.8009 Y13.8190
G01 X-0.7969 Y13.8322
G01 X-0.7900 Y13.8603
G01 X-0.7856 Y13.8889
G01 X-0.7845 Y13.8992
G00 Z3.0000
G00 X-0.8746 Y13.9021
G01 F60.00
G01 Z0.0000
G01 F120.00
G01 X-0.8730 Y13.9315
G01 X-0.8730 Y16.2328
G01 X-0.8743 Y16.2585
G01 X-0.8779 Y16.2828
G01 X-0.8849 Y16.3114
G01 X-0.8950 Y16.3390
G01 X-0.9055 Y16.3612
G01 X-0.9194 Y16.3844
G01 X-0.9371 Y16.4079
G01 X-0.9536 Y16.4261
G01 X-0.9717 Y16.4426
G01 X-0.9953 Y16.4603
G01 X-1.0206 Y16.4753
G01 X-1.0428 Y16.4857
G01 X-1.0659 Y16.4940
G01 X-1.0945 Y16.5014
G01 X-1.1236 Y16.5055
G01 X-1.1481 Y16.5066
G01 X-1.1726 Y16.5055
G01 X-1.2018 Y16.5014
G01 X-1.2303 Y16.4940
G01 X-1.2534 Y16.4857
G01 X-1.2756 Y16.4753
G01 X-1.3010 Y16.4603
G01 X-1.3245 Y16.4426
G01 X-1.3427 Y16.4261
G01 X-1.3592 Y16.4079
G01 X-1.3769 Y16.3844
G01 X-1.3913 Y16.3601
G01 X-1.4023 Y16.3368
G01 X-1.4120 Y16.3090
G01 X-1.4180 Y16.2852
G01 X-1.4216 Y16.2609
G01 X-1.4232 Y16.2328
G01 X-1.4232 Y15.4114
G01 X-2.1873 Y15.4114
G01 X-2.1873 Y16.2328
G01 X-2.1886 Y16.2585
G01 X-2.1926 Y16.2852
G01 X-2.1991 Y16.3114
G01 X-2.2082 Y16.3368
G01 X-2.2198 Y16.3612
G01 X-2.2351 Y16.3864
G01 X-2.2498 Y16.4061
G01 X-2.2662 Y16.4243
G01 X-2.2860 Y16.4426
G01 X-2.3096 Y16.4603
G01 X-2.3327 Y16.4742
G01 X-2.3571 Y16.4857
G01 X-2.3826 Y16.4948
G01 X-2.4087 Y16.5014
G01 X-2.4354 Y16.5053
G01 X-2.4624 Y16.5066
G01 X-2.4918 Y16.5050
G01 X-2.5185 Y16.5008
G01 X-2.5423 Y16.4948
G01 X-2.5654 Y16.4866
G01 X-2.5921 Y16.4742
G01 X-2.6153 Y16.4603
G01 X-2.6369 Y16.4442
G01 X-2.6586 Y16.4243
G01 X-2.6751 Y16.4061
G01 X-2.6897 Y16.3864
G01 X-2.7050 Y16.3612
G01 X-2.7166 Y16.3368
G01 X-2.7263 Y16.3090
G01 X-2.7322 Y16.2852
G01 X-2.7359 Y16.2609
G01 X-2.7375 Y16.2328
G01 X-2.7375 Y13.9303
G01 X-2.7362 Y13.9046
G01 X-2.7327 Y13.8803
G01 X-2.7257 Y13.8517
G01 X-2.7156 Y13.8240
G01 X-2.7050 Y13.8018
G01 X-2.6912 Y13.7787
G01 X-2.6735 Y13.7551
G01 X-2.6569 Y13.7370
G01 X-2.6388 Y13.7205
G01 X-2.6153 Y13.7028
G01 X-2.5899 Y13.6878
G01 X-2.5677 Y13.6774
G01 X-2.5446 Y13.6690
G01 X-2.5161 Y13.6617
G01 X-2.4894 Y13.6577
G01 X-2.4649 Y13.6565
G01 X-2.4354 Y13.6577
G01 X-2.4063 Y13.6622
G01 X-2.3826 Y13.6683
G01 X-2.3594 Y13.6765
G01 X-2.3327 Y13.6889
G01 X-2.3076 Y13.7042
G01 X-2.2879 Y13.7189
G01 X-2.2697 Y13.7353
G01 X-2.2498 Y13.7570
G01 X-2.2324 Y13.7808
G01 X-2.2198 Y13.8018
G01 X-2.2092 Y13.8240
G01 X-2.1991 Y13.8517
G01 X-2.1926 Y13.8779
G01 X-2.1886 Y13.9046
G01 X-2.1873 Y13.9303
G01 X-2.1873 Y14.8612
G01 X-1.4232 Y14.8612
G01 X-1.4232 Y13.9303
G01 X-1.4216 Y13.9021
G01 X-1.4180 Y13.8779
G01 X-1.4120 Y13.8540
G01 X-1.4023 Y13.8262
G01 X-1.3902 Y13.8008
G01 X-1.3769 Y13.7787
G01 X-1.3623 Y13.7589
G01 X-1.3409 Y13.7353
G01 X-1.3227 Y13.7189
G01 X-1.3010 Y13.7028
G01 X-1.2778 Y13.6889
G01 X-1.2557 Y13.6783
G01 X-1.2256 Y13.6676
G01 X-1.2018 Y13.6617
G01 X-1.1751 Y13.6577
G01 X-1.1481 Y13.6564
G01 X-1.1236 Y13.6576
G01 X-1.0945 Y13.6617
G01 X-1.0683 Y13.6683
G01 X-1.0451 Y13.6765
G01 X-1.0184 Y13.6889
G01 X-0.9953 Y13.7028
G01 X-0.9755 Y13.7173
G01 X-0.9519 Y13.7388
G01 X-0.9355 Y13.7570
G01 X-0.9194 Y13.7787
G01 X-0.9055 Y13.8018
G01 X-0.8950 Y13.8240
G01 X-0.8842 Y13.8540
G01 X-0.8783 Y13.8779
G01 X-0.8746 Y13.9021
G00 Z3.0000
G00 X-0.4154 Y16.2741
G01 F60.00
G01 Z0.0000
G01 F120.00
G01 X-0.4168 Y16.2605
G01 X-0.4180 Y16.2315
G01 X-0.4180 Y14.3696
G01 X-0.4167 Y14.3390
G01 X-0.4157 Y14.3294
G01 X-0.4123 Y14.3055
G01 X-0.4056 Y14.2756
G01 X-0.4030 Y14.2662
G01 X-0.3954 Y14.2434
G01 X-0.3907 Y14.2313
G01 X-0.3795 Y14.2063
G01 X-0.2699 Y13.9873
G01 X-0.2506 Y13.9533
G01 X-0.2277 Y13.9215
G01 X-0.2015 Y13.8924
G01 X-0.0893 Y13.7803
G01 X-0.0629 Y13.7567
G01 X-0.0343 Y13.7359
G01 X-0.0247 Y13.7300
G01 X0.0029 Y13.7145
G01 X0.2248 Y13.6035
G01 X0.2529 Y13.5912
G01 X0.2818 Y13.5814
G01 X0.3115 Y13.5740
G01 X0.3243 Y13.5716
G01 X0.3514 Y13.5680
G01 X0.3852 Y13.5664
G01 X0.8233 Y13.5664
G01 X0.8571 Y13.5680
G01 X0.8906 Y13.5727
G01 X0.9173 Y13.5788
G01 X0.9298 Y13.5824
G01 X0.9556 Y13.5912
G01 X0.9837 Y13.6035
G01 X1.2056 Y13.7145
G01 X1.2396 Y13.7338
G01 X1.2714 Y13.7567
G01 X1.2978 Y13.7803
G01 X1.4100 Y13.8924
G01 X1.4362 Y13.9215
G01 X1.4591 Y13.9533
G01 X1.4784 Y13.9873
G01 X1.5880 Y14.2063
G01 X1.5992 Y14.2313
G01 X1.6039 Y14.2434
G01 X1.6133 Y14.2725
G01 X1.6202 Y14.3023
G01 X1.6246 Y14.3326
G01 X1.6254 Y14.3423
G01 X1.6265 Y14.3696
G01 X1.6265 Y16.2350
G01 X1.6247 Y16.2673
G01 X1.6207 Y16.2960
G01 X1.6180 Y16.3095
G01 X1.6108 Y16.3375
G01 X1.6012 Y16.3648
G01 X1.5959 Y16.3775
G01 X1.5834 Y16.4036
G01 X1.5650 Y16.4344
G01 X1.5436 Y16.4631
G01 X1.5243 Y16.4847
G01 X1.5146 Y16.4944
G01 X1.4930 Y16.5138
G01 X1.4699 Y16.5311
G01 X1.4584 Y16.5388
G01 X1.4335 Y16.5535
G01 X1.4074 Y16.5661
G01 X1.3947 Y16.5713
G01 X1.3674 Y16.5809
G01 X1.3393 Y16.5881
G01 X1.3259 Y16.5908
G01 X1.2972 Y16.5949
G01 X1.2683 Y16.5965
G01 X1.2545 Y16.5965
G01 X1.2256 Y16.5949
G01 X1.1969 Y16.5908
G01 X1.1835 Y16.5881
G01 X1.1554 Y16.5809
G01 X1.1217 Y16.5688
G01 X1.0954 Y16.5566
G01 X1.0833 Y16.5501
G01 X1.0585 Y16.5351
G01 X1.0352 Y16.5180
G01 X1.0246 Y16.5093
G01 X1.0032 Y16.4897
G01 X0.9836 Y16.4684
G01 X0.9749 Y16.4577
G01 X0.9578 Y16.4344
G01 X0.9411 Y16.4066
G01 X0.9363 Y16.3975
G01 X0.9269 Y16.3775
G01 X0.9228 Y16.3681
G01 X0.9120 Y16.3375
G01 X0.9033 Y16.3028
G01 X0.8980 Y16.2673
G01 X0.8963 Y16.2350
G01 X0.8963 Y14.4558
G01 X0.8518 Y14.3668
G01 X0.8261 Y14.3411
G01 X0.7371 Y14.2966
G01 X0.4714 Y14.2966
G01 X0.3824 Y14.3411
G01 X0.3567 Y14.3668
G01 X0.3122 Y14.4558
G01 X0.3122 Y16.2350
G01 X0.3108 Y16.2639
G01 X0.3096 Y16.2741
G01 X0.3052 Y16.3028
G01 X0.2983 Y16.3309
G01 X0.2943 Y16.3440
G01 X0.2844 Y16.3712
G01 X0.2722 Y16.3975
G01 X0.2675 Y16.4066
G01 X0.2507 Y16.4344
G01 X0.2315 Y16.4605
G01 X0.2249 Y16.4684
G01 X0.2100 Y16.4847
G01 X0.2003 Y16.4944
G01 X0.1787 Y16.5138
G01 X0.1500 Y16.5351
G01 X0.1192 Y16.5535
G01 X0.0931 Y16.5661
G01 X0.0804 Y16.5713
G01 X0.0564 Y16.5799
G01 X0.0465 Y16.5827
G01 X0.0183 Y16.5896
G01 X-0.0171 Y16.5949
G01 X-0.0529 Y16.5966
G01 X-0.0818 Y16.5954
G01 X-0.0955 Y16.5940
G01 X-0.1241 Y16.5896
G01 X-0.1589 Y16.5809
G01 X-0.1862 Y16.5713
G01 X-0.1989 Y16.5661
G01 X-0.2250 Y16.5535
G01 X-0.2557 Y16.5351
G01 X-0.2791 Y16.5180
G01 X-0.2871 Y16.5115
G01 X-0.3061 Y16.4944
G01 X-0.3158 Y16.4847
G01 X-0.3351 Y16.4631
G01 X-0.3565 Y16.4344
G01 X-0.3749 Y16.4036
G01 X-0.3874 Y16.3775
G01 X-0.3927 Y16.3648
G01 X-0.4001 Y16.3440
G01 X-0.4032 Y16.3342
G01 X-0.4110 Y16.3028
G01 X-0.4154 Y16.2741
G00 Z3.0000
G00 X-0.3264 Y16.2609
G01 F60.00
G01 Z0.0000
G01 F120.00
G01 X-0.3280 Y16.2315
G01 X-0.3280 Y14.3696
G01 X-0.3269 Y14.3453
G01 X-0.3233 Y14.3189
G01 X-0.3180 Y14.2963
G01 X-0.3084 Y14.2678
G01 X-0.2990 Y14.2466
G01 X-0.1894 Y14.0275
G01 X-0.1756 Y14.0030
G01 X-0.1576 Y13.9780
G01 X-0.1379 Y13.9560
G01 X-0.0274 Y13.8456
G01 X-0.0064 Y13.8268
G01 X0.0164 Y13.8103
G01 X0.0431 Y13.7950
G01 X0.2632 Y13.6849
G01 X0.2855 Y13.6751
G01 X0.3074 Y13.6677
G01 X0.3368 Y13.6608
G01 X0.3597 Y13.6576
G01 X0.3852 Y13.6564
G01 X0.8233 Y13.6564
G01 X0.8488 Y13.6576
G01 X0.8729 Y13.6609
G01 X0.9011 Y13.6677
G01 X0.9230 Y13.6751
G01 X0.9453 Y13.6849
G01 X1.1654 Y13.7950
G01 X1.1899 Y13.8089
G01 X1.2149 Y13.8268
G01 X1.2369 Y13.8465
G01 X1.3473 Y13.9570
G01 X1.3661 Y13.9780
G01 X1.3834 Y14.0019
G01 X1.3979 Y14.0275
G01 X1.5085 Y14.2487
G01 X1.5178 Y14.2699
G01 X1.5259 Y14.2941
G01 X1.5318 Y14.3189
G01 X1.5352 Y14.3430
G01 X1.5365 Y14.3696
G01 X1.5365 Y16.2328
G01 X1.5352 Y16.2585
G01 X1.5316 Y16.2828
G01 X1.5247 Y16.3114
G01 X1.5146 Y16.3390
G01 X1.5040 Y16.3612
G01 X1.4908 Y16.3833
G01 X1.4725 Y16.4079
G01 X1.4559 Y16.4261
G01 X1.4359 Y16.4442
G01 X1.4122 Y16.4616
G01 X1.3911 Y16.4742
G01 X1.3689 Y16.4847
G01 X1.3413 Y16.4948
G01 X1.3126 Y16.5018
G01 X1.2884 Y16.5053
G01 X1.2638 Y16.5066
G01 X1.2320 Y16.5050
G01 X1.2077 Y16.5014
G01 X1.1839 Y16.4954
G01 X1.1561 Y16.4857
G01 X1.1296 Y16.4729
G01 X1.1086 Y16.4603
G01 X1.0869 Y16.4442
G01 X1.0652 Y16.4243
G01 X1.0487 Y16.4061
G01 X1.0326 Y16.3844
G01 X1.0177 Y16.3590
G01 X1.0072 Y16.3368
G01 X0.9985 Y16.3126
G01 X0.9911 Y16.2828
G01 X0.9876 Y16.2585
G01 X0.9863 Y16.2315
G01 X0.9863 Y14.4346
G01 X0.9258 Y14.3135
G01 X0.8794 Y14.2672
G01 X0.7584 Y14.2066
G01 X0.4501 Y14.2066
G01 X0.3291 Y14.2672
G01 X0.2827 Y14.3135
G01 X0.2222 Y14.4346
G01 X0.2222 Y16.2328
G01 X0.2206 Y16.2609
G01 X0.2169 Y16.2852
G01 X0.2110 Y16.3090
G01 X0.2013 Y16.3368
G01 X0.1897 Y16.3612
G01 X0.1744 Y16.3864
G01 X0.1598 Y16.4061
G01 X0.1416 Y16.4261
G01 X0.1216 Y16.4442
G01 X0.1020 Y16.4589
G01 X0.0746 Y16.4753
G01 X0.0524 Y16.4857
G01 X0.0270 Y16.4948
G01 X0.0008 Y16.5014
G01 X-0.0235 Y16.5050
G01 X-0.0553 Y16.5066
G01 X-0.0799 Y16.5053
G01 X-0.1066 Y16.5014
G01 X-0.1328 Y16.4948
G01 X-0.1559 Y16.4866
G01 X-0.1826 Y16.4742
G01 X-0.2057 Y16.4603
G01 X-0.2255 Y16.4457
G01 X-0.2491 Y16.4243
G01 X-0.2656 Y16.4061
G01 X-0.2816 Y16.3844
G01 X-0.2955 Y16.3612
G01 X-0.3061 Y16.3390
G01 X-0.3168 Y16.3090
G01 X-0.3227 Y16.2852
G01 X-0.3264 Y16.2609
G00 Z3.0000
G00 X2.6306 Y13.9070
G01 F60.00
G01 Z0.0000
G01 F120.00
G01 X2.6317 Y13.9315
G01 X2.6317 Y14.8612
G01 X3.1245 Y14.8612
G01 X3.1503 Y14.8625
G01 X3.1770 Y14.8665
G01 X3.2032 Y14.8730
G01 X3.2263 Y14.8812
G01 X3.2551 Y14.8949
G01 X3.2761 Y14.9075
G01 X3.2978 Y14.9236
G01 X3.3195 Y14.9435
G01 X3.3360 Y14.9618
G01 X3.3520 Y14.9834
G01 X3.3659 Y15.0066
G01 X3.3765 Y15.0288
G01 X3.3866 Y15.0564
G01 X3.3931 Y15.0826
G01 X3.3968 Y15.1069
G01 X3.3984 Y15.1363
G01 X3.3968 Y15.1657
G01 X3.3931 Y15.1900
G01 X3.3866 Y15.2161
G01 X3.3765 Y15.2438
G01 X3.3659 Y15.2660
G01 X3.3520 Y15.2891
G01 X3.3360 Y15.3108
G01 X3.3195 Y15.3290
G01 X3.2978 Y15.3490
G01 X3.2761 Y15.3650
G01 X3.2551 Y15.3777
G01 X3.2263 Y15.3913
G01 X3.2032 Y15.3996
G01 X3.1770 Y15.4061
G01 X3.1503 Y15.4101
G01 X3.1245 Y15.4114
G01 X2.6317 Y15.4114
G01 X2.6317 Y15.9564
G01 X3.4531 Y15.9564
G01 X3.4813 Y15.9580
G01 X3.5055 Y15.9617
G01 X3.5294 Y15.9676
G01 X3.5572 Y15.9774
G01 X3.5837 Y15.9901
G01 X3.6047 Y16.0028
G01 X3.6245 Y16.0173
G01 X3.6464 Y16.0370
G01 X3.6660 Y16.0589
G01 X3.6806 Y16.0787
G01 X3.6945 Y16.1018
G01 X3.7069 Y16.1285
G01 X3.7151 Y16.1517
G01 X3.7217 Y16.1779
G01 X3.7258 Y16.2070
G01 X3.7270 Y16.2315
G01 X3.7257 Y16.2585
G01 X3.7217 Y16.2852
G01 X3.7158 Y16.3090
G01 X3.7060 Y16.3368
G01 X3.6945 Y16.3612
G01 X3.6819 Y16.3823
G01 X3.6645 Y16.4061
G01 X3.6464 Y16.4261
G01 X3.6283 Y16.4426
G01 X3.6047 Y16.4603
G01 X3.5794 Y16.4753
G01 X3.5572 Y16.4857
G01 X3.5341 Y16.4940
G01 X3.5031 Y16.5018
G01 X3.4788 Y16.5053
G01 X3.4519 Y16.5066
G01 X2.3566 Y16.5066
G01 X2.3284 Y16.5052
G01 X2.3030 Y16.5014
G01 X2.2791 Y16.4954
G01 X2.2514 Y16.4857
G01 X2.2248 Y16.4729
G01 X2.2038 Y16.4603
G01 X2.1821 Y16.4442
G01 X2.1604 Y16.4243
G01 X2.1440 Y16.4061
G01 X2.1279 Y16.3844
G01 X2.1129 Y16.3590
G01 X2.1025 Y16.3368
G01 X2.0941 Y16.3137
G01 X2.0864 Y16.2828
G01 X2.0828 Y16.2585
G01 X2.0815 Y16.2315
G01 X2.0815 Y13.9315
G01 X2.0828 Y13.9046
G01 X2.0871 Y13.8767
G01 X2.0934 Y13.8517
G01 X2.1025 Y13.8262
G01 X2.1140 Y13.8018
G01 X2.1266 Y13.7808
G01 X2.1440 Y13.7570
G01 X2.1604 Y13.7388
G01 X2.1840 Y13.7173
G01 X2.2038 Y13.7028
G01 X2.2269 Y13.6889
G01 X2.2514 Y13.6774
G01 X2.2768 Y13.6683
G01 X2.3030 Y13.6617
G01 X2.3297 Y13.6577
G01 X2.3566 Y13.6564
G01 X2.3812 Y13.6576
G01 X2.4127 Y13.6622
G01 X2.4365 Y13.6683
G01 X2.4642 Y13.6783
G01 X2.4863 Y13.6889
G01 X2.5095 Y13.7028
G01 X2.5312 Y13.7189
G01 X2.5512 Y13.7370
G01 X2.5693 Y13.7570
G01 X2.5854 Y13.7787
G01 X2.5993 Y13.8018
G01 X2.6098 Y13.8240
G01 X2.6199 Y13.8517
G01 X2.6259 Y13.8755
G01 X2.6306 Y13.9070
G00 Z3.0000
G00 X2.7203 Y13.8992
G01 F60.00
G01 Z0.0000
G01 F120.00
G01 X2.7217 Y13.9315
G01 X2.7217 Y14.7712
G01 X3.1233 Y14.7712
G01 X3.1557 Y14.7726
G01 X3.1659 Y14.7738
G01 X3.1945 Y14.7782
G01 X3.2260 Y14.7859
G01 X3.2358 Y14.7891
G01 X3.2598 Y14.7977
G01 X3.2693 Y14.8018
G01 X3.2893 Y14.8112
G01 X3.3014 Y14.8177
G01 X3.3203 Y14.8290
G01 X3.3290 Y14.8346
G01 X3.3549 Y14.8541
G01 X3.3765 Y14.8734
G01 X3.3862 Y14.8831
G01 X3.4055 Y14.9047
G01 X3.4229 Y14.9278
G01 X3.4306 Y14.9392
G01 X3.4453 Y14.9642
G01 X3.4578 Y14.9903
G01 X3.4631 Y15.0030
G01 X3.4727 Y15.0303
G01 X3.4814 Y15.0651
G01 X3.4858 Y15.0937
G01 X3.4872 Y15.1074
G01 X3.4884 Y15.1363
G01 X3.4872 Y15.1652
G01 X3.4858 Y15.1789
G01 X3.4814 Y15.2075
G01 X3.4727 Y15.2423
G01 X3.4631 Y15.2696
G01 X3.4578 Y15.2823
G01 X3.4453 Y15.3084
G01 X3.4306 Y15.3333
G01 X3.4229 Y15.3447
G01 X3.4055 Y15.3679
G01 X3.3862 Y15.3895
G01 X3.3765 Y15.3992
G01 X3.3549 Y15.4185
G01 X3.3290 Y15.4379
G01 X3.3203 Y15.4435
G01 X3.3014 Y15.4549
G01 X3.2893 Y15.4614
G01 X3.2693 Y15.4708
G01 X3.2598 Y15.4749
G01 X3.2358 Y15.4835
G01 X3.2260 Y15.4866
G01 X3.1945 Y15.4944
G01 X3.1659 Y15.4988
G01 X3.1557 Y15.4999
G01 X3.1233 Y15.5014
G01 X2.7217 Y15.5014
G01 X2.7217 Y15.8664
G01 X3.4519 Y15.8664
G01 X3.4877 Y15.8682
G01 X3.5231 Y15.8734
G01 X3.5512 Y15.8803
G01 X3.5644 Y15.8843
G01 X3.5916 Y15.8942
G01 X3.6240 Y15.9095
G01 X3.6489 Y15.9243
G01 X3.6603 Y15.9319
G01 X3.6781 Y15.9451
G01 X3.6861 Y15.9515
G01 X3.7100 Y15.9734
G01 X3.7296 Y15.9947
G01 X3.7383 Y16.0053
G01 X3.7555 Y16.0287
G01 X3.7705 Y16.0534
G01 X3.7770 Y16.0655
G01 X3.7892 Y16.0918
G01 X3.7991 Y16.1190
G01 X3.8031 Y16.1322
G01 X3.8100 Y16.1603
G01 X3.8144 Y16.1889
G01 X3.8157 Y16.2026
G01 X3.8170 Y16.2315
G01 X3.8157 Y16.2605
G01 X3.8144 Y16.2741
G01 X3.8100 Y16.3028
G01 X3.8013 Y16.3375
G01 X3.7917 Y16.3648
G01 X3.7864 Y16.3775
G01 X3.7739 Y16.4036
G01 X3.7591 Y16.4286
G01 X3.7515 Y16.4400
G01 X3.7341 Y16.4631
G01 X3.7148 Y16.4847
G01 X3.7051 Y16.4944
G01 X3.6835 Y16.5138
G01 X3.6603 Y16.5311
G01 X3.6489 Y16.5388
G01 X3.6240 Y16.5535
G01 X3.5979 Y16.5661
G01 X3.5852 Y16.5713
G01 X3.5579 Y16.5809
G01 X3.5231 Y16.5896
G01 X3.4945 Y16.5940
G01 X3.4808 Y16.5954
G01 X3.4519 Y16.5966
G01 X2.3566 Y16.5966
G01 X2.3208 Y16.5949
G01 X2.2922 Y16.5908
G01 X2.2787 Y16.5881
G01 X2.2506 Y16.5809
G01 X2.2233 Y16.5713
G01 X2.2106 Y16.5661
G01 X2.1845 Y16.5535
G01 X2.1567 Y16.5370
G01 X2.1482 Y16.5311
G01 X2.1304 Y16.5180
G01 X2.1198 Y16.5093
G01 X2.0985 Y16.4897
G01 X2.0789 Y16.4684
G01 X2.0702 Y16.4577
G01 X2.0531 Y16.4344
G01 X2.0346 Y16.4036
G01 X2.0221 Y16.3775
G01 X2.0168 Y16.3648
G01 X2.0072 Y16.3375
G01 X1.9985 Y16.3028
G01 X1.9941 Y16.2741
G01 X1.9928 Y16.2605
G01 X1.9915 Y16.2315
G01 X1.9915 Y13.9315
G01 X1.9933 Y13.8957
G01 X1.9974 Y13.8671
G01 X2.0000 Y13.8536
G01 X2.0072 Y13.8255
G01 X2.0193 Y13.7918
G01 X2.0315 Y13.7655
G01 X2.0380 Y13.7534
G01 X2.0512 Y13.7316
G01 X2.0570 Y13.7231
G01 X2.0744 Y13.6999
G01 X2.0985 Y13.6734
G01 X2.1250 Y13.6493
G01 X2.1538 Y13.6279
G01 X2.1845 Y13.6095
G01 X2.2106 Y13.5970
G01 X2.2233 Y13.5917
G01 X2.2474 Y13.5832
G01 X2.2573 Y13.5803
G01 X2.2854 Y13.5734
G01 X2.3208 Y13.5682
G01 X2.3566 Y13.5664
G01 X2.3924 Y13.5682
G01 X2.4279 Y13.5734
G01 X2.4560 Y13.5803
G01 X2.4659 Y13.5832
G01 X2.4899 Y13.5917
G01 X2.5026 Y13.5970
G01 X2.5287 Y13.6095
G01 X2.5595 Y13.6279
G01 X2.5883 Y13.6493
G01 X2.6148 Y13.6734
G01 X2.6389 Y13.6999
G01 X2.6602 Y13.7287
G01 X2.6786 Y13.7594
G01 X2.6912 Y13.7855
G01 X2.6952 Y13.7950
G01 X2.7039 Y13.8190
G01 X2.7079 Y13.8322
G01 X2.7132 Y13.8536
G01 X2.7154 Y13.8637
G01 X2.7191 Y13.8889
G01 X2.7203 Y13.8992
G00 Z3.0000
G00 X5.4245 Y14.2066
G01 F60.00
G01 Z0.0000
G01 F120.00
G01 X4.6032 Y14.2066
G01 X4.6032 Y14.8612
G01 X5.0960 Y14.8612
G01 X5.1217 Y14.8625
G01 X5.1484 Y14.8665
G01 X5.1746 Y14.8730
G01 X5.1977 Y14.8812
G01 X5.2266 Y14.8949
G01 X5.2476 Y14.9075
G01 X5.2693 Y14.9236
G01 X5.2893 Y14.9418
G01 X5.3058 Y14.9599
G01 X5.3235 Y14.9834
G01 X5.3374 Y15.0066
G01 X5.3479 Y15.0288
G01 X5.3580 Y15.0564
G01 X5.3646 Y15.0826
G01 X5.3682 Y15.1069
G01 X5.3698 Y15.1363
G01 X5.3682 Y15.1657
G01 X5.3646 Y15.1900
G01 X5.3580 Y15.2161
G01 X5.3479 Y15.2438
G01 X5.3374 Y15.2660
G01 X5.3235 Y15.2891
G01 X5.3058 Y15.3127
G01 X5.2893 Y15.3308
G01 X5.2693 Y15.3490
G01 X5.2476 Y15.3650
G01 X5.2266 Y15.3777
G01 X5.1977 Y15.3913
G01 X5.1746 Y15.3996
G01 X5.1484 Y15.4061
G01 X5.1217 Y15.4101
G01 X5.0960 Y15.4114
G01 X4.6032 Y15.4114
G01 X4.6032 Y15.9564
G01 X5.4245 Y15.9564
G01 X5.4503 Y15.9577
G01 X5.4770 Y15.9617
G01 X5.5032 Y15.9683
G01 X5.5274 Y15.9769
G01 X5.5530 Y15.9889
G01 X5.5761 Y16.0028
G01 X5.5978 Y16.0189
G01 X5.6178 Y16.0370
G01 X5.6360 Y16.0570
G01 X5.6520 Y16.0787
G01 X5.6659 Y16.1018
G01 X5.6784 Y16.1285
G01 X5.6866 Y16.1517
G01 X5.6935 Y16.1803
G01 X5.6971 Y16.2046
G01 X5.6984 Y16.2291
G01 X5.6973 Y16.2560
G01 X5.6931 Y16.2852
G01 X5.6866 Y16.3114
G01 X5.6775 Y16.3368
G01 X5.6659 Y16.3612
G01 X5.6506 Y16.3864
G01 X5.6360 Y16.4061
G01 X5.6195 Y16.4243
G01 X5.5978 Y16.4442
G01 X5.5761 Y16.4603
G01 X5.5508 Y16.4753
G01 X5.5286 Y16.4857
G01 X5.5055 Y16.4940
G01 X5.4770 Y16.5014
G01 X5.4490 Y16.5054
G01 X5.4233 Y16.5066
G01 X4.3268 Y16.5066
G01 X4.2987 Y16.5050
G01 X4.2744 Y16.5014
G01 X4.2506 Y16.4954
G01 X4.2228 Y16.4857
G01 X4.1984 Y16.4742
G01 X4.1732 Y16.4589
G01 X4.1535 Y16.4442
G01 X4.1353 Y16.4278
G01 X4.1154 Y16.4061
G01 X4.0980 Y16.3823
G01 X4.0854 Y16.3612
G01 X4.0749 Y16.3390
G01 X4.0648 Y16.3114
G01 X4.0578 Y16.2828
G01 X4.0543 Y16.2585
G01 X4.0530 Y16.2340
G01 X4.0530 Y13.9303
G01 X4.0546 Y13.9021
G01 X4.0582 Y13.8779
G01 X4.0641 Y13.8540
G01 X4.0739 Y13.8262
G01 X4.0854 Y13.8018
G01 X4.0993 Y13.7787
G01 X4.1170 Y13.7551
G01 X4.1335 Y13.7370
G01 X4.1517 Y13.7205
G01 X4.1752 Y13.7028
G01 X4.1984 Y13.6889
G01 X4.2251 Y13.6765
G01 X4.2482 Y13.6683
G01 X4.2720 Y13.6622
G01 X4.3011 Y13.6577
G01 X4.3281 Y13.6564
G01 X5.4233 Y13.6564
G01 X5.4527 Y13.6580
G01 X5.4770 Y13.6617
G01 X5.5032 Y13.6683
G01 X5.5286 Y13.6774
G01 X5.5508 Y13.6878
G01 X5.5782 Y13.7042
G01 X5.5978 Y13.7189
G01 X5.6178 Y13.7370
G01 X5.6360 Y13.7570
G01 X5.6520 Y13.7787
G01 X5.6659 Y13.8018
G01 X5.6775 Y13.8262
G01 X5.6866 Y13.8517
G01 X5.6926 Y13.8755
G01 X5.6971 Y13.9046
G01 X5.6984 Y13.9291
G01 X5.6968 Y13.9609
G01 X5.6931 Y13.9852
G01 X5.6866 Y14.0114
G01 X5.6775 Y14.0368
G01 X5.6659 Y14.0612
G01 X5.6520 Y14.0844
G01 X5.6360 Y14.1061
G01 X5.6178 Y14.1261
G01 X5.5997 Y14.1426
G01 X5.5761 Y14.1603
G01 X5.5551 Y14.1729
G01 X5.5263 Y14.1866
G01 X5.5032 Y14.1948
G01 X5.4770 Y14.2014
G01 X5.4503 Y14.2053
G01 X5.4245 Y14.2066
G00 Z3.0000
G00 X5.4591 Y14.2949
G01 F60.00
G01 Z0.0000
G01 F120.00
G01 X5.4233 Y14.2966
G01 X4.6932 Y14.2966
G01 X4.6932 Y14.7712
G01 X5.0947 Y14.7712
G01 X5.1271 Y14.7726
G01 X5.1373 Y14.7738
G01 X5.1660 Y14.7782
G01 X5.1974 Y14.7859
G01 X5.2072 Y14.7891
G01 X5.2313 Y14.7977
G01 X5.2407 Y14.8018
G01 X5.2607 Y14.8112
G01 X5.2728 Y14.8177
G01 X5.2918 Y14.8290
G01 X5.3004 Y14.8346
G01 X5.3264 Y14.8541
G01 X5.3479 Y14.8734
G01 X5.3576 Y14.8831
G01 X5.3770 Y14.9047
G01 X5.3944 Y14.9278
G01 X5.4020 Y14.9392
G01 X5.4167 Y14.9642
G01 X5.4293 Y14.9903
G01 X5.4345 Y15.0030
G01 X5.4441 Y15.0303
G01 X5.4528 Y15.0651
G01 X5.4572 Y15.0937
G01 X5.4586 Y15.1074
G01 X5.4598 Y15.1363
G01 X5.4586 Y15.1652
G01 X5.4572 Y15.1789
G01 X5.4528 Y15.2075
G01 X5.4441 Y15.2423
G01 X5.4345 Y15.2696
G01 X5.4293 Y15.2823
G01 X5.4167 Y15.3084
G01 X5.4020 Y15.3333
G01 X5.3944 Y15.3447
G01 X5.3770 Y15.3679
G01 X5.3576 Y15.3895
G01 X5.3479 Y15.3992
G01 X5.3264 Y15.4185
G01 X5.3004 Y15.4379
G01 X5.2918 Y15.4435
G01 X5.2728 Y15.4549
G01 X5.2607 Y15.4614
G01 X5.2407 Y15.4708
G01 X5.2313 Y15.4749
G01 X5.2072 Y15.4835
G01 X5.1974 Y15.4866
G01 X5.1660 Y15.4944
G01 X5.1373 Y15.4988
G01 X5.1271 Y15.4999
G01 X5.0947 Y15.5014
G01 X4.6932 Y15.5014
G01 X4.6932 Y15.8664
G01 X5.4302 Y15.8666
G01 X5.4557 Y15.8679
G01 X5.4659 Y15.8690
G01 X5.4945 Y15.8734
G01 X5.5227 Y15.8803
G01 X5.5326 Y15.8832
G01 X5.5598 Y15.8929
G01 X5.5693 Y15.8970
G01 X5.5924 Y15.9079
G01 X5.6014 Y15.9129
G01 X5.6261 Y15.9279
G01 X5.6549 Y15.9493
G01 X5.6815 Y15.9734
G01 X5.7055 Y15.9999
G01 X5.7269 Y16.0287
G01 X5.7453 Y16.0594
G01 X5.7606 Y16.0918
G01 X5.7727 Y16.1255
G01 X5.7814 Y16.1603
G01 X5.7867 Y16.1957
G01 X5.7884 Y16.2315
G01 X5.7867 Y16.2673
G01 X5.7814 Y16.3028
G01 X5.7727 Y16.3375
G01 X5.7606 Y16.3712
G01 X5.7484 Y16.3975
G01 X5.7436 Y16.4066
G01 X5.7288 Y16.4315
G01 X5.7229 Y16.4400
G01 X5.7055 Y16.4631
G01 X5.6862 Y16.4847
G01 X5.6765 Y16.4944
G01 X5.6549 Y16.5138
G01 X5.6261 Y16.5351
G01 X5.5954 Y16.5535
G01 X5.5693 Y16.5661
G01 X5.5566 Y16.5713
G01 X5.5293 Y16.5809
G01 X5.5012 Y16.5881
G01 X5.4878 Y16.5908
G01 X5.4591 Y16.5949
G01 X5.4233 Y16.5966
G01 X4.3246 Y16.5966
G01 X4.2957 Y16.5952
G01 X4.2855 Y16.5940
G01 X4.2568 Y16.5896
G01 X4.2287 Y16.5827
G01 X4.2155 Y16.5788
G01 X4.1883 Y16.5688
G01 X4.1621 Y16.5566
G01 X4.1529 Y16.5519
G01 X4.1281 Y16.5370
G01 X4.1196 Y16.5311
G01 X4.0964 Y16.5138
G01 X4.0749 Y16.4944
G01 X4.0651 Y16.4847
G01 X4.0458 Y16.4631
G01 X4.0284 Y16.4400
G01 X4.0226 Y16.4315
G01 X4.0061 Y16.4036
G01 X3.9935 Y16.3775
G01 X3.9895 Y16.3681
G01 X3.9797 Y16.3408
G01 X3.9768 Y16.3309
G01 X3.9700 Y16.3028
G01 X3.9655 Y16.2741
G01 X3.9642 Y16.2605
G01 X3.9629 Y16.2315
G01 X3.9630 Y13.9281
G01 X3.9644 Y13.8992
G01 X3.9655 Y13.8889
G01 X3.9700 Y13.8603
G01 X3.9768 Y13.8322
G01 X3.9808 Y13.8190
G01 X3.9907 Y13.7918
G01 X4.0030 Y13.7655
G01 X4.0077 Y13.7564
G01 X4.0226 Y13.7316
G01 X4.0284 Y13.7231
G01 X4.0458 Y13.6999
G01 X4.0651 Y13.6783
G01 X4.0749 Y13.6686
G01 X4.0964 Y13.6493
G01 X4.1252 Y13.6279
G01 X4.1559 Y13.6095
G01 X4.1821 Y13.5970
G01 X4.1947 Y13.5917
G01 X4.2221 Y13.5821
G01 X4.2501 Y13.5749
G01 X4.2636 Y13.5723
G01 X4.2923 Y13.5682
G01 X4.3281 Y13.5664
G01 X5.4267 Y13.5665
G01 X5.4591 Y13.5682
G01 X5.4945 Y13.5734
G01 X5.5293 Y13.5821
G01 X5.5566 Y13.5917
G01 X5.5662 Y13.5956
G01 X5.5893 Y13.6064
G01 X5.6014 Y13.6129
G01 X5.6261 Y13.6279
G01 X5.6549 Y13.6493
G01 X5.6815 Y13.6734
G01 X5.7010 Y13.6947
G01 X5.7077 Y13.7026
G01 X5.7229 Y13.7231
G01 X5.7306 Y13.7345
G01 X5.7453 Y13.7594
G01 X5.7606 Y13.7918
G01 X5.7727 Y13.8255
G01 X5.7807 Y13.8569
G01 X5.7826 Y13.8671
G01 X5.7863 Y13.8923
G01 X5.7872 Y13.9026
G01 X5.7882 Y13.9247
G01 X5.7882 Y13.9384
G01 X5.7869 Y13.9639
G01 X5.7858 Y13.9741
G01 X5.7814 Y14.0028
G01 X5.7727 Y14.0375
G01 X5.7606 Y14.0712
G01 X5.7484 Y14.0975
G01 X5.7419 Y14.1096
G01 X5.7288 Y14.1315
G01 X5.7229 Y14.1400
G01 X5.7055 Y14.1631
G01 X5.6815 Y14.1897
G01 X5.6549 Y14.2138
G01 X5.6318 Y14.2311
G01 X5.6233 Y14.2370
G01 X5.6014 Y14.2501
G01 X5.5893 Y14.2566
G01 X5.5630 Y14.2688
G01 X5.5293 Y14.2809
G01 X5.4945 Y14.2896
G01 X5.4591 Y14.2949
G00 Z3.0000
G00 X6.1851 Y13.7909
G01 F60.00
G01 Z0.0000
G01 F120.00
G01 X6.2125 Y13.7801
G01 X6.5411 Y13.6705
G01 X6.5695 Y13.6627
G01 X6.5973 Y13.6582
G01 X6.6281 Y13.6564
G01 X7.1757 Y13.6564
G01 X7.2035 Y13.6579
G01 X7.2264 Y13.6611
G01 X7.2512 Y13.6670
G01 X7.2754 Y13.6751
G01 X7.2966 Y13.6845
G01 X7.5178 Y13.7950
G01 X7.5434 Y13.8096
G01 X7.5673 Y13.8268
G01 X7.5883 Y13.8456
G01 X7.6988 Y13.9560
G01 X7.7185 Y13.9780
G01 X7.7364 Y14.0030
G01 X7.7503 Y14.0275
G01 X7.8598 Y14.2466
G01 X7.8702 Y14.2699
G01 X7.8786 Y14.2952
G01 X7.8845 Y14.3212
G01 X7.8877 Y14.3441
G01 X7.8888 Y14.3673
G01 X7.8889 Y14.5887
G01 X7.8877 Y14.6141
G01 X7.8842 Y14.6394
G01 X7.8783 Y14.6642
G01 X7.8697 Y14.6895
G01 X7.8598 Y14.7117
G01 X7.7503 Y14.9307
G01 X7.7350 Y14.9575
G01 X7.7185 Y14.9803
G01 X7.6997 Y15.0013
G01 X7.5893 Y15.1118
G01 X7.5694 Y15.1297
G01 X7.5652 Y15.1331
G01 X7.5434 Y15.1487
G01 X7.5190 Y15.1627
G01 X7.2987 Y15.2728
G01 X7.2711 Y15.2848
G01 X7.2424 Y15.2937
G01 X6.8336 Y15.3959
G01 X6.6815 Y15.4719
G01 X6.6351 Y15.5183
G01 X6.5746 Y15.6393
G01 X6.5746 Y15.7285
G01 X6.6351 Y15.8495
G01 X6.6815 Y15.8959
G01 X6.8025 Y15.9564
G01 X7.2406 Y15.9564
G01 X7.5279 Y15.8606
G01 X7.5528 Y15.8537
G01 X7.5818 Y15.8488
G01 X7.6063 Y15.8470
G01 X7.6308 Y15.8475
G01 X7.6601 Y15.8508
G01 X7.6864 Y15.8567
G01 X7.7098 Y15.8642
G01 X7.7379 Y15.8765
G01 X7.7603 Y15.8892
G01 X7.7805 Y15.9032
G01 X7.8029 Y15.9222
G01 X7.8232 Y15.9436
G01 X7.8383 Y15.9630
G01 X7.8515 Y15.9837
G01 X7.8650 Y16.0098
G01 X7.8755 Y16.0373
G01 X7.8820 Y16.0610
G01 X7.8864 Y16.0852
G01 X7.8888 Y16.1145
G01 X7.8880 Y16.1439
G01 X7.8850 Y16.1683
G01 X7.8797 Y16.1923
G01 X7.8707 Y16.2203
G01 X7.8587 Y16.2472
G01 X7.8466 Y16.2686
G01 X7.8326 Y16.2887
G01 X7.8135 Y16.3112
G01 X7.7921 Y16.3314
G01 X7.7728 Y16.3465
G01 X7.7511 Y16.3604
G01 X7.7259 Y16.3732
G01 X7.7019 Y16.3826
G01 X7.3722 Y16.4925
G01 X7.3438 Y16.5003
G01 X7.3160 Y16.5049
G01 X7.2852 Y16.5066
G01 X6.7376 Y16.5066
G01 X6.7110 Y16.5053
G01 X6.6869 Y16.5019
G01 X6.6620 Y16.4961
G01 X6.6379 Y16.4879
G01 X6.6166 Y16.4786
G01 X6.3955 Y16.3681
G01 X6.3699 Y16.3535
G01 X6.3459 Y16.3362
G01 X6.3250 Y16.3175
G01 X6.2145 Y16.2070
G01 X6.1948 Y16.1851
G01 X6.1768 Y16.1600
G01 X6.1629 Y16.1355
G01 X6.0534 Y15.9165
G01 X6.0431 Y15.8931
G01 X6.0346 Y15.8679
G01 X6.0287 Y15.8419
G01 X6.0256 Y15.8189
G01 X6.0244 Y15.7957
G01 X6.0244 Y15.5744
G01 X6.0256 Y15.5489
G01 X6.0291 Y15.5237
G01 X6.0350 Y15.4988
G01 X6.0435 Y15.4736
G01 X6.0534 Y15.4513
G01 X6.1629 Y15.2323
G01 X6.1761 Y15.2090
G01 X6.1790 Y15.2045
G01 X6.1948 Y15.1827
G01 X6.2135 Y15.1618
G01 X6.3240 Y15.0513
G01 X6.3439 Y15.0333
G01 X6.3481 Y15.0299
G01 X6.3699 Y15.0143
G01 X6.3943 Y15.0004
G01 X6.6146 Y14.8902
G01 X6.6421 Y14.8783
G01 X6.6709 Y14.8694
G01 X7.0797 Y14.7672
G01 X7.2318 Y14.6911
G01 X7.2781 Y14.6447
G01 X7.3387 Y14.5237
G01 X7.3387 Y14.4346
G01 X7.2781 Y14.3135
G01 X7.2318 Y14.2672
G01 X7.1107 Y14.2066
G01 X6.6727 Y14.2066
G01 X6.3853 Y14.3024
G01 X6.3581 Y14.3098
G01 X6.3339 Y14.3140
G01 X6.3094 Y14.3159
G01 X6.2775 Y14.3152
G01 X6.2532 Y14.3122
G01 X6.2268 Y14.3064
G01 X6.1989 Y14.2971
G01 X6.1765 Y14.2871
G01 X6.1529 Y14.2739
G01 X6.1289 Y14.2568
G01 X6.1103 Y14.2408
G01 X6.0933 Y14.2231
G01 X6.0750 Y14.2001
G01 X6.0593 Y14.1751
G01 X6.0483 Y14.1532
G01 X6.0393 Y14.1304
G01 X6.0312 Y14.1020
G01 X6.0263 Y14.0730
G01 X6.0245 Y14.0485
G01 X6.0251 Y14.0215
G01 X6.0288 Y13.9923
G01 X6.0341 Y13.9684
G01 X6.0417 Y13.9450
G01 X6.0534 Y13.9180
G01 X6.0680 Y13.8924
G01 X6.0822 Y13.8724
G01 X6.0981 Y13.8537
G01 X6.1192 Y13.8332
G01 X6.1425 Y13.8152
G01 X6.1632 Y13.8020
G01 X6.1851 Y13.7909
G00 Z3.0000
G00 X6.1444 Y13.7106
G01 F60.00
G01 Z0.0000
G01 F120.00
G01 X6.1570 Y13.7050
G01 X6.1840 Y13.6947
G01 X6.5126 Y13.5851
G01 X6.5503 Y13.5748
G01 X6.5853 Y13.5690
G01 X6.5965 Y13.5679
G01 X6.6281 Y13.5664
G01 X7.1757 Y13.5664
G01 X7.2095 Y13.5680
G01 X7.2366 Y13.5716
G01 X7.2494 Y13.5740
G01 X7.2791 Y13.5814
G01 X7.3080 Y13.5912
G01 X7.3360 Y13.6035
G01 X7.5580 Y13.7145
G01 X7.5856 Y13.7300
G01 X7.5952 Y13.7359
G01 X7.6238 Y13.7567
G01 X7.6502 Y13.7803
G01 X7.7624 Y13.8924
G01 X7.7886 Y13.9215
G01 X7.8072 Y13.9471
G01 X7.8134 Y13.9565
G01 X7.8308 Y13.9873
G01 X7.9418 Y14.2093
G01 X7.9541 Y14.2373
G01 X7.9629 Y14.2632
G01 X7.9657 Y14.2725
G01 X7.9720 Y14.2991
G01 X7.9737 Y14.3087
G01 X7.9773 Y14.3358
G01 X7.9787 Y14.3631
G01 X7.9789 Y14.5887
G01 X7.9773 Y14.6225
G01 X7.9726 Y14.6560
G01 X7.9649 Y14.6889
G01 X7.9563 Y14.7149
G01 X7.9528 Y14.7240
G01 X7.9403 Y14.7520
G01 X7.8308 Y14.9710
G01 X7.8153 Y14.9986
G01 X7.8094 Y15.0081
G01 X7.7886 Y15.0368
G01 X7.7650 Y15.0632
G01 X7.6529 Y15.1754
G01 X7.6238 Y15.2016
G01 X7.5982 Y15.2202
G01 X7.5856 Y15.2283
G01 X7.5580 Y15.2438
G01 X7.3390 Y15.3533
G01 X7.3095 Y15.3663
G01 X7.2987 Y15.3705
G01 X7.2642 Y15.3810
G01 X6.8650 Y15.4808
G01 X6.7348 Y15.5459
G01 X6.7091 Y15.5716
G01 X6.6646 Y15.6606
G01 X6.6646 Y15.7072
G01 X6.7091 Y15.7962
G01 X6.7348 Y15.8219
G01 X6.8238 Y15.8664
G01 X7.2260 Y15.8664
G01 X7.5049 Y15.7736
G01 X7.5328 Y15.7660
G01 X7.5613 Y15.7608
G01 X7.5715 Y15.7594
G01 X7.6004 Y15.7572
G01 X7.6107 Y15.7570
G01 X7.6328 Y15.7575
G01 X7.6465 Y15.7585
G01 X7.6752 Y15.7621
G01 X7.7102 Y15.7699
G01 X7.7443 Y15.7810
G01 X7.7708 Y15.7925
G01 X7.7831 Y15.7987
G01 X7.8054 Y15.8112
G01 X7.8140 Y15.8168
G01 X7.8376 Y15.8336
G01 X7.8597 Y15.8523
G01 X7.8697 Y15.8617
G01 X7.8896 Y15.8828
G01 X7.9076 Y15.9055
G01 X7.9156 Y15.9167
G01 X7.9310 Y15.9412
G01 X7.9442 Y15.9669
G01 X7.9498 Y15.9795
G01 X7.9602 Y16.0065
G01 X7.9681 Y16.0344
G01 X7.9705 Y16.0444
G01 X7.9755 Y16.0729
G01 X7.9767 Y16.0832
G01 X7.9788 Y16.1121
G01 X7.9783 Y16.1410
G01 X7.9773 Y16.1547
G01 X7.9737 Y16.1835
G01 X7.9676 Y16.2118
G01 X7.9650 Y16.2217
G01 X7.9560 Y16.2493
G01 X7.9522 Y16.2588
G01 X7.9403 Y16.2853
G01 X7.9246 Y16.3136
G01 X7.9190 Y16.3222
G01 X7.9022 Y16.3459
G01 X7.8835 Y16.3679
G01 X7.8740 Y16.3779
G01 X7.8530 Y16.3978
G01 X7.8303 Y16.4158
G01 X7.8220 Y16.4219
G01 X7.7976 Y16.4375
G01 X7.7885 Y16.4425
G01 X7.7626 Y16.4554
G01 X7.7292 Y16.4684
G01 X7.3971 Y16.5790
G01 X7.3629 Y16.5883
G01 X7.3280 Y16.5941
G01 X7.3168 Y16.5951
G01 X7.2852 Y16.5966
G01 X6.7376 Y16.5966
G01 X6.7103 Y16.5955
G01 X6.6973 Y16.5943
G01 X6.6703 Y16.5904
G01 X6.6405 Y16.5835
G01 X6.6113 Y16.5740
G01 X6.5992 Y16.5693
G01 X6.5743 Y16.5581
G01 X6.3553 Y16.4486
G01 X6.3212 Y16.4292
G01 X6.2895 Y16.4063
G01 X6.2631 Y16.3828
G01 X6.1508 Y16.2707
G01 X6.1247 Y16.2415
G01 X6.1060 Y16.2160
G01 X6.0998 Y16.2066
G01 X6.0824 Y16.1758
G01 X5.9715 Y15.9538
G01 X5.9592 Y15.9258
G01 X5.9503 Y15.8999
G01 X5.9476 Y15.8906
G01 X5.9413 Y15.8639
G01 X5.9396 Y15.8543
G01 X5.9359 Y15.8272
G01 X5.9345 Y15.7999
G01 X5.9344 Y15.5744
G01 X5.9359 Y15.5406
G01 X5.9406 Y15.5071
G01 X5.9484 Y15.4741
G01 X5.9570 Y15.4481
G01 X5.9604 Y15.4390
G01 X5.9729 Y15.4111
G01 X6.0824 Y15.1921
G01 X6.0979 Y15.1645
G01 X6.1039 Y15.1549
G01 X6.1247 Y15.1263
G01 X6.1482 Y15.0998
G01 X6.2604 Y14.9876
G01 X6.2895 Y14.9615
G01 X6.3150 Y14.9428
G01 X6.3277 Y14.9347
G01 X6.3553 Y14.9192
G01 X6.5743 Y14.8097
G01 X6.6038 Y14.7967
G01 X6.6145 Y14.7926
G01 X6.6490 Y14.7821
G01 X7.0482 Y14.6823
G01 X7.1785 Y14.6172
G01 X7.2042 Y14.5914
G01 X7.2487 Y14.5025
G01 X7.2487 Y14.4558
G01 X7.2042 Y14.3668
G01 X7.1785 Y14.3411
G01 X7.0895 Y14.2966
G01 X6.6873 Y14.2966
G01 X6.4084 Y14.3894
G01 X6.3804 Y14.3971
G01 X6.3520 Y14.4023
G01 X6.3383 Y14.4040
G01 X6.3094 Y14.4060
G01 X6.2736 Y14.4052
G01 X6.2448 Y14.4019
G01 X6.2313 Y14.3996
G01 X6.2064 Y14.3941
G01 X6.1965 Y14.3912
G01 X6.1690 Y14.3820
G01 X6.1362 Y14.3676
G01 X6.1050 Y14.3500
G01 X6.0812 Y14.3336
G01 X6.0703 Y14.3251
G01 X6.0484 Y14.3062
G01 X6.0283 Y14.2853
G01 X6.0193 Y14.2750
G01 X6.0015 Y14.2521
G01 X5.9858 Y14.2277
G01 X5.9790 Y14.2158
G01 X5.9661 Y14.1899
G01 X5.9554 Y14.1630
G01 X5.9511 Y14.1499
G01 X5.9435 Y14.1220
G01 X5.9383 Y14.0935
G01 X5.9366 Y14.0799
G01 X5.9345 Y14.0510
G01 X5.9350 Y14.0220
G01 X5.9356 Y14.0117
G01 X5.9390 Y13.9830
G01 X5.9409 Y13.9729
G01 X5.9473 Y13.9446
G01 X5.9573 Y13.9138
G01 X5.9611 Y13.9042
G01 X5.9729 Y13.8778
G01 X5.9870 Y13.8524
G01 X5.9943 Y13.8408
G01 X6.0111 Y13.8172
G01 X6.0298 Y13.7951
G01 X6.0392 Y13.7851
G01 X6.0603 Y13.7652
G01 X6.0829 Y13.7472
G01 X6.0942 Y13.7393
G01 X6.1187 Y13.7239
G01 X6.1444 Y13.7106
G00 Z3.0000
G00 X10.6254 Y13.9021
G01 F60.00
G01 Z0.0000
G01 F120.00
G01 X10.6270 Y13.9315
G01 X10.6270 Y16.2315
G01 X10.6255 Y16.2597
G01 X10.6217 Y16.2852
G01 X10.6151 Y16.3114
G01 X10.6060 Y16.3368
G01 X10.5945 Y16.3612
G01 X10.5806 Y16.3844
G01 X10.5645 Y16.4061
G01 X10.5464 Y16.4261
G01 X10.5264 Y16.4442
G01 X10.5047 Y16.4603
G01 X10.4816 Y16.4742
G01 X10.4572 Y16.4857
G01 X10.4317 Y16.4948
G01 X10.4055 Y16.5014
G01 X10.3788 Y16.5053
G01 X10.3519 Y16.5066
G01 X10.3237 Y16.5052
G01 X10.2982 Y16.5014
G01 X10.2720 Y16.4948
G01 X10.2466 Y16.4857
G01 X10.2244 Y16.4753
G01 X10.1970 Y16.4589
G01 X10.1773 Y16.4442
G01 X10.1573 Y16.4261
G01 X10.1392 Y16.4061
G01 X10.1245 Y16.3864
G01 X10.1081 Y16.3590
G01 X10.0977 Y16.3368
G01 X10.0886 Y16.3114
G01 X10.0820 Y16.2852
G01 X10.0781 Y16.2585
G01 X10.0768 Y16.2315
G01 X10.0768 Y13.9315
G01 X10.0782 Y13.9033
G01 X10.0820 Y13.8779
G01 X10.0886 Y13.8517
G01 X10.0977 Y13.8262
G01 X10.1092 Y13.8018
G01 X10.1231 Y13.7787
G01 X10.1392 Y13.7570
G01 X10.1573 Y13.7370
G01 X10.1755 Y13.7205
G01 X10.1990 Y13.7028
G01 X10.2200 Y13.6901
G01 X10.2489 Y13.6765
G01 X10.2720 Y13.6683
G01 X10.2982 Y13.6617
G01 X10.3249 Y13.6577
G01 X10.3519 Y13.6564
G01 X10.3788 Y13.6577
G01 X10.4055 Y13.6617
G01 X10.4317 Y13.6683
G01 X10.4549 Y13.6765
G01 X10.4837 Y13.6901
G01 X10.5047 Y13.7028
G01 X10.5283 Y13.7205
G01 X10.5464 Y13.7370
G01 X10.5645 Y13.7570
G01 X10.5806 Y13.7787
G01 X10.5945 Y13.8018
G01 X10.6060 Y13.8262
G01 X10.6151 Y13.8517
G01 X10.6217 Y13.8779
G01 X10.6254 Y13.9021
G00 Z3.0000
G00 X10.7155 Y13.8992
G01 F60.00
G01 Z0.0000
G01 F120.00
G01 X10.7170 Y13.9315
G01 X10.7170 Y16.2315
G01 X10.7152 Y16.2673
G01 X10.7111 Y16.2960
G01 X10.7093 Y16.3061
G01 X10.7022 Y16.3342
G01 X10.6991 Y16.3440
G01 X10.6905 Y16.3681
G01 X10.6864 Y16.3775
G01 X10.6739 Y16.4036
G01 X10.6573 Y16.4315
G01 X10.6515 Y16.4400
G01 X10.6341 Y16.4631
G01 X10.6100 Y16.4897
G01 X10.5835 Y16.5138
G01 X10.5575 Y16.5332
G01 X10.5489 Y16.5388
G01 X10.5240 Y16.5535
G01 X10.4916 Y16.5688
G01 X10.4579 Y16.5809
G01 X10.4265 Y16.5889
G01 X10.4163 Y16.5908
G01 X10.3877 Y16.5949
G01 X10.3553 Y16.5966
G01 X10.3450 Y16.5965
G01 X10.3195 Y16.5952
G01 X10.3093 Y16.5940
G01 X10.2874 Y16.5908
G01 X10.2739 Y16.5881
G01 X10.2492 Y16.5819
G01 X10.2394 Y16.5788
G01 X10.2121 Y16.5688
G01 X10.1798 Y16.5535
G01 X10.1490 Y16.5351
G01 X10.1257 Y16.5180
G01 X10.1176 Y16.5115
G01 X10.0987 Y16.4944
G01 X10.0890 Y16.4847
G01 X10.0696 Y16.4631
G01 X10.0483 Y16.4344
G01 X10.0299 Y16.4036
G01 X10.0173 Y16.3775
G01 X10.0133 Y16.3681
G01 X10.0046 Y16.3440
G01 X10.0006 Y16.3309
G01 X9.9938 Y16.3028
G01 X9.9885 Y16.2673
G01 X9.9868 Y16.2315
G01 X9.9868 Y13.9315
G01 X9.9885 Y13.8957
G01 X9.9926 Y13.8671
G01 X9.9953 Y13.8536
G01 X10.0015 Y13.8288
G01 X10.0046 Y13.8190
G01 X10.0121 Y13.7982
G01 X10.0159 Y13.7886
G01 X10.0283 Y13.7625
G01 X10.0333 Y13.7534
G01 X10.0483 Y13.7287
G01 X10.0696 Y13.6999
G01 X10.0937 Y13.6734
G01 X10.1202 Y13.6493
G01 X10.1490 Y13.6279
G01 X10.1798 Y13.6095
G01 X10.2121 Y13.5942
G01 X10.2394 Y13.5843
G01 X10.2492 Y13.5812
G01 X10.2739 Y13.5749
G01 X10.2874 Y13.5723
G01 X10.3093 Y13.5690
G01 X10.3195 Y13.5679
G01 X10.3484 Y13.5665
G01 X10.3587 Y13.5666
G01 X10.3877 Y13.5682
G01 X10.4231 Y13.5734
G01 X10.4579 Y13.5821
G01 X10.4916 Y13.5942
G01 X10.5240 Y13.6095
G01 X10.5547 Y13.6279
G01 X10.5835 Y13.6493
G01 X10.6076 Y13.6710
G01 X10.6148 Y13.6783
G01 X10.6319 Y13.6973
G01 X10.6383 Y13.7053
G01 X10.6515 Y13.7231
G01 X10.6591 Y13.7345
G01 X10.6722 Y13.7564
G01 X10.6770 Y13.7655
G01 X10.6864 Y13.7855
G01 X10.6905 Y13.7950
G01 X10.6991 Y13.8190
G01 X10.7022 Y13.8288
G01 X10.7100 Y13.8603
G01 X10.7144 Y13.8889
G01 X10.7155 Y13.8992
G00 Z3.0000
G00 X11.7206 Y13.9021
G01 F60.00
G01 Z0.0000
G01 F120.00
G01 X11.7222 Y13.9315
G01 X11.7222 Y15.1956
G01 X12.5225 Y13.7950
G01 X12.5369 Y13.7725
G01 X12.5550 Y13.7497
G01 X12.5718 Y13.7322
G01 X12.5902 Y13.7163
G01 X12.6139 Y13.6993
G01 X12.6393 Y13.6851
G01 X12.6615 Y13.6752
G01 X12.6845 Y13.6674
G01 X12.7128 Y13.6607
G01 X12.7417 Y13.6572
G01 X12.7660 Y13.6565
G01 X12.7902 Y13.6580
G01 X12.8166 Y13.6621
G01 X12.8448 Y13.6694
G01 X12.8721 Y13.6797
G01 X12.8939 Y13.6904
G01 X12.9146 Y13.7031
G01 X12.9379 Y13.7205
G01 X12.9576 Y13.7386
G01 X12.9768 Y13.7605
G01 X12.9911 Y13.7801
G01 X13.0035 Y13.8010
G01 X13.0155 Y13.8262
G01 X13.0249 Y13.8525
G01 X13.0313 Y13.8784
G01 X13.0352 Y13.9048
G01 X13.0365 Y13.9315
G01 X13.0365 Y16.2315
G01 X13.0354 Y16.2560
G01 X13.0312 Y16.2852
G01 X13.0239 Y16.3137
G01 X13.0156 Y16.3368
G01 X13.0051 Y16.3590
G01 X12.9887 Y16.3864
G01 X12.9741 Y16.4061
G01 X12.9576 Y16.4243
G01 X12.9359 Y16.4442
G01 X12.9122 Y16.4616
G01 X12.8911 Y16.4742
G01 X12.8678 Y16.4852
G01 X12.8413 Y16.4948
G01 X12.8151 Y16.5014
G01 X12.7884 Y16.5053
G01 X12.7589 Y16.5066
G01 X12.7344 Y16.5053
G01 X12.7053 Y16.5008
G01 X12.6815 Y16.4948
G01 X12.6584 Y16.4866
G01 X12.6339 Y16.4753
G01 X12.6086 Y16.4603
G01 X12.5869 Y16.4442
G01 X12.5669 Y16.4261
G01 X12.5487 Y16.4061
G01 X12.5326 Y16.3844
G01 X12.5188 Y16.3612
G01 X12.5072 Y16.3368
G01 X12.4975 Y16.3090
G01 X12.4916 Y16.2852
G01 X12.4879 Y16.2609
G01 X12.4863 Y16.2315
G01 X12.4863 Y14.9675
G01 X11.6860 Y16.3680
G01 X11.6716 Y16.3905
G01 X11.6535 Y16.4134
G01 X11.6367 Y16.4309
G01 X11.6183 Y16.4468
G01 X11.5946 Y16.4637
G01 X11.5692 Y16.4780
G01 X11.5470 Y16.4878
G01 X11.5240 Y16.4956
G01 X11.4957 Y16.5023
G01 X11.4668 Y16.5059
G01 X11.4425 Y16.5066
G01 X11.4183 Y16.5051
G01 X11.3919 Y16.5010
G01 X11.3637 Y16.4937
G01 X11.3364 Y16.4833
G01 X11.3146 Y16.4726
G01 X11.2939 Y16.4600
G01 X11.2706 Y16.4425
G01 X11.2510 Y16.4244
G01 X11.2317 Y16.4026
G01 X11.2174 Y16.3829
G01 X11.2050 Y16.3621
G01 X11.1930 Y16.3369
G01 X11.1836 Y16.3106
G01 X11.1772 Y16.2846
G01 X11.1733 Y16.2582
G01 X11.1720 Y16.2315
G01 X11.1720 Y13.9315
G01 X11.1733 Y13.9046
G01 X11.1775 Y13.8767
G01 X11.1838 Y13.8517
G01 X11.1929 Y13.8262
G01 X11.2045 Y13.8018
G01 X11.2170 Y13.7808
G01 X11.2360 Y13.7551
G01 X11.2526 Y13.7370
G01 X11.2726 Y13.7189
G01 X11.2943 Y13.7028
G01 X11.3174 Y13.6889
G01 X11.3418 Y13.6774
G01 X11.3649 Y13.6690
G01 X11.3959 Y13.6613
G01 X11.4201 Y13.6577
G01 X11.4496 Y13.6565
G01 X11.4741 Y13.6577
G01 X11.5008 Y13.6617
G01 X11.5270 Y13.6683
G01 X11.5524 Y13.6774
G01 X11.5768 Y13.6889
G01 X11.6000 Y13.7028
G01 X11.6216 Y13.7189
G01 X11.6399 Y13.7353
G01 X11.6598 Y13.7570
G01 X11.6744 Y13.7767
G01 X11.6908 Y13.8040
G01 X11.7013 Y13.8262
G01 X11.7104 Y13.8517
G01 X11.7169 Y13.8779
G01 X11.7206 Y13.9021
G00 Z3.0000
G00 X11.8101 Y13.8923
G01 F60.00
G01 Z0.0000
G01 F120.00
G01 X11.8110 Y13.9026
G01 X11.8122 Y13.9315
G01 X11.8122 Y14.8567
G01 X12.4461 Y13.7474
G01 X12.4634 Y13.7205
G01 X12.4853 Y13.6926
G01 X12.5098 Y13.6669
G01 X12.5340 Y13.6459
G01 X12.5421 Y13.6397
G01 X12.5656 Y13.6234
G01 X12.5904 Y13.6090
G01 X12.5995 Y13.6043
G01 X12.6256 Y13.5926
G01 X12.6352 Y13.5890
G01 X12.6624 Y13.5801
G01 X12.6903 Y13.5735
G01 X12.7036 Y13.5711
G01 X12.7321 Y13.5676
G01 X12.7675 Y13.5665
G01 X12.8029 Y13.5688
G01 X12.8312 Y13.5732
G01 X12.8445 Y13.5761
G01 X12.8689 Y13.5826
G01 X12.8786 Y13.5858
G01 X12.9053 Y13.5960
G01 X12.9312 Y13.6084
G01 X12.9431 Y13.6149
G01 X12.9674 Y13.6301
G01 X12.9957 Y13.6515
G01 X13.0168 Y13.6708
G01 X13.0264 Y13.6805
G01 X13.0453 Y13.7020
G01 X13.0624 Y13.7250
G01 X13.0698 Y13.7364
G01 X13.0843 Y13.7611
G01 X13.0993 Y13.7932
G01 X13.1111 Y13.8266
G01 X13.1196 Y13.8610
G01 X13.1248 Y13.8961
G01 X13.1265 Y13.9315
G01 X13.1265 Y16.2315
G01 X13.1250 Y16.2639
G01 X13.1239 Y16.2741
G01 X13.1207 Y16.2960
G01 X13.1188 Y16.3061
G01 X13.1108 Y16.3375
G01 X13.1012 Y16.3648
G01 X13.0959 Y16.3775
G01 X13.0834 Y16.4036
G01 X13.0687 Y16.4286
G01 X13.0610 Y16.4400
G01 X13.0436 Y16.4631
G01 X13.0243 Y16.4847
G01 X13.0146 Y16.4944
G01 X12.9930 Y16.5138
G01 X12.9642 Y16.5351
G01 X12.9395 Y16.5501
G01 X12.9274 Y16.5566
G01 X12.9011 Y16.5688
G01 X12.8674 Y16.5809
G01 X12.8326 Y16.5896
G01 X12.7972 Y16.5949
G01 X12.7614 Y16.5966
G01 X12.7256 Y16.5949
G01 X12.6902 Y16.5896
G01 X12.6554 Y16.5809
G01 X12.6217 Y16.5688
G01 X12.5893 Y16.5535
G01 X12.5585 Y16.5351
G01 X12.5298 Y16.5138
G01 X12.5032 Y16.4897
G01 X12.4792 Y16.4631
G01 X12.4578 Y16.4344
G01 X12.4394 Y16.4036
G01 X12.4269 Y16.3775
G01 X12.4228 Y16.3681
G01 X12.4120 Y16.3375
G01 X12.4033 Y16.3028
G01 X12.3980 Y16.2673
G01 X12.3963 Y16.2350
G01 X12.3963 Y15.3064
G01 X11.7624 Y16.4156
G01 X11.7451 Y16.4426
G01 X11.7232 Y16.4705
G01 X11.6987 Y16.4961
G01 X11.6745 Y16.5171
G01 X11.6664 Y16.5233
G01 X11.6429 Y16.5397
G01 X11.6181 Y16.5540
G01 X11.6090 Y16.5587
G01 X11.5829 Y16.5704
G01 X11.5733 Y16.5740
G01 X11.5461 Y16.5830
G01 X11.5182 Y16.5895
G01 X11.5049 Y16.5919
G01 X11.4764 Y16.5955
G01 X11.4410 Y16.5966
G01 X11.4056 Y16.5943
G01 X11.3773 Y16.5898
G01 X11.3640 Y16.5870
G01 X11.3396 Y16.5804
G01 X11.3300 Y16.5772
G01 X11.3032 Y16.5671
G01 X11.2773 Y16.5546
G01 X11.2654 Y16.5481
G01 X11.2411 Y16.5330
G01 X11.2128 Y16.5116
G01 X11.1868 Y16.4875
G01 X11.1676 Y16.4663
G01 X11.1590 Y16.4557
G01 X11.1423 Y16.4325
G01 X11.1275 Y16.4079
G01 X11.1212 Y16.3959
G01 X11.1092 Y16.3698
G01 X11.0974 Y16.3364
G01 X11.0889 Y16.3020
G01 X11.0837 Y16.2669
G01 X11.0820 Y16.2315
G01 X11.0820 Y13.9315
G01 X11.0832 Y13.9026
G01 X11.0846 Y13.8889
G01 X11.0890 Y13.8603
G01 X11.0968 Y13.8288
G01 X11.0999 Y13.8190
G01 X11.1085 Y13.7950
G01 X11.1126 Y13.7855
G01 X11.1220 Y13.7655
G01 X11.1268 Y13.7564
G01 X11.1399 Y13.7345
G01 X11.1475 Y13.7231
G01 X11.1649 Y13.6999
G01 X11.1889 Y13.6734
G01 X11.2155 Y13.6493
G01 X11.2443 Y13.6279
G01 X11.2750 Y13.6095
G01 X11.3011 Y13.5970
G01 X11.3138 Y13.5917
G01 X11.3378 Y13.5832
G01 X11.3477 Y13.5803
G01 X11.3759 Y13.5734
G01 X11.4113 Y13.5682
G01 X11.4471 Y13.5664
G01 X11.4829 Y13.5682
G01 X11.5183 Y13.5734
G01 X11.5531 Y13.5821
G01 X11.5868 Y13.5942
G01 X11.6131 Y13.6064
G01 X11.6252 Y13.6129
G01 X11.6471 Y13.6261
G01 X11.6556 Y13.6319
G01 X11.6787 Y13.6493
G01 X11.7053 Y13.6734
G01 X11.7293 Y13.6999
G01 X11.7467 Y13.7231
G01 X11.7544 Y13.7345
G01 X11.7675 Y13.7564
G01 X11.7722 Y13.7655
G01 X11.7844 Y13.7918
G01 X11.7965 Y13.8255
G01 X11.8052 Y13.8603
G01 X11.8101 Y13.8923
G00 Z3.0000
G00 X14.4589 Y13.9033
G01 F60.00
G01 Z0.0000
G01 F120.00
G01 X14.4603 Y13.9315
G01 X14.4603 Y15.9564
G01 X14.8423 Y15.9564
G01 X14.8681 Y15.9576
G01 X14.8960 Y15.9617
G01 X14.9222 Y15.9683
G01 X14.9476 Y15.9774
G01 X14.9742 Y15.9901
G01 X14.9952 Y16.0028
G01 X15.0169 Y16.0189
G01 X15.0369 Y16.0370
G01 X15.0550 Y16.0570
G01 X15.0711 Y16.0787
G01 X15.0850 Y16.1018
G01 X15.0965 Y16.1262
G01 X15.1048 Y16.1493
G01 X15.1126 Y16.1803
G01 X15.1161 Y16.2046
G01 X15.1174 Y16.2340
G01 X15.1161 Y16.2585
G01 X15.1122 Y16.2852
G01 X15.1056 Y16.3114
G01 X15.0965 Y16.3368
G01 X15.0838 Y16.3633
G01 X15.0711 Y16.3844
G01 X15.0550 Y16.4061
G01 X15.0351 Y16.4278
G01 X15.0169 Y16.4442
G01 X14.9972 Y16.4589
G01 X14.9720 Y16.4742
G01 X14.9453 Y16.4866
G01 X14.9222 Y16.4948
G01 X14.8984 Y16.5008
G01 X14.8693 Y16.5053
G01 X14.8423 Y16.5066
G01 X13.5268 Y16.5066
G01 X13.5011 Y16.5053
G01 X13.4744 Y16.5014
G01 X13.4482 Y16.4948
G01 X13.4228 Y16.4857
G01 X13.3984 Y16.4742
G01 X13.3732 Y16.4589
G01 X13.3535 Y16.4442
G01 X13.3353 Y16.4278
G01 X13.3154 Y16.4061
G01 X13.2980 Y16.3823
G01 X13.2854 Y16.3612
G01 X13.2749 Y16.3390
G01 X13.2648 Y16.3114
G01 X13.2582 Y16.2852
G01 X13.2543 Y16.2585
G01 X13.2530 Y16.2291
G01 X13.2543 Y16.2046
G01 X13.2578 Y16.1803
G01 X13.2648 Y16.1517
G01 X13.2739 Y16.1262
G01 X13.2866 Y16.0997
G01 X13.3007 Y16.0767
G01 X13.3154 Y16.0570
G01 X13.3318 Y16.0388
G01 X13.3555 Y16.0173
G01 X13.3752 Y16.0028
G01 X13.4006 Y15.9878
G01 X13.4228 Y15.9774
G01 X13.4482 Y15.9683
G01 X13.4744 Y15.9617
G01 X13.4987 Y15.9580
G01 X13.5281 Y15.9564
G01 X13.9101 Y15.9564
G01 X13.9101 Y13.9315
G01 X13.9114 Y13.9046
G01 X13.9154 Y13.8779
G01 X13.9219 Y13.8517
G01 X13.9310 Y13.8262
G01 X13.9426 Y13.8018
G01 X13.9551 Y13.7808
G01 X13.9741 Y13.7551
G01 X13.9907 Y13.7370
G01 X14.0107 Y13.7189
G01 X14.0324 Y13.7028
G01 X14.0534 Y13.6901
G01 X14.0822 Y13.6765
G01 X14.1053 Y13.6683
G01 X14.1315 Y13.6617
G01 X14.1582 Y13.6577
G01 X14.1828 Y13.6565
G01 X14.2146 Y13.6580
G01 X14.2389 Y13.6617
G01 X14.2651 Y13.6683
G01 X14.2905 Y13.6774
G01 X14.3127 Y13.6878
G01 X14.3401 Y13.7042
G01 X14.3597 Y13.7189
G01 X14.3797 Y13.7370
G01 X14.3979 Y13.7570
G01 X14.4125 Y13.7767
G01 X14.4289 Y13.8040
G01 X14.4394 Y13.8262
G01 X14.4485 Y13.8517
G01 X14.4550 Y13.8779
G01 X14.4589 Y13.9033
G00 Z3.0000
G00 X14.5486 Y13.8957
G01 F60.00
G01 Z0.0000
G01 F120.00
G01 X14.5503 Y13.9315
G01 X14.5503 Y15.8664
G01 X14.8458 Y15.8665
G01 X14.8781 Y15.8682
G01 X14.9068 Y15.8723
G01 X14.9203 Y15.8749
G01 X14.9483 Y15.8821
G01 X14.9757 Y15.8917
G01 X14.9884 Y15.8970
G01 X15.0145 Y15.9095
G01 X15.0394 Y15.9243
G01 X15.0508 Y15.9319
G01 X15.0740 Y15.9493
G01 X15.1005 Y15.9734
G01 X15.1201 Y15.9947
G01 X15.1267 Y16.0026
G01 X15.1420 Y16.0231
G01 X15.1496 Y16.0345
G01 X15.1643 Y16.0594
G01 X15.1797 Y16.0918
G01 X15.1917 Y16.1255
G01 X15.1989 Y16.1536
G01 X15.2016 Y16.1671
G01 X15.2053 Y16.1923
G01 X15.2062 Y16.2026
G01 X15.2075 Y16.2315
G01 X15.2057 Y16.2673
G01 X15.2004 Y16.3028
G01 X15.1936 Y16.3309
G01 X15.1896 Y16.3440
G01 X15.1821 Y16.3648
G01 X15.1783 Y16.3744
G01 X15.1643 Y16.4036
G01 X15.1496 Y16.4286
G01 X15.1420 Y16.4400
G01 X15.1246 Y16.4631
G01 X15.1053 Y16.4847
G01 X15.0955 Y16.4944
G01 X15.0740 Y16.5138
G01 X15.0508 Y16.5311
G01 X15.0394 Y16.5388
G01 X15.0145 Y16.5535
G01 X14.9884 Y16.5661
G01 X14.9757 Y16.5713
G01 X14.9483 Y16.5809
G01 X14.9203 Y16.5881
G01 X14.9068 Y16.5908
G01 X14.8781 Y16.5949
G01 X14.8423 Y16.5966
G01 X13.5246 Y16.5966
G01 X13.4923 Y16.5949
G01 X13.4568 Y16.5896
G01 X13.4221 Y16.5809
G01 X13.3947 Y16.5713
G01 X13.3852 Y16.5675
G01 X13.3621 Y16.5566
G01 X13.3529 Y16.5519
G01 X13.3281 Y16.5370
G01 X13.3196 Y16.5311
G01 X13.2964 Y16.5138
G01 X13.2749 Y16.4944
G01 X13.2675 Y16.4872
G01 X13.2503 Y16.4684
G01 X13.2416 Y16.4577
G01 X13.2245 Y16.4344
G01 X13.2061 Y16.4036
G01 X13.1907 Y16.3712
G01 X13.1787 Y16.3375
G01 X13.1700 Y16.3028
G01 X13.1647 Y16.2673
G01 X13.1629 Y16.2315
G01 X13.1642 Y16.2026
G01 X13.1655 Y16.1889
G01 X13.1693 Y16.1637
G01 X13.1715 Y16.1536
G01 X13.1787 Y16.1255
G01 X13.1883 Y16.0982
G01 X13.1921 Y16.0886
G01 X13.2045 Y16.0625
G01 X13.2094 Y16.0534
G01 X13.2226 Y16.0316
G01 X13.2284 Y16.0231
G01 X13.2458 Y15.9999
G01 X13.2675 Y15.9758
G01 X13.2749 Y15.9686
G01 X13.2938 Y15.9515
G01 X13.3019 Y15.9451
G01 X13.3196 Y15.9319
G01 X13.3281 Y15.9261
G01 X13.3500 Y15.9129
G01 X13.3621 Y15.9064
G01 X13.3821 Y15.8970
G01 X13.3915 Y15.8929
G01 X13.4155 Y15.8843
G01 X13.4254 Y15.8812
G01 X13.4535 Y15.8741
G01 X13.4636 Y15.8723
G01 X13.4923 Y15.8682
G01 X13.5212 Y15.8666
G01 X13.8201 Y15.8664
G01 X13.8201 Y13.9281
G01 X13.8218 Y13.8957
G01 X13.8271 Y13.8603
G01 X13.8358 Y13.8255
G01 X13.8454 Y13.7982
G01 X13.8492 Y13.7886
G01 X13.8632 Y13.7594
G01 X13.8816 Y13.7287
G01 X13.9030 Y13.6999
G01 X13.9223 Y13.6783
G01 X13.9320 Y13.6686
G01 X13.9509 Y13.6515
G01 X13.9590 Y13.6451
G01 X13.9824 Y13.6279
G01 X14.0131 Y13.6095
G01 X14.0455 Y13.5942
G01 X14.0727 Y13.5843
G01 X14.0825 Y13.5812
G01 X14.1073 Y13.5749
G01 X14.1207 Y13.5723
G01 X14.1494 Y13.5682
G01 X14.1852 Y13.5664
G01 X14.2210 Y13.5682
G01 X14.2497 Y13.5723
G01 X14.2631 Y13.5749
G01 X14.2879 Y13.5812
G01 X14.2977 Y13.5843
G01 X14.3249 Y13.5942
G01 X14.3573 Y13.6095
G01 X14.3880 Y13.6279
G01 X14.4114 Y13.6451
G01 X14.4195 Y13.6515
G01 X14.4384 Y13.6686
G01 X14.4481 Y13.6783
G01 X14.4674 Y13.6999
G01 X14.4888 Y13.7287
G01 X14.5072 Y13.7594
G01 X14.5197 Y13.7855
G01 X14.5238 Y13.7950
G01 X14.5324 Y13.8190
G01 X14.5364 Y13.8322
G01 X14.5433 Y13.8603
G01 X14.5486 Y13.8957
G00 Z3.0000
G00 X16.7312 Y14.2053
G01 F60.00
G01 Z0.0000
G01 F120.00
G01 X16.7043 Y14.2066
G01 X15.8841 Y14.2066
G01 X15.8841 Y14.8612
G01 X16.3769 Y14.8612
G01 X16.4026 Y14.8625
G01 X16.4294 Y14.8665
G01 X16.4555 Y14.8730
G01 X16.4787 Y14.8812
G01 X16.5075 Y14.8949
G01 X16.5285 Y14.9075
G01 X16.5502 Y14.9236
G01 X16.5719 Y14.9435
G01 X16.5883 Y14.9618
G01 X16.6044 Y14.9834
G01 X16.6183 Y15.0066
G01 X16.6289 Y15.0288
G01 X16.6389 Y15.0564
G01 X16.6455 Y15.0826
G01 X16.6492 Y15.1069
G01 X16.6508 Y15.1363
G01 X16.6492 Y15.1657
G01 X16.6455 Y15.1900
G01 X16.6389 Y15.2161
G01 X16.6289 Y15.2438
G01 X16.6183 Y15.2660
G01 X16.6044 Y15.2891
G01 X16.5883 Y15.3108
G01 X16.5719 Y15.3290
G01 X16.5502 Y15.3490
G01 X16.5285 Y15.3650
G01 X16.5075 Y15.3777
G01 X16.4787 Y15.3913
G01 X16.4555 Y15.3996
G01 X16.4294 Y15.4061
G01 X16.4026 Y15.4101
G01 X16.3769 Y15.4114
G01 X15.8841 Y15.4114
G01 X15.8841 Y15.9564
G01 X16.7055 Y15.9564
G01 X16.7312 Y15.9577
G01 X16.7579 Y15.9617
G01 X16.7841 Y15.9683
G01 X16.8084 Y15.9769
G01 X16.8339 Y15.9889
G01 X16.8571 Y16.0028
G01 X16.8788 Y16.0189
G01 X16.9005 Y16.0388
G01 X16.9169 Y16.0570
G01 X16.9316 Y16.0767
G01 X16.9457 Y16.0997
G01 X16.9584 Y16.1262
G01 X16.9667 Y16.1493
G01 X16.9741 Y16.1779
G01 X16.9780 Y16.2046
G01 X16.9794 Y16.2315
G01 X16.9780 Y16.2585
G01 X16.9741 Y16.2852
G01 X16.9675 Y16.3114
G01 X16.9584 Y16.3368
G01 X16.9463 Y16.3623
G01 X16.9316 Y16.3864
G01 X16.9169 Y16.4061
G01 X16.9005 Y16.4243
G01 X16.8788 Y16.4442
G01 X16.8571 Y16.4603
G01 X16.8317 Y16.4753
G01 X16.8095 Y16.4857
G01 X16.7864 Y16.4940
G01 X16.7579 Y16.5014
G01 X16.7300 Y16.5054
G01 X16.7043 Y16.5066
G01 X15.6078 Y16.5066
G01 X15.5796 Y16.5050
G01 X15.5553 Y16.5014
G01 X15.5315 Y16.4954
G01 X15.5037 Y16.4857
G01 X15.4783 Y16.4736
G01 X15.4542 Y16.4589
G01 X15.4345 Y16.4442
G01 X15.4163 Y16.4278
G01 X15.3963 Y16.4061
G01 X15.3790 Y16.3823
G01 X15.3664 Y16.3612
G01 X15.3558 Y16.3390
G01 X15.3457 Y16.3114
G01 X15.3388 Y16.2828
G01 X15.3352 Y16.2585
G01 X15.3340 Y16.2340
G01 X15.3339 Y13.9303
G01 X15.3355 Y13.9021
G01 X15.3392 Y13.8779
G01 X15.3451 Y13.8540
G01 X15.3548 Y13.8262
G01 X15.3670 Y13.8008
G01 X15.3817 Y13.7767
G01 X15.3963 Y13.7570
G01 X15.4128 Y13.7388
G01 X15.4345 Y13.7189
G01 X15.4562 Y13.7028
G01 X15.4793 Y13.6889
G01 X15.5060 Y13.6765
G01 X15.5292 Y13.6683
G01 X15.5529 Y13.6622
G01 X15.5820 Y13.6577
G01 X15.6090 Y13.6564
G01 X16.7043 Y13.6564
G01 X16.7337 Y13.6580
G01 X16.7579 Y13.6617
G01 X16.7841 Y13.6683
G01 X16.8095 Y13.6774
G01 X16.8317 Y13.6878
G01 X16.8591 Y13.7042
G01 X16.8788 Y13.7189
G01 X16.8988 Y13.7370
G01 X16.9169 Y13.7570
G01 X16.9330 Y13.7787
G01 X16.9469 Y13.8018
G01 X16.9584 Y13.8262
G01 X16.9675 Y13.8517
G01 X16.9735 Y13.8755
G01 X16.9782 Y13.9070
G01 X16.9794 Y13.9315
G01 X16.9780 Y13.9585
G01 X16.9741 Y13.9852
G01 X16.9675 Y14.0114
G01 X16.9584 Y14.0368
G01 X16.9480 Y14.0590
G01 X16.9316 Y14.0864
G01 X16.9169 Y14.1061
G01 X16.8988 Y14.1261
G01 X16.8788 Y14.1442
G01 X16.8591 Y14.1589
G01 X16.8317 Y14.1753
G01 X16.8095 Y14.1857
G01 X16.7841 Y14.1948
G01 X16.7579 Y14.2014
G01 X16.7312 Y14.2053
G00 Z3.0000
G00 X16.7366 Y14.2952
G01 F60.00
G01 Z0.0000
G01 F120.00
G01 X16.7043 Y14.2966
G01 X15.9741 Y14.2966
G01 X15.9741 Y14.7712
G01 X16.3757 Y14.7712
G01 X16.4080 Y14.7726
G01 X16.4183 Y14.7738
G01 X16.4469 Y14.7782
G01 X16.4784 Y14.7859
G01 X16.4882 Y14.7891
G01 X16.5122 Y14.7977
G01 X16.5217 Y14.8018
G01 X16.5417 Y14.8112
G01 X16.5538 Y14.8177
G01 X16.5727 Y14.8290
G01 X16.5814 Y14.8346
G01 X16.6073 Y14.8541
G01 X16.6289 Y14.8734
G01 X16.6386 Y14.8831
G01 X16.6579 Y14.9047
G01 X16.6753 Y14.9278
G01 X16.6829 Y14.9392
G01 X16.6977 Y14.9642
G01 X16.7102 Y14.9903
G01 X16.7155 Y15.0030
G01 X16.7251 Y15.0303
G01 X16.7338 Y15.0651
G01 X16.7382 Y15.0937
G01 X16.7395 Y15.1074
G01 X16.7408 Y15.1363
G01 X16.7395 Y15.1652
G01 X16.7382 Y15.1789
G01 X16.7338 Y15.2075
G01 X16.7251 Y15.2423
G01 X16.7155 Y15.2696
G01 X16.7102 Y15.2823
G01 X16.6977 Y15.3084
G01 X16.6829 Y15.3333
G01 X16.6753 Y15.3447
G01 X16.6579 Y15.3679
G01 X16.6386 Y15.3895
G01 X16.6289 Y15.3992
G01 X16.6073 Y15.4185
G01 X16.5814 Y15.4379
G01 X16.5727 Y15.4435
G01 X16.5538 Y15.4549
G01 X16.5417 Y15.4614
G01 X16.5217 Y15.4708
G01 X16.5122 Y15.4749
G01 X16.4882 Y15.4835
G01 X16.4784 Y15.4866
G01 X16.4469 Y15.4944
G01 X16.4183 Y15.4988
G01 X16.4080 Y15.4999
G01 X16.3757 Y15.5014
G01 X15.9741 Y15.5014
G01 X15.9741 Y15.8664
G01 X16.7111 Y15.8666
G01 X16.7366 Y15.8679
G01 X16.7469 Y15.8690
G01 X16.7755 Y15.8734
G01 X16.8036 Y15.8803
G01 X16.8135 Y15.8832
G01 X16.8408 Y15.8929
G01 X16.8503 Y15.8970
G01 X16.8733 Y15.9079
G01 X16.8823 Y15.9129
G01 X16.9071 Y15.9279
G01 X16.9359 Y15.9493
G01 X16.9624 Y15.9734
G01 X16.9865 Y15.9999
G01 X17.0078 Y16.0287
G01 X17.0263 Y16.0594
G01 X17.0416 Y16.0918
G01 X17.0536 Y16.1255
G01 X17.0623 Y16.1603
G01 X17.0676 Y16.1957
G01 X17.0694 Y16.2315
G01 X17.0676 Y16.2673
G01 X17.0623 Y16.3028
G01 X17.0536 Y16.3375
G01 X17.0416 Y16.3712
G01 X17.0293 Y16.3975
G01 X17.0246 Y16.4066
G01 X17.0097 Y16.4315
G01 X17.0039 Y16.4400
G01 X16.9865 Y16.4631
G01 X16.9672 Y16.4847
G01 X16.9574 Y16.4944
G01 X16.9359 Y16.5138
G01 X16.9071 Y16.5351
G01 X16.8823 Y16.5501
G01 X16.8702 Y16.5566
G01 X16.8440 Y16.5688
G01 X16.8168 Y16.5788
G01 X16.8036 Y16.5827
G01 X16.7755 Y16.5896
G01 X16.7400 Y16.5949
G01 X16.7043 Y16.5966
G01 X15.6056 Y16.5966
G01 X15.5767 Y16.5952
G01 X15.5664 Y16.5940
G01 X15.5378 Y16.5896
G01 X15.5097 Y16.5827
G01 X15.4965 Y16.5788
G01 X15.4693 Y16.5688
G01 X15.4430 Y16.5566
G01 X15.4339 Y16.5519
G01 X15.4090 Y16.5370
G01 X15.4006 Y16.5311
G01 X15.3774 Y16.5138
G01 X15.3558 Y16.4944
G01 X15.3461 Y16.4847
G01 X15.3268 Y16.4631
G01 X15.3094 Y16.4400
G01 X15.3036 Y16.4315
G01 X15.2870 Y16.4036
G01 X15.2745 Y16.3775
G01 X15.2704 Y16.3681
G01 X15.2607 Y16.3408
G01 X15.2578 Y16.3309
G01 X15.2509 Y16.3028
G01 X15.2465 Y16.2741
G01 X15.2452 Y16.2605
G01 X15.2439 Y16.2315
G01 X15.2439 Y13.9281
G01 X15.2454 Y13.8992
G01 X15.2465 Y13.8889
G01 X15.2509 Y13.8603
G01 X15.2578 Y13.8322
G01 X15.2618 Y13.8190
G01 X15.2717 Y13.7918
G01 X15.2839 Y13.7655
G01 X15.2887 Y13.7564
G01 X15.3036 Y13.7316
G01 X15.3094 Y13.7231
G01 X15.3268 Y13.6999
G01 X15.3461 Y13.6783
G01 X15.3558 Y13.6686
G01 X15.3774 Y13.6493
G01 X15.4062 Y13.6279
G01 X15.4369 Y13.6095
G01 X15.4630 Y13.5970
G01 X15.4757 Y13.5917
G01 X15.5030 Y13.5821
G01 X15.5311 Y13.5749
G01 X15.5446 Y13.5723
G01 X15.5732 Y13.5682
G01 X15.6090 Y13.5664
G01 X16.7077 Y13.5665
G01 X16.7400 Y13.5682
G01 X16.7755 Y13.5734
G01 X16.8102 Y13.5821
G01 X16.8408 Y13.5929
G01 X16.8503 Y13.5970
G01 X16.8702 Y13.6064
G01 X16.8823 Y13.6129
G01 X16.9013 Y13.6243
G01 X16.9099 Y13.6299
G01 X16.9305 Y13.6451
G01 X16.9385 Y13.6515
G01 X16.9624 Y13.6734
G01 X16.9865 Y13.6999
G01 X17.0078 Y13.7287
G01 X17.0229 Y13.7534
G01 X17.0293 Y13.7655
G01 X17.0402 Y13.7886
G01 X17.0440 Y13.7982
G01 X17.0536 Y13.8255
G01 X17.0623 Y13.8603
G01 X17.0676 Y13.8957
G01 X17.0692 Y13.9247
G01 X17.0692 Y13.9384
G01 X17.0679 Y13.9639
G01 X17.0668 Y13.9741
G01 X17.0623 Y14.0028
G01 X17.0536 Y14.0375
G01 X17.0416 Y14.0712
G01 X17.0278 Y14.1006
G01 X17.0229 Y14.1096
G01 X17.0115 Y14.1286
G01 X17.0039 Y14.1400
G01 X16.9907 Y14.1577
G01 X16.9843 Y14.1658
G01 X16.9672 Y14.1847
G01 X16.9600 Y14.1921
G01 X16.9359 Y14.2138
G01 X16.9071 Y14.2351
G01 X16.8764 Y14.2535
G01 X16.8503 Y14.2661
G01 X16.8376 Y14.2713
G01 X16.8135 Y14.2799
G01 X16.8036 Y14.2827
G01 X16.7822 Y14.2881
G01 X16.7721 Y14.2902
G01 X16.7469 Y14.2940
G01 X16.7366 Y14.2952
G00 Z3.0000
G00 X18.0538 Y13.9026
G01 F60.00
G01 Z0.0000
G01 F120.00
G01 X18.0551 Y13.9315
G01 X18.0551 Y14.6508
G01 X18.7071 Y13.7194
G01 X18.7271 Y13.6938
G01 X18.7517 Y13.6678
G01 X18.7788 Y13.6443
G01 X18.8023 Y13.6275
G01 X18.8110 Y13.6218
G01 X18.8361 Y13.6075
G01 X18.8454 Y13.6029
G01 X18.8719 Y13.5913
G01 X18.8993 Y13.5819
G01 X18.9125 Y13.5782
G01 X18.9408 Y13.5720
G01 X18.9763 Y13.5675
G01 X19.0053 Y13.5665
G01 X19.0190 Y13.5668
G01 X19.0479 Y13.5690
G01 X19.0765 Y13.5737
G01 X19.0899 Y13.5767
G01 X19.1178 Y13.5845
G01 X19.1513 Y13.5973
G01 X19.1772 Y13.6101
G01 X19.1892 Y13.6168
G01 X19.2136 Y13.6324
G01 X19.2366 Y13.6500
G01 X19.2470 Y13.6590
G01 X19.2680 Y13.6790
G01 X19.2914 Y13.7061
G01 X19.3122 Y13.7353
G01 X19.3267 Y13.7604
G01 X19.3329 Y13.7726
G01 X19.3445 Y13.7991
G01 X19.3538 Y13.8266
G01 X19.3567 Y13.8365
G01 X19.3624 Y13.8613
G01 X19.3648 Y13.8749
G01 X19.3680 Y13.9002
G01 X19.3687 Y13.9105
G01 X19.3693 Y13.9326
G01 X19.3692 Y13.9429
G01 X19.3671 Y13.9718
G01 X19.3658 Y13.9820
G01 X19.3607 Y14.0105
G01 X19.3513 Y14.0451
G01 X19.3385 Y14.0785
G01 X19.3224 Y14.1106
G01 X19.3034 Y14.1409
G01 X18.8646 Y14.7678
G01 X18.9551 Y14.8133
G01 X18.9825 Y14.8291
G01 X19.0143 Y14.8520
G01 X19.0434 Y14.8781
G01 X19.1529 Y14.9876
G01 X19.1767 Y15.0139
G01 X19.1836 Y15.0227
G01 X19.2019 Y15.0485
G01 X19.2196 Y15.0792
G01 X19.3308 Y15.3016
G01 X19.3420 Y15.3265
G01 X19.3457 Y15.3356
G01 X19.3544 Y15.3615
G01 X19.3570 Y15.3709
G01 X19.3625 Y15.3943
G01 X19.3642 Y15.4039
G01 X19.3678 Y15.4310
G01 X19.3693 Y15.4616
G01 X19.3693 Y15.7967
G01 X19.3681 Y15.8240
G01 X19.3670 Y15.8337
G01 X19.3631 Y15.8608
G01 X19.3562 Y15.8906
G01 X19.3534 Y15.8999
G01 X19.3445 Y15.9258
G01 X19.3322 Y15.9538
G01 X19.2213 Y16.1758
G01 X19.2019 Y16.2098
G01 X19.1791 Y16.2415
G01 X19.1555 Y16.2680
G01 X19.0407 Y16.3828
G01 X19.0143 Y16.4063
G01 X18.9887 Y16.4250
G01 X18.9761 Y16.4331
G01 X18.9485 Y16.4486
G01 X18.7236 Y16.5609
G01 X18.6985 Y16.5718
G01 X18.6726 Y16.5807
G01 X18.6633 Y16.5835
G01 X18.6367 Y16.5897
G01 X18.6271 Y16.5914
G01 X18.6000 Y16.5951
G01 X18.5662 Y16.5966
G01 X17.6900 Y16.5966
G01 X17.6542 Y16.5949
G01 X17.6255 Y16.5908
G01 X17.6154 Y16.5889
G01 X17.5840 Y16.5809
G01 X17.5567 Y16.5713
G01 X17.5440 Y16.5661
G01 X17.5179 Y16.5535
G01 X17.4929 Y16.5388
G01 X17.4815 Y16.5311
G01 X17.4583 Y16.5138
G01 X17.4318 Y16.4897
G01 X17.4077 Y16.4631
G01 X17.3903 Y16.4400
G01 X17.3827 Y16.4286
G01 X17.3680 Y16.4036
G01 X17.3554 Y16.3775
G01 X17.3502 Y16.3648
G01 X17.3406 Y16.3375
G01 X17.3326 Y16.3061
G01 X17.3307 Y16.2960
G01 X17.3266 Y16.2673
G01 X17.3249 Y16.2315
G01 X17.3249 Y13.9315
G01 X17.3261 Y13.9026
G01 X17.3275 Y13.8889
G01 X17.3319 Y13.8603
G01 X17.3406 Y13.8255
G01 X17.3526 Y13.7918
G01 X17.3649 Y13.7655
G01 X17.3696 Y13.7564
G01 X17.3827 Y13.7345
G01 X17.3903 Y13.7231
G01 X17.4077 Y13.6999
G01 X17.4318 Y13.6734
G01 X17.4583 Y13.6493
G01 X17.4871 Y13.6279
G01 X17.5179 Y13.6095
G01 X17.5502 Y13.5942
G01 X17.5840 Y13.5821
G01 X17.6120 Y13.5749
G01 X17.6255 Y13.5723
G01 X17.6508 Y13.5685
G01 X17.6610 Y13.5677
G01 X17.6900 Y13.5664
G01 X17.7258 Y13.5682
G01 X17.7612 Y13.5734
G01 X17.7960 Y13.5821
G01 X17.8297 Y13.5942
G01 X17.8559 Y13.6064
G01 X17.8681 Y13.6129
G01 X17.8899 Y13.6261
G01 X17.8984 Y13.6319
G01 X17.9216 Y13.6493
G01 X17.9481 Y13.6734
G01 X17.9722 Y13.6999
G01 X17.9935 Y13.7287
G01 X18.0120 Y13.7594
G01 X18.0245 Y13.7855
G01 X18.0286 Y13.7950
G01 X18.0383 Y13.8223
G01 X18.0412 Y13.8322
G01 X18.0466 Y13.8536
G01 X18.0492 Y13.8671
G01 X18.0529 Y13.8923
G01 X18.0538 Y13.9026
G00 Z3.0000
G00 X19.2434 Y14.0675
G01 F60.00
G01 Z0.0000
G01 F120.00
G01 X19.2296 Y14.0893
G01 X18.7310 Y14.8016
G01 X18.9082 Y14.8902
G01 X18.9350 Y14.9055
G01 X18.9578 Y14.9220
G01 X18.9788 Y14.9408
G01 X19.0911 Y15.0532
G01 X19.1090 Y15.0732
G01 X19.1247 Y15.0949
G01 X19.1402 Y15.1216
G01 X19.2508 Y15.3429
G01 X19.2607 Y15.3651
G01 X19.2688 Y15.3893
G01 X19.2750 Y15.4164
G01 X19.2782 Y15.4394
G01 X19.2794 Y15.4637
G01 X19.2794 Y15.7946
G01 X19.2782 Y15.8189
G01 X19.2746 Y15.8442
G01 X19.2681 Y15.8712
G01 X19.2607 Y15.8931
G01 X19.2508 Y15.9154
G01 X19.1408 Y16.1355
G01 X19.1276 Y16.1589
G01 X19.1247 Y16.1634
G01 X19.1090 Y16.1851
G01 X19.0902 Y16.2061
G01 X18.9797 Y16.3165
G01 X18.9578 Y16.3362
G01 X18.9350 Y16.3527
G01 X18.9082 Y16.3681
G01 X18.6881 Y16.4781
G01 X18.6659 Y16.4879
G01 X18.6439 Y16.4954
G01 X18.6169 Y16.5019
G01 X18.5916 Y16.5055
G01 X18.5662 Y16.5066
G01 X17.6875 Y16.5066
G01 X17.6630 Y16.5053
G01 X17.6387 Y16.5018
G01 X17.6101 Y16.4948
G01 X17.5847 Y16.4857
G01 X17.5625 Y16.4753
G01 X17.5361 Y16.4596
G01 X17.5136 Y16.4426
G01 X17.4954 Y16.4261
G01 X17.4789 Y16.4079
G01 X17.4612 Y16.3844
G01 X17.4473 Y16.3612
G01 X17.4358 Y16.3368
G01 X17.4260 Y16.3090
G01 X17.4201 Y16.2852
G01 X17.4165 Y16.2609
G01 X17.4149 Y16.2328
G01 X17.4149 Y13.9303
G01 X17.4162 Y13.9046
G01 X17.4197 Y13.8803
G01 X17.4267 Y13.8517
G01 X17.4358 Y13.8262
G01 X17.4462 Y13.8040
G01 X17.4619 Y13.7777
G01 X17.4789 Y13.7551
G01 X17.4954 Y13.7370
G01 X17.5136 Y13.7205
G01 X17.5371 Y13.7028
G01 X17.5625 Y13.6878
G01 X17.5847 Y13.6774
G01 X17.6078 Y13.6690
G01 X17.6363 Y13.6617
G01 X17.6654 Y13.6576
G01 X17.6900 Y13.6564
G01 X17.7145 Y13.6576
G01 X17.7436 Y13.6617
G01 X17.7722 Y13.6690
G01 X17.7952 Y13.6774
G01 X17.8175 Y13.6878
G01 X17.8428 Y13.7028
G01 X17.8664 Y13.7205
G01 X17.8845 Y13.7370
G01 X17.9010 Y13.7551
G01 X17.9187 Y13.7787
G01 X17.9332 Y13.8029
G01 X17.9441 Y13.8262
G01 X17.9539 Y13.8540
G01 X17.9598 Y13.8779
G01 X17.9635 Y13.9021
G01 X17.9651 Y13.9303
G01 X17.9651 Y14.7516
G01 X18.0943 Y14.7516
G01 X18.7796 Y13.7728
G01 X18.7954 Y13.7524
G01 X18.8158 Y13.7312
G01 X18.8344 Y13.7151
G01 X18.8544 Y13.7009
G01 X18.8788 Y13.6867
G01 X18.9068 Y13.6743
G01 X18.9301 Y13.6666
G01 X18.9564 Y13.6606
G01 X18.9832 Y13.6572
G01 X19.0078 Y13.6565
G01 X19.0396 Y13.6587
G01 X19.0638 Y13.6629
G01 X19.0898 Y13.6701
G01 X19.1150 Y13.6797
G01 X19.1370 Y13.6906
G01 X19.1640 Y13.7076
G01 X19.1834 Y13.7227
G01 X19.2030 Y13.7413
G01 X19.2206 Y13.7616
G01 X19.2349 Y13.7816
G01 X19.2507 Y13.8093
G01 X19.2606 Y13.8318
G01 X19.2692 Y13.8574
G01 X19.2752 Y13.8837
G01 X19.2783 Y13.9081
G01 X19.2792 Y13.9399
G01 X19.2774 Y13.9644
G01 X19.2729 Y13.9910
G01 X19.2657 Y14.0171
G01 X19.2570 Y14.0400
G01 X19.2434 Y14.0675
G00 Z3.0000
G00 X20.2639 Y13.9058
G01 F60.00
G01 Z0.0000
G01 F120.00
G01 X20.2651 Y13.9315
G01 X20.2651 Y14.8612
G01 X20.7579 Y14.8612
G01 X20.7836 Y14.8625
G01 X20.8103 Y14.8665
G01 X20.8365 Y14.8730
G01 X20.8596 Y14.8812
G01 X20.8885 Y14.8949
G01 X20.9095 Y14.9075
G01 X20.9312 Y14.9236
G01 X20.9529 Y14.9435
G01 X20.9693 Y14.9618
G01 X20.9854 Y14.9834
G01 X20.9993 Y15.0066
G01 X21.0098 Y15.0288
G01 X21.0199 Y15.0564
G01 X21.0265 Y15.0826
G01 X21.0301 Y15.1069
G01 X21.0317 Y15.1363
G01 X21.0301 Y15.1657
G01 X21.0265 Y15.1900
G01 X21.0199 Y15.2161
G01 X21.0098 Y15.2438
G01 X20.9993 Y15.2660
G01 X20.9854 Y15.2891
G01 X20.9693 Y15.3108
G01 X20.9529 Y15.3290
G01 X20.9312 Y15.3490
G01 X20.9095 Y15.3650
G01 X20.8885 Y15.3777
G01 X20.8596 Y15.3913
G01 X20.8365 Y15.3996
G01 X20.8103 Y15.4061
G01 X20.7836 Y15.4101
G01 X20.7579 Y15.4114
G01 X20.2651 Y15.4114
G01 X20.2651 Y15.9564
G01 X21.0864 Y15.9564
G01 X21.1146 Y15.9580
G01 X21.1389 Y15.9617
G01 X21.1627 Y15.9676
G01 X21.1905 Y15.9774
G01 X21.2170 Y15.9901
G01 X21.2380 Y16.0028
G01 X21.2578 Y16.0173
G01 X21.2797 Y16.0370
G01 X21.2979 Y16.0570
G01 X21.3125 Y16.0767
G01 X21.3278 Y16.1018
G01 X21.3403 Y16.1285
G01 X21.3485 Y16.1517
G01 X21.3550 Y16.1779
G01 X21.3592 Y16.2070
G01 X21.3603 Y16.2315
G01 X21.3590 Y16.2585
G01 X21.3550 Y16.2852
G01 X21.3491 Y16.3090
G01 X21.3394 Y16.3368
G01 X21.3278 Y16.3612
G01 X21.3153 Y16.3823
G01 X21.2979 Y16.4061
G01 X21.2797 Y16.4261
G01 X21.2616 Y16.4426
G01 X21.2380 Y16.4603
G01 X21.2127 Y16.4753
G01 X21.1905 Y16.4857
G01 X21.1674 Y16.4940
G01 X21.1365 Y16.5018
G01 X21.1122 Y16.5053
G01 X21.0852 Y16.5066
G01 X19.9900 Y16.5066
G01 X19.9618 Y16.5052
G01 X19.9363 Y16.5014
G01 X19.9125 Y16.4954
G01 X19.8847 Y16.4857
G01 X19.8603 Y16.4742
G01 X19.8392 Y16.4616
G01 X19.8154 Y16.4442
G01 X19.7954 Y16.4261
G01 X19.7789 Y16.4079
G01 X19.7612 Y16.3844
G01 X19.7462 Y16.3590
G01 X19.7358 Y16.3368
G01 X19.7275 Y16.3137
G01 X19.7197 Y16.2828
G01 X19.7162 Y16.2585
G01 X19.7149 Y16.2315
G01 X19.7149 Y13.9315
G01 X19.7162 Y13.9046
G01 X19.7204 Y13.8767
G01 X19.7267 Y13.8517
G01 X19.7358 Y13.8262
G01 X19.7473 Y13.8018
G01 X19.7599 Y13.7808
G01 X19.7773 Y13.7570
G01 X19.7937 Y13.7388
G01 X19.8174 Y13.7173
G01 X19.8371 Y13.7028
G01 X19.8603 Y13.6889
G01 X19.8847 Y13.6774
G01 X19.9101 Y13.6683
G01 X19.9363 Y13.6617
G01 X19.9630 Y13.6577
G01 X19.9900 Y13.6564
G01 X20.0145 Y13.6576
G01 X20.0460 Y13.6622
G01 X20.0698 Y13.6683
G01 X20.0975 Y13.6783
G01 X20.1197 Y13.6889
G01 X20.1428 Y13.7028
G01 X20.1645 Y13.7189
G01 X20.1845 Y13.7370
G01 X20.2026 Y13.7570
G01 X20.2187 Y13.7787
G01 X20.2326 Y13.8018
G01 X20.2431 Y13.8240
G01 X20.2539 Y13.8540
G01 X20.2598 Y13.8779
G01 X20.2639 Y13.9058
G00 Z3.0000
G00 X20.3538 Y13.9026
G01 F60.00
G01 Z0.0000
G01 F120.00
G01 X20.3551 Y13.9315
G01 X20.3551 Y14.7712
G01 X20.7566 Y14.7712
G01 X20.7890 Y14.7726
G01 X20.7992 Y14.7738
G01 X20.8279 Y14.7782
G01 X20.8593 Y14.7859
G01 X20.8691 Y14.7891
G01 X20.8932 Y14.7977
G01 X20.9026 Y14.8018
G01 X20.9226 Y14.8112
G01 X20.9347 Y14.8177
G01 X20.9537 Y14.8290
G01 X20.9623 Y14.8346
G01 X20.9883 Y14.8541
G01 X21.0098 Y14.8734
G01 X21.0195 Y14.8831
G01 X21.0389 Y14.9047
G01 X21.0563 Y14.9278
G01 X21.0639 Y14.9392
G01 X21.0786 Y14.9642
G01 X21.0912 Y14.9903
G01 X21.0964 Y15.0030
G01 X21.1060 Y15.0303
G01 X21.1147 Y15.0651
G01 X21.1191 Y15.0937
G01 X21.1205 Y15.1074
G01 X21.1217 Y15.1363
G01 X21.1205 Y15.1652
G01 X21.1191 Y15.1789
G01 X21.1147 Y15.2075
G01 X21.1060 Y15.2423
G01 X21.0964 Y15.2696
G01 X21.0912 Y15.2823
G01 X21.0786 Y15.3084
G01 X21.0639 Y15.3333
G01 X21.0563 Y15.3447
G01 X21.0389 Y15.3679
G01 X21.0195 Y15.3895
G01 X21.0098 Y15.3992
G01 X20.9883 Y15.4185
G01 X20.9623 Y15.4379
G01 X20.9537 Y15.4435
G01 X20.9347 Y15.4549
G01 X20.9226 Y15.4614
G01 X20.9026 Y15.4708
G01 X20.8932 Y15.4749
G01 X20.8691 Y15.4835
G01 X20.8593 Y15.4866
G01 X20.8279 Y15.4944
G01 X20.7992 Y15.4988
G01 X20.7890 Y15.4999
G01 X20.7566 Y15.5014
G01 X20.3551 Y15.5014
G01 X20.3551 Y15.8664
G01 X21.0852 Y15.8664
G01 X21.1210 Y15.8682
G01 X21.1564 Y15.8734
G01 X21.1846 Y15.8803
G01 X21.1977 Y15.8843
G01 X21.2249 Y15.8942
G01 X21.2573 Y15.9095
G01 X21.2822 Y15.9243
G01 X21.2937 Y15.9319
G01 X21.3114 Y15.9451
G01 X21.3195 Y15.9515
G01 X21.3434 Y15.9734
G01 X21.3630 Y15.9947
G01 X21.3717 Y16.0053
G01 X21.3888 Y16.0287
G01 X21.4038 Y16.0534
G01 X21.4103 Y16.0655
G01 X21.4225 Y16.0918
G01 X21.4324 Y16.1190
G01 X21.4364 Y16.1322
G01 X21.4433 Y16.1603
G01 X21.4477 Y16.1889
G01 X21.4491 Y16.2026
G01 X21.4503 Y16.2315
G01 X21.4491 Y16.2605
G01 X21.4477 Y16.2741
G01 X21.4433 Y16.3028
G01 X21.4346 Y16.3375
G01 X21.4250 Y16.3648
G01 X21.4197 Y16.3775
G01 X21.4072 Y16.4036
G01 X21.3925 Y16.4286
G01 X21.3848 Y16.4400
G01 X21.3674 Y16.4631
G01 X21.3481 Y16.4847
G01 X21.3384 Y16.4944
G01 X21.3168 Y16.5138
G01 X21.2937 Y16.5311
G01 X21.2822 Y16.5388
G01 X21.2573 Y16.5535
G01 X21.2312 Y16.5661
G01 X21.2185 Y16.5713
G01 X21.1912 Y16.5809
G01 X21.1564 Y16.5896
G01 X21.1278 Y16.5940
G01 X21.1141 Y16.5954
G01 X21.0852 Y16.5966
G01 X19.9900 Y16.5966
G01 X19.9542 Y16.5949
G01 X19.9255 Y16.5908
G01 X19.9120 Y16.5881
G01 X19.8840 Y16.5809
G01 X19.8567 Y16.5713
G01 X19.8440 Y16.5661
G01 X19.8179 Y16.5535
G01 X19.7900 Y16.5370
G01 X19.7815 Y16.5311
G01 X19.7638 Y16.5180
G01 X19.7531 Y16.5093
G01 X19.7318 Y16.4897
G01 X19.7122 Y16.4684
G01 X19.7035 Y16.4577
G01 X19.6864 Y16.4344
G01 X19.6680 Y16.4036
G01 X19.6554 Y16.3775
G01 X19.6502 Y16.3648
G01 X19.6406 Y16.3375
G01 X19.6319 Y16.3028
G01 X19.6275 Y16.2741
G01 X19.6261 Y16.2605
G01 X19.6249 Y16.2315
G01 X19.6249 Y13.9315
G01 X19.6261 Y13.9026
G01 X19.6275 Y13.8889
G01 X19.6319 Y13.8603
G01 X19.6406 Y13.8255
G01 X19.6526 Y13.7918
G01 X19.6649 Y13.7655
G01 X19.6696 Y13.7564
G01 X19.6827 Y13.7345
G01 X19.6903 Y13.7231
G01 X19.7077 Y13.6999
G01 X19.7318 Y13.6734
G01 X19.7583 Y13.6493
G01 X19.7871 Y13.6279
G01 X19.8179 Y13.6095
G01 X19.8502 Y13.5942
G01 X19.8840 Y13.5821
G01 X19.9120 Y13.5749
G01 X19.9255 Y13.5723
G01 X19.9508 Y13.5685
G01 X19.9610 Y13.5677
G01 X19.9900 Y13.5664
G01 X20.0258 Y13.5682
G01 X20.0612 Y13.5734
G01 X20.0960 Y13.5821
G01 X20.1297 Y13.5942
G01 X20.1559 Y13.6064
G01 X20.1681 Y13.6129
G01 X20.1899 Y13.6261
G01 X20.1984 Y13.6319
G01 X20.2216 Y13.6493
G01 X20.2481 Y13.6734
G01 X20.2722 Y13.6999
G01 X20.2935 Y13.7287
G01 X20.3120 Y13.7594
G01 X20.3245 Y13.7855
G01 X20.3286 Y13.7950
G01 X20.3383 Y13.8223
G01 X20.3412 Y13.8322
G01 X20.3466 Y13.8536
G01 X20.3492 Y13.8671
G01 X20.3529 Y13.8923
G01 X20.3538 Y13.9026
G00 Z3.0000
G00 X21.8835 Y13.8182
G01 F60.00
G01 Z0.0000
G01 F120.00
G01 X21.8938 Y13.8445
G01 X22.0502 Y14.3136
G01 X22.7488 Y14.3136
G01 X22.9052 Y13.8445
G01 X22.9149 Y13.8194
G01 X22.9266 Y13.7964
G01 X22.9417 Y13.7725
G01 X22.9583 Y13.7513
G01 X22.9770 Y13.7318
G01 X22.9975 Y13.7142
G01 X23.0196 Y13.6987
G01 X23.0431 Y13.6855
G01 X23.0678 Y13.6746
G01 X23.0959 Y13.6656
G01 X23.1199 Y13.6603
G01 X23.1491 Y13.6570
G01 X23.1761 Y13.6566
G01 X23.2006 Y13.6586
G01 X23.2247 Y13.6628
G01 X23.2532 Y13.6705
G01 X23.2783 Y13.6803
G01 X23.3024 Y13.6925
G01 X23.3252 Y13.7070
G01 X23.3464 Y13.7237
G01 X23.3659 Y13.7424
G01 X23.3835 Y13.7628
G01 X23.4002 Y13.7871
G01 X23.4122 Y13.8085
G01 X23.4239 Y13.8355
G01 X23.4321 Y13.8612
G01 X23.4373 Y13.8852
G01 X23.4399 Y13.9058
G01 X23.4440 Y13.8777
G01 X23.4499 Y13.8539
G01 X23.4607 Y13.8239
G01 X23.4712 Y13.8017
G01 X23.4851 Y13.7786
G01 X23.5012 Y13.7569
G01 X23.5193 Y13.7369
G01 X23.5393 Y13.7188
G01 X23.5610 Y13.7027
G01 X23.5841 Y13.6889
G01 X23.6063 Y13.6783
G01 X23.6363 Y13.6676
G01 X23.6601 Y13.6617
G01 X23.6868 Y13.6577
G01 X23.7138 Y13.6564
G01 X25.2483 Y13.6564
G01 X25.2741 Y13.6577
G01 X25.2984 Y13.6613
G01 X25.3270 Y13.6683
G01 X25.3524 Y13.6774
G01 X25.3746 Y13.6878
G01 X25.4010 Y13.7035
G01 X25.4216 Y13.7189
G01 X25.4399 Y13.7353
G01 X25.4598 Y13.7570
G01 X25.4772 Y13.7808
G01 X25.4897 Y13.8018
G01 X25.5003 Y13.8240
G01 X25.5104 Y13.8517
G01 X25.5174 Y13.8803
G01 X25.5209 Y13.9046
G01 X25.5222 Y13.9291
G01 X25.5209 Y13.9585
G01 X25.5164 Y13.9876
G01 X25.5104 Y14.0114
G01 X25.5022 Y14.0345
G01 X25.4897 Y14.0612
G01 X25.4744 Y14.0864
G01 X25.4598 Y14.1061
G01 X25.4433 Y14.1243
G01 X25.4216 Y14.1442
G01 X25.3979 Y14.1616
G01 X25.3768 Y14.1742
G01 X25.3535 Y14.1852
G01 X25.3270 Y14.1948
G01 X25.3008 Y14.2014
G01 X25.2741 Y14.2053
G01 X25.2483 Y14.2066
G01 X24.2278 Y14.2066
G01 X25.4760 Y16.0789
G01 X25.4893 Y16.1010
G01 X25.5023 Y16.1288
G01 X25.5104 Y16.1519
G01 X25.5164 Y16.1757
G01 X25.5209 Y16.2048
G01 X25.5222 Y16.2342
G01 X25.5209 Y16.2587
G01 X25.5173 Y16.2830
G01 X25.5103 Y16.3115
G01 X25.5012 Y16.3370
G01 X25.4908 Y16.3591
G01 X25.4751 Y16.3855
G01 X25.4581 Y16.4080
G01 X25.4416 Y16.4261
G01 X25.4234 Y16.4426
G01 X25.3999 Y16.4603
G01 X25.3767 Y16.4742
G01 X25.3523 Y16.4857
G01 X25.3246 Y16.4955
G01 X25.3008 Y16.5014
G01 X25.2765 Y16.5050
G01 X25.2471 Y16.5066
G01 X23.7138 Y16.5066
G01 X23.6893 Y16.5055
G01 X23.6601 Y16.5014
G01 X23.6339 Y16.4948
G01 X23.6085 Y16.4857
G01 X23.5841 Y16.4742
G01 X23.5609 Y16.4603
G01 X23.5392 Y16.4442
G01 X23.5192 Y16.4261
G01 X23.5011 Y16.4061
G01 X23.4850 Y16.3844
G01 X23.4700 Y16.3590
G01 X23.4596 Y16.3368
G01 X23.4513 Y16.3137
G01 X23.4439 Y16.2852
G01 X23.4400 Y16.2585
G01 X23.4387 Y16.2291
G01 X23.4403 Y16.2021
G01 X23.4439 Y16.1779
G01 X23.4499 Y16.1540
G01 X23.4596 Y16.1262
G01 X23.4711 Y16.1018
G01 X23.4850 Y16.0787
G01 X23.5027 Y16.0551
G01 X23.5210 Y16.0353
G01 X23.5392 Y16.0189
G01 X23.5589 Y16.0042
G01 X23.5841 Y15.9889
G01 X23.6108 Y15.9765
G01 X23.6339 Y15.9683
G01 X23.6601 Y15.9617
G01 X23.6868 Y15.9577
G01 X23.7125 Y15.9564
G01 X24.7331 Y15.9564
G01 X23.4842 Y14.0831
G01 X23.4699 Y14.0588
G01 X23.4595 Y14.0366
G01 X23.4512 Y14.0135
G01 X23.4439 Y13.9850
G01 X23.4399 Y13.9570
G01 X23.4389 Y13.9671
G01 X23.4347 Y13.9913
G01 X23.4272 Y14.0185
G01 X22.6605 Y16.3185
G01 X22.6500 Y16.3453
G01 X22.6380 Y16.3686
G01 X22.6216 Y16.3937
G01 X22.6061 Y16.4132
G01 X22.5887 Y16.4312
G01 X22.5678 Y16.4491
G01 X22.5432 Y16.4661
G01 X22.5191 Y16.4793
G01 X22.4938 Y16.4900
G01 X22.4675 Y16.4981
G01 X22.4406 Y16.5036
G01 X22.4132 Y16.5063
G01 X22.3858 Y16.5063
G01 X22.3559 Y16.5031
G01 X22.3315 Y16.4981
G01 X22.3076 Y16.4908
G01 X22.2822 Y16.4803
G01 X22.2558 Y16.4661
G01 X22.2341 Y16.4514
G01 X22.2103 Y16.4312
G01 X22.1929 Y16.4132
G01 X22.1758 Y16.3917
G01 X22.1598 Y16.3664
G01 X22.1485 Y16.3441
G01 X22.1389 Y16.3197
G01 X21.3718 Y14.0185
G01 X21.3646 Y13.9925
G01 X21.3599 Y13.9659
G01 X21.3578 Y13.9390
G01 X21.3584 Y13.9120
G01 X21.3616 Y13.8852
G01 X21.3669 Y13.8612
G01 X21.3768 Y13.8309
G01 X21.3868 Y13.8085
G01 X21.4000 Y13.7850
G01 X21.4155 Y13.7628
G01 X21.4331 Y13.7424
G01 X21.4526 Y13.7237
G01 X21.4718 Y13.7085
G01 X21.4987 Y13.6914
G01 X21.5207 Y13.6803
G01 X21.5482 Y13.6698
G01 X21.5718 Y13.6633
G01 X21.5984 Y13.6586
G01 X21.6253 Y13.6565
G01 X21.6523 Y13.6571
G01 X21.6791 Y13.6603
G01 X21.7055 Y13.6662
G01 X21.7311 Y13.6746
G01 X21.7536 Y13.6844
G01 X21.7794 Y13.6987
G01 X21.7995 Y13.7127
G01 X21.8237 Y13.7335
G01 X21.8407 Y13.7513
G01 X21.8573 Y13.7725
G01 X21.8718 Y13.7953
G01 X21.8835 Y13.8182
G00 Z3.0000
G00 X21.9662 Y13.7827
G01 F60.00
G01 Z0.0000
G01 F120.00
G01 X21.9792 Y13.8161
G01 X22.1150 Y14.2236
G01 X22.6840 Y14.2236
G01 X22.8209 Y13.8128
G01 X22.8314 Y13.7858
G01 X22.8357 Y13.7765
G01 X22.8490 Y13.7507
G01 X22.8644 Y13.7262
G01 X22.8702 Y13.7177
G01 X22.8881 Y13.6949
G01 X22.8950 Y13.6872
G01 X22.9126 Y13.6688
G01 X22.9202 Y13.6618
G01 X22.9423 Y13.6431
G01 X22.9688 Y13.6244
G01 X22.9776 Y13.6190
G01 X23.0029 Y13.6050
G01 X23.0357 Y13.5905
G01 X23.0697 Y13.5794
G01 X23.1013 Y13.5722
G01 X23.1115 Y13.5706
G01 X23.1403 Y13.5673
G01 X23.1692 Y13.5665
G01 X23.1830 Y13.5669
G01 X23.2118 Y13.5693
G01 X23.2437 Y13.5748
G01 X23.2538 Y13.5772
G01 X23.2750 Y13.5831
G01 X23.2849 Y13.5863
G01 X23.3119 Y13.5968
G01 X23.3212 Y13.6011
G01 X23.3470 Y13.6143
G01 X23.3744 Y13.6316
G01 X23.3827 Y13.6377
G01 X23.4001 Y13.6513
G01 X23.4079 Y13.6580
G01 X23.4289 Y13.6780
G01 X23.4400 Y13.6904
G01 X23.4557 Y13.6733
G01 X23.4770 Y13.6537
G01 X23.4849 Y13.6471
G01 X23.5054 Y13.6318
G01 X23.5139 Y13.6260
G01 X23.5387 Y13.6111
G01 X23.5479 Y13.6064
G01 X23.5678 Y13.5970
G01 X23.5773 Y13.5929
G01 X23.6046 Y13.5832
G01 X23.6145 Y13.5803
G01 X23.6392 Y13.5741
G01 X23.6493 Y13.5722
G01 X23.6780 Y13.5682
G01 X23.7103 Y13.5665
G01 X25.2540 Y13.5666
G01 X25.2829 Y13.5682
G01 X25.3150 Y13.5728
G01 X25.3250 Y13.5749
G01 X25.3465 Y13.5803
G01 X25.3596 Y13.5843
G01 X25.3868 Y13.5942
G01 X25.4192 Y13.6095
G01 X25.4500 Y13.6279
G01 X25.4733 Y13.6451
G01 X25.4839 Y13.6538
G01 X25.5053 Y13.6734
G01 X25.5249 Y13.6947
G01 X25.5315 Y13.7026
G01 X25.5507 Y13.7287
G01 X25.5657 Y13.7534
G01 X25.5707 Y13.7625
G01 X25.5831 Y13.7886
G01 X25.5869 Y13.7982
G01 X25.5965 Y13.8255
G01 X25.6037 Y13.8536
G01 X25.6058 Y13.8637
G01 X25.6101 Y13.8923
G01 X25.6110 Y13.9026
G01 X25.6122 Y13.9315
G01 X25.6110 Y13.9605
G01 X25.6096 Y13.9741
G01 X25.6052 Y14.0028
G01 X25.5965 Y14.0375
G01 X25.5844 Y14.0712
G01 X25.5722 Y14.0975
G01 X25.5657 Y14.1096
G01 X25.5507 Y14.1344
G01 X25.5336 Y14.1577
G01 X25.5271 Y14.1658
G01 X25.5077 Y14.1872
G01 X25.5003 Y14.1944
G01 X25.4787 Y14.2138
G01 X25.4556 Y14.2311
G01 X25.4441 Y14.2388
G01 X25.4192 Y14.2535
G01 X25.3931 Y14.2661
G01 X25.3836 Y14.2701
G01 X25.3564 Y14.2799
G01 X25.3465 Y14.2827
G01 X25.3183 Y14.2896
G01 X25.2897 Y14.2940
G01 X25.2760 Y14.2954
G01 X25.2471 Y14.2966
G01 X24.3960 Y14.2966
G01 X25.5509 Y16.0290
G01 X25.5693 Y16.0597
G01 X25.5846 Y16.0921
G01 X25.5944 Y16.1193
G01 X25.5984 Y16.1325
G01 X25.6053 Y16.1606
G01 X25.6097 Y16.1892
G01 X25.6110 Y16.2029
G01 X25.6122 Y16.2318
G01 X25.6104 Y16.2676
G01 X25.6052 Y16.3030
G01 X25.5983 Y16.3311
G01 X25.5943 Y16.3442
G01 X25.5843 Y16.3714
G01 X25.5721 Y16.3977
G01 X25.5656 Y16.4098
G01 X25.5506 Y16.4345
G01 X25.5335 Y16.4579
G01 X25.5248 Y16.4685
G01 X25.5052 Y16.4898
G01 X25.4786 Y16.5138
G01 X25.4499 Y16.5352
G01 X25.4251 Y16.5502
G01 X25.4161 Y16.5551
G01 X25.3930 Y16.5661
G01 X25.3836 Y16.5701
G01 X25.3563 Y16.5799
G01 X25.3464 Y16.5828
G01 X25.3183 Y16.5896
G01 X25.2897 Y16.5940
G01 X25.2795 Y16.5952
G01 X25.2505 Y16.5966
G01 X23.7138 Y16.5966
G01 X23.6814 Y16.5952
G01 X23.6712 Y16.5940
G01 X23.6425 Y16.5896
G01 X23.6111 Y16.5819
G01 X23.6013 Y16.5788
G01 X23.5772 Y16.5701
G01 X23.5678 Y16.5661
G01 X23.5478 Y16.5566
G01 X23.5357 Y16.5501
G01 X23.5138 Y16.5370
G01 X23.5053 Y16.5311
G01 X23.4876 Y16.5180
G01 X23.4795 Y16.5115
G01 X23.4581 Y16.4921
G01 X23.4509 Y16.4847
G01 X23.4338 Y16.4658
G01 X23.4273 Y16.4577
G01 X23.4102 Y16.4344
G01 X23.3952 Y16.4096
G01 X23.3887 Y16.3975
G01 X23.3765 Y16.3712
G01 X23.3644 Y16.3375
G01 X23.3557 Y16.3028
G01 X23.3513 Y16.2741
G01 X23.3499 Y16.2605
G01 X23.3487 Y16.2315
G01 X23.3499 Y16.2026
G01 X23.3508 Y16.1923
G01 X23.3545 Y16.1671
G01 X23.3572 Y16.1536
G01 X23.3644 Y16.1255
G01 X23.3765 Y16.0918
G01 X23.3918 Y16.0594
G01 X23.4065 Y16.0345
G01 X23.4121 Y16.0258
G01 X23.4273 Y16.0053
G01 X23.4338 Y15.9973
G01 X23.4532 Y15.9758
G01 X23.4606 Y15.9686
G01 X23.4822 Y15.9493
G01 X23.5053 Y15.9319
G01 X23.5138 Y15.9261
G01 X23.5387 Y15.9112
G01 X23.5478 Y15.9064
G01 X23.5741 Y15.8942
G01 X23.6013 Y15.8843
G01 X23.6111 Y15.8812
G01 X23.6392 Y15.8741
G01 X23.6493 Y15.8723
G01 X23.6780 Y15.8682
G01 X23.7069 Y15.8666
G01 X24.5649 Y15.8664
G01 X23.4590 Y14.2076
G01 X22.7459 Y16.3470
G01 X22.7326 Y16.3810
G01 X22.7178 Y16.4104
G01 X22.7124 Y16.4194
G01 X22.6963 Y16.4441
G01 X22.6736 Y16.4727
G01 X22.6482 Y16.4988
G01 X22.6203 Y16.5223
G01 X22.5902 Y16.5429
G01 X22.5582 Y16.5603
G01 X22.5246 Y16.5745
G01 X22.4965 Y16.5834
G01 X22.4829 Y16.5869
G01 X22.4609 Y16.5913
G01 X22.4505 Y16.5930
G01 X22.4212 Y16.5960
G01 X22.4107 Y16.5964
G01 X22.3813 Y16.5962
G01 X22.3519 Y16.5934
G01 X22.3415 Y16.5920
G01 X22.3160 Y16.5869
G01 X22.3025 Y16.5834
G01 X22.2744 Y16.5745
G01 X22.2408 Y16.5603
G01 X22.2088 Y16.5429
G01 X22.1787 Y16.5223
G01 X22.1508 Y16.4988
G01 X22.1301 Y16.4778
G01 X22.1209 Y16.4673
G01 X22.1027 Y16.4441
G01 X22.0866 Y16.4194
G01 X22.0796 Y16.4073
G01 X22.0664 Y16.3810
G01 X22.0543 Y16.3503
G01 X21.2864 Y14.0470
G01 X21.2768 Y14.0125
G01 X21.2716 Y13.9840
G01 X21.2699 Y13.9704
G01 X21.2678 Y13.9415
G01 X21.2686 Y13.9056
G01 X21.2729 Y13.8701
G01 X21.2798 Y13.8384
G01 X21.2827 Y13.8285
G01 X21.2906 Y13.8043
G01 X21.2944 Y13.7947
G01 X21.3033 Y13.7745
G01 X21.3078 Y13.7652
G01 X21.3203 Y13.7429
G01 X21.3276 Y13.7313
G01 X21.3444 Y13.7077
G01 X21.3677 Y13.6805
G01 X21.3936 Y13.6557
G01 X21.4218 Y13.6336
G01 X21.4520 Y13.6143
G01 X21.4840 Y13.5981
G01 X21.5174 Y13.5851
G01 X21.5452 Y13.5772
G01 X21.5586 Y13.5741
G01 X21.5838 Y13.5698
G01 X21.5940 Y13.5686
G01 X21.6160 Y13.5669
G01 X21.6263 Y13.5665
G01 X21.6553 Y13.5671
G01 X21.6655 Y13.5680
G01 X21.6943 Y13.5716
G01 X21.7293 Y13.5794
G01 X21.7633 Y13.5905
G01 X21.7961 Y13.6050
G01 X21.8273 Y13.6225
G01 X21.8511 Y13.6390
G01 X21.8594 Y13.6452
G01 X21.8788 Y13.6618
G01 X21.8887 Y13.6713
G01 X21.9086 Y13.6923
G01 X21.9308 Y13.7205
G01 X21.9500 Y13.7507
G01 X21.9662 Y13.7827
G00 Z3.0000
G00 X22.2336 Y14.8638
G01 F60.00
G01 Z0.0000
G01 F120.00
G01 X22.5654 Y14.8638
G01 X22.3995 Y15.3615
G01 X22.2336 Y14.8638
G00 Z3.0000
G00 X22.3995 Y15.0769
G01 F60.00
G01 Z0.0000
G01 F120.00
G01 X22.3584 Y14.9538
G01 X22.4405 Y14.9538
G01 X22.3995 Y15.0769
G00 Z3.0000
G00 X18.7291 Y15.7285
G01 F60.00
G01 Z0.0000
G01 F120.00
G01 X18.6686 Y15.8495
G01 X18.6222 Y15.8959
G01 X18.5012 Y15.9564
G01 X17.9651 Y15.9564
G01 X17.9651 Y15.3019
G01 X18.5012 Y15.3019
G01 X18.6222 Y15.3624
G01 X18.6686 Y15.4088
G01 X18.7291 Y15.5298
G01 X18.7291 Y15.7285
G00 Z3.0000
G00 X18.6391 Y15.5510
G01 F60.00
G01 Z0.0000
G01 F120.00
G01 X18.6391 Y15.7072
G01 X18.5947 Y15.7962
G01 X18.5689 Y15.8219
G01 X18.4800 Y15.8664
G01 X18.0551 Y15.8664
G01 X18.0551 Y15.3919
G01 X18.4800 Y15.3919
G01 X18.5689 Y15.4364
G01 X18.5947 Y15.4621
G01 X18.6391 Y15.5510
G00 Z3.0000
G00 X24.4548 Y1.4529
G01 F60.00
G01 Z0.0000
G01 F120.00
G01 X24.5529 Y1.4285
G01 X24.6194 Y1.4184
G01 X24.6194 Y-1.7404
G01 X21.6568 Y-4.7030
G01 X21.6104 Y-4.7544
G01 X21.5711 Y-4.8071
G01 X21.5635 Y-4.8185
G01 X21.5332 Y-4.8690
G01 X21.5267 Y-4.8812
G01 X21.4987 Y-4.9407
G01 X21.4743 Y-5.0091
G01 X21.4566 Y-5.0796
G01 X21.4463 Y-5.1480
G01 X21.4454 Y-5.1583
G01 X21.4424 Y-5.2240
G01 X21.4425 Y-18.1309
G01 X21.4459 Y-18.1966
G01 X21.4566 Y-18.2684
G01 X21.4743 Y-18.3389
G01 X21.4987 Y-18.4073
G01 X21.5298 Y-18.4730
G01 X21.5671 Y-18.5353
G01 X21.6104 Y-18.5936
G01 X21.6545 Y-18.6425
G01 X21.6642 Y-18.6522
G01 X21.7130 Y-18.6963
G01 X21.7658 Y-18.7356
G01 X21.7772 Y-18.7432
G01 X21.8277 Y-18.7735
G01 X21.8398 Y-18.7800
G01 X21.8994 Y-18.8079
G01 X21.9678 Y-18.8324
G01 X22.0383 Y-18.8501
G01 X22.1067 Y-18.8604
G01 X22.1170 Y-18.8612
G01 X22.1827 Y-18.8643
G01 X22.2552 Y-18.8607
G01 X22.3271 Y-18.8501
G01 X22.3976 Y-18.8324
G01 X22.4660 Y-18.8079
G01 X22.5317 Y-18.7769
G01 X22.5940 Y-18.7395
G01 X22.6523 Y-18.6963
G01 X22.7062 Y-18.6475
G01 X22.7549 Y-18.5936
G01 X22.7982 Y-18.5353
G01 X22.8356 Y-18.4730
G01 X22.8666 Y-18.4073
G01 X22.8911 Y-18.3389
G01 X22.9088 Y-18.2684
G01 X22.9186 Y-18.2034
G01 X22.9199 Y-18.1897
G01 X22.9230 Y-18.1240
G01 X22.9230 Y-5.5306
G01 X25.8856 Y-2.5680
G01 X25.9319 Y-2.5166
G01 X25.9752 Y-2.4583
G01 X26.0126 Y-2.3960
G01 X26.0423 Y-2.3335
G01 X26.0461 Y-2.3239
G01 X26.0681 Y-2.2619
G01 X26.0858 Y-2.1914
G01 X26.0964 Y-2.1196
G01 X26.0999 Y-2.0504
G01 X26.1000 Y1.4184
G01 X26.1597 Y1.4273
G01 X26.1698 Y1.4292
G01 X26.2612 Y1.4520
G01 X26.2711 Y1.4549
G01 X26.3662 Y1.4891
G01 X26.4577 Y1.5322
G01 X26.4667 Y1.5371
G01 X26.5504 Y1.5875
G01 X26.6289 Y1.6455
G01 X26.6395 Y1.6542
G01 X26.7068 Y1.7152
G01 X26.7141 Y1.7224
G01 X26.7235 Y1.7327
G01 X36.4958 Y1.7327
G01 X36.5052 Y1.7224
G01 X36.5126 Y1.7152
G01 X36.5798 Y1.6542
G01 X36.5905 Y1.6455
G01 X36.6690 Y1.5875
G01 X36.7586 Y1.5338
G01 X36.8531 Y1.4891
G01 X36.9450 Y1.4560
G01 X36.9581 Y1.4520
G01 X37.0462 Y1.4300
G01 X37.0597 Y1.4273
G01 X37.1563 Y1.4131
G01 X37.2607 Y1.4080
G01 X38.4587 Y1.4080
G01 X38.5596 Y1.4128
G01 X38.5699 Y1.4140
G01 X38.6665 Y1.4285
G01 X38.7678 Y1.4539
G01 X38.8662 Y1.4891
G01 X38.9607 Y1.5338
G01 X39.0504 Y1.5875
G01 X39.1343 Y1.6497
G01 X39.2117 Y1.7199
G01 X39.2819 Y1.7974
G01 X39.3442 Y1.8813
G01 X39.3979 Y1.9710
G01 X39.4426 Y2.0654
G01 X39.4778 Y2.1638
G01 X39.5032 Y2.2652
G01 X39.5186 Y2.3686
G01 X39.5237 Y2.4730
G01 X39.5188 Y2.5740
G01 X39.5177 Y2.5842
G01 X39.5032 Y2.6808
G01 X39.4797 Y2.7755
G01 X39.4757 Y2.7887
G01 X39.4451 Y2.8741
G01 X39.4398 Y2.8868
G01 X39.3979 Y2.9750
G01 X39.3442 Y3.0647
G01 X39.2819 Y3.1486
G01 X39.2117 Y3.2261
G01 X39.1343 Y3.2963
G01 X39.0504 Y3.3585
G01 X38.9607 Y3.4122
G01 X38.8725 Y3.4541
G01 X38.8598 Y3.4594
G01 X38.7744 Y3.4900
G01 X38.7612 Y3.4940
G01 X38.6665 Y3.5175
G01 X38.5699 Y3.5320
G01 X38.5596 Y3.5332
G01 X38.4587 Y3.5380
G01 X37.2607 Y3.5380
G01 X37.1563 Y3.5329
G01 X37.0597 Y3.5187
G01 X37.0462 Y3.5160
G01 X36.9581 Y3.4940
G01 X36.9450 Y3.4900
G01 X36.8531 Y3.4569
G01 X36.7586 Y3.4122
G01 X36.6690 Y3.3585
G01 X36.5905 Y3.3005
G01 X36.5798 Y3.2918
G01 X36.5126 Y3.2308
G01 X36.5052 Y3.2236
G01 X36.4958 Y3.2133
G01 X26.7235 Y3.2133
G01 X26.7141 Y3.2236
G01 X26.7068 Y3.2308
G01 X26.6395 Y3.2918
G01 X26.6289 Y3.3005
G01 X26.5504 Y3.3585
G01 X26.4607 Y3.4122
G01 X26.3662 Y3.4569
G01 X26.2744 Y3.4900
G01 X26.2612 Y3.4940
G01 X26.1732 Y3.5160
G01 X26.1597 Y3.5187
G01 X26.0631 Y3.5329
G01 X25.9587 Y3.5380
G01 X24.7607 Y3.5380
G01 X24.6597 Y3.5332
G01 X24.6495 Y3.5320
G01 X24.5529 Y3.5175
G01 X24.4581 Y3.4940
G01 X24.4450 Y3.4900
G01 X24.3595 Y3.4594
G01 X24.3468 Y3.4541
G01 X24.2586 Y3.4122
G01 X24.1690 Y3.3585
G01 X24.0851 Y3.2963
G01 X24.0076 Y3.2261
G01 X23.9374 Y3.1486
G01 X23.8791 Y3.0703
G01 X23.8715 Y3.0589
G01 X23.8248 Y2.9810
G01 X23.8183 Y2.9689
G01 X23.7767 Y2.8806
G01 X23.7415 Y2.7822
G01 X23.7161 Y2.6808
G01 X23.7008 Y2.5774
G01 X23.6957 Y2.4730
G01 X23.7003 Y2.3755
G01 X23.7016 Y2.3618
G01 X23.7150 Y2.2720
G01 X23.7176 Y2.2585
G01 X23.7415 Y2.1638
G01 X23.7767 Y2.0654
G01 X23.8214 Y1.9710
G01 X23.8752 Y1.8813
G01 X23.9374 Y1.7974
G01 X24.0076 Y1.7199
G01 X24.0851 Y1.6497
G01 X24.1634 Y1.5914
G01 X24.1748 Y1.5838
G01 X24.2527 Y1.5371
G01 X24.2648 Y1.5307
G01 X24.3531 Y1.4891
G01 X24.4450 Y1.4560
G01 X24.4548 Y1.4529
G00 Z3.0000
G00 X20.7025 Y-0.5309
G01 F60.00
G01 Z0.0000
G01 F120.00
G01 X20.7118 Y-0.4677
G01 X20.7150 Y-0.4040
G01 X20.7150 Y4.3110
G01 X20.7118 Y4.3747
G01 X20.7025 Y4.4379
G01 X20.6862 Y4.5021
G01 X20.6655 Y4.5599
G01 X20.6393 Y4.6154
G01 X20.6054 Y4.6723
G01 X20.5666 Y4.7245
G01 X20.5245 Y4.7708
G01 X19.7896 Y5.5057
G01 X19.7432 Y5.5477
G01 X19.6920 Y5.5857
G01 X19.6372 Y5.6185
G01 X19.5818 Y5.6448
G01 X19.5171 Y5.6680
G01 X19.4575 Y5.6828
G01 X19.3932 Y5.6923
G01 X19.3307 Y5.6953
G01 X-3.6493 Y5.6953
G01 X-3.7118 Y5.6923
G01 X-3.7786 Y5.6823
G01 X-3.8381 Y5.6673
G01 X-3.8982 Y5.6458
G01 X-3.9559 Y5.6185
G01 X-4.0085 Y5.5870
G01 X-4.0628 Y5.5469
G01 X-4.1092 Y5.5048
G01 X-4.7650 Y4.8490
G01 X-4.8070 Y4.8025
G01 X-4.8436 Y4.7533
G01 X-4.8772 Y4.6976
G01 X-4.9051 Y4.6389
G01 X-4.9266 Y4.5788
G01 X-4.9421 Y4.5169
G01 X-4.9516 Y4.4525
G01 X-4.9546 Y4.3900
G01 X-4.9546 Y3.4455
G01 X-5.0001 Y3.4432
G01 X-5.0923 Y3.4295
G01 X-5.1852 Y3.4064
G01 X-5.2764 Y3.3738
G01 X-5.3607 Y3.3340
G01 X-5.4450 Y3.2837
G01 X-5.5209 Y3.2275
G01 X-5.5919 Y3.1633
G01 X-5.6283 Y3.1233
G01 X-15.4803 Y3.1233
G01 X-15.5168 Y3.1633
G01 X-15.5877 Y3.2275
G01 X-15.6636 Y3.2837
G01 X-15.7446 Y3.3323
G01 X-15.8345 Y3.3747
G01 X-15.9223 Y3.4060
G01 X-16.0163 Y3.4295
G01 X-16.1098 Y3.4433
G01 X-16.2041 Y3.4480
G01 X-17.4058 Y3.4479
G01 X-17.4989 Y3.4433
G01 X-17.5935 Y3.4293
G01 X-17.6863 Y3.4060
G01 X-17.7764 Y3.3738
G01 X-17.8629 Y3.3329
G01 X-17.9450 Y3.2837
G01 X-18.0219 Y3.2267
G01 X-18.0910 Y3.1641
G01 X-18.1570 Y3.0915
G01 X-18.2126 Y3.0167
G01 X-18.2643 Y2.9304
G01 X-18.3041 Y2.8461
G01 X-18.3363 Y2.7560
G01 X-18.3596 Y2.6632
G01 X-18.3737 Y2.5673
G01 X-18.3783 Y2.4730
G01 X-18.3736 Y2.3774
G01 X-18.3596 Y2.2828
G01 X-18.3363 Y2.1900
G01 X-18.3041 Y2.0999
G01 X-18.2632 Y2.0134
G01 X-18.2140 Y1.9313
G01 X-18.1570 Y1.8545
G01 X-18.0927 Y1.7836
G01 X-18.0219 Y1.7193
G01 X-17.9450 Y1.6623
G01 X-17.8629 Y1.6131
G01 X-17.7764 Y1.5722
G01 X-17.6863 Y1.5400
G01 X-17.5935 Y1.5167
G01 X-17.4977 Y1.5026
G01 X-17.4033 Y1.4980
G01 X-16.2053 Y1.4980
G01 X-16.1098 Y1.5027
G01 X-16.0175 Y1.5163
G01 X-15.9200 Y1.5408
G01 X-15.8322 Y1.5722
G01 X-15.7446 Y1.6137
G01 X-15.6636 Y1.6623
G01 X-15.5877 Y1.7185
G01 X-15.5168 Y1.7827
G01 X-15.4803 Y1.8227
G01 X-5.6283 Y1.8227
G01 X-5.5919 Y1.7827
G01 X-5.5209 Y1.7185
G01 X-5.4450 Y1.6623
G01 X-5.3640 Y1.6137
G01 X-5.2764 Y1.5722
G01 X-5.1887 Y1.5408
G01 X-5.0923 Y1.5165
G01 X-4.9989 Y1.5027
G01 X-4.9045 Y1.4980
G01 X-3.7029 Y1.4981
G01 X-3.6098 Y1.5027
G01 X-3.5151 Y1.5167
G01 X-3.4223 Y1.5400
G01 X-3.3322 Y1.5722
G01 X-3.2457 Y1.6131
G01 X-3.1636 Y1.6623
G01 X-3.0868 Y1.7193
G01 X-3.0177 Y1.7819
G01 X-2.9516 Y1.8545
G01 X-2.8961 Y1.9293
G01 X-2.8443 Y2.0156
G01 X-2.8045 Y2.0999
G01 X-2.7723 Y2.1900
G01 X-2.7491 Y2.2828
G01 X-2.7352 Y2.3762
G01 X-2.7303 Y2.4730
G01 X-2.7350 Y2.5686
G01 X-2.7491 Y2.6632
G01 X-2.7723 Y2.7560
G01 X-2.8045 Y2.8461
G01 X-2.8454 Y2.9326
G01 X-2.8946 Y3.0147
G01 X-2.9524 Y3.0925
G01 X-3.0159 Y3.1624
G01 X-3.0868 Y3.2267
G01 X-3.1636 Y3.2837
G01 X-3.2468 Y3.3334
G01 X-3.3322 Y3.3738
G01 X-3.4235 Y3.4064
G01 X-3.5163 Y3.4295
G01 X-3.6085 Y3.4432
G01 X-3.6540 Y3.4455
G01 X-3.6540 Y4.1206
G01 X-3.3800 Y4.3947
G01 X19.0613 Y4.3947
G01 X19.4144 Y4.0416
G01 X19.4144 Y-0.1346
G01 X16.9522 Y-2.5969
G01 X16.9110 Y-2.6425
G01 X16.8730 Y-2.6937
G01 X16.8402 Y-2.7485
G01 X16.8139 Y-2.8039
G01 X16.7907 Y-2.8686
G01 X16.7759 Y-2.9281
G01 X16.7664 Y-2.9925
G01 X16.7634 Y-3.0550
G01 X16.7634 Y-20.6762
G01 X16.7665 Y-20.7387
G01 X16.7759 Y-20.8019
G01 X16.7914 Y-20.8638
G01 X16.8129 Y-20.9239
G01 X16.8402 Y-20.9815
G01 X16.8730 Y-21.0363
G01 X16.9110 Y-21.0875
G01 X16.9522 Y-21.1331
G01 X17.0011 Y-21.1777
G01 X17.0504 Y-21.2143
G01 X17.1093 Y-21.2496
G01 X17.1648 Y-21.2758
G01 X17.2249 Y-21.2973
G01 X17.2868 Y-21.3128
G01 X17.3512 Y-21.3223
G01 X17.4137 Y-21.3253
G01 X17.4774 Y-21.3222
G01 X17.5405 Y-21.3128
G01 X17.6025 Y-21.2973
G01 X17.6625 Y-21.2758
G01 X17.7202 Y-21.2485
G01 X17.7750 Y-21.2157
G01 X17.8281 Y-21.1761
G01 X17.8735 Y-21.1348
G01 X17.9179 Y-21.0856
G01 X17.9544 Y-21.0363
G01 X17.9860 Y-20.9837
G01 X18.0135 Y-20.9261
G01 X18.0360 Y-20.8638
G01 X18.0515 Y-20.8019
G01 X18.0608 Y-20.7387
G01 X18.0639 Y-20.6775
G01 X18.0640 Y-3.3244
G01 X20.5254 Y-0.8630
G01 X20.5674 Y-0.8165
G01 X20.6040 Y-0.7673
G01 X20.6382 Y-0.7105
G01 X20.6664 Y-0.6506
G01 X20.6870 Y-0.5928
G01 X20.7025 Y-0.5309
G00 Z3.0000
G00 X12.3549 Y-13.9086
G01 F60.00
G01 Z0.0000
G01 F120.00
G01 X12.4407 Y-13.9130
G01 X13.2407 Y-13.9130
G01 X13.3240 Y-13.9089
G01 X13.4053 Y-13.8969
G01 X13.4898 Y-13.8756
G01 X13.5660 Y-13.8483
G01 X13.6414 Y-13.8126
G01 X13.7149 Y-13.7683
G01 X13.7799 Y-13.7201
G01 X13.8408 Y-13.6649
G01 X13.8977 Y-13.6022
G01 X13.9474 Y-13.5352
G01 X13.9903 Y-13.4637
G01 X14.0260 Y-13.3883
G01 X14.0541 Y-13.3097
G01 X14.0743 Y-13.2288
G01 X14.0866 Y-13.1463
G01 X14.0907 Y-13.0630
G01 X14.0866 Y-12.9797
G01 X14.0743 Y-12.8972
G01 X14.0541 Y-12.8163
G01 X14.0260 Y-12.7377
G01 X13.9903 Y-12.6623
G01 X13.9474 Y-12.5908
G01 X13.8977 Y-12.5238
G01 X13.8426 Y-12.4628
G01 X13.7799 Y-12.4059
G01 X13.7129 Y-12.3563
G01 X13.6414 Y-12.3134
G01 X13.5660 Y-12.2777
G01 X13.4874 Y-12.2496
G01 X13.4065 Y-12.2293
G01 X13.3240 Y-12.2171
G01 X13.2407 Y-12.2130
G01 X12.4395 Y-12.2130
G01 X12.3574 Y-12.2171
G01 X12.2761 Y-12.2291
G01 X12.1916 Y-12.2504
G01 X12.1154 Y-12.2777
G01 X12.0400 Y-12.3134
G01 X11.9664 Y-12.3577
G01 X11.9014 Y-12.4059
G01 X11.8405 Y-12.4611
G01 X11.7821 Y-12.5257
G01 X11.7339 Y-12.5908
G01 X11.6910 Y-12.6623
G01 X11.6545 Y-12.7400
G01 X11.6273 Y-12.8163
G01 X11.6076 Y-12.8948
G01 X11.5948 Y-12.9797
G01 X11.5907 Y-13.0655
G01 X11.5948 Y-13.1463
G01 X11.6066 Y-13.2264
G01 X11.6281 Y-13.3121
G01 X11.6554 Y-13.3883
G01 X11.6899 Y-13.4615
G01 X11.7339 Y-13.5352
G01 X11.7836 Y-13.6022
G01 X11.8379 Y-13.6623
G01 X11.9014 Y-13.7201
G01 X11.9684 Y-13.7697
G01 X12.0379 Y-13.8114
G01 X12.1154 Y-13.8483
G01 X12.1963 Y-13.8771
G01 X12.2749 Y-13.8967
G01 X12.3549 Y-13.9086
G00 Z3.0000
G00 X12.3549 Y-16.4486
G01 F60.00
G01 Z0.0000
G01 F120.00
G01 X12.4407 Y-16.4530
G01 X13.2407 Y-16.4530
G01 X13.3240 Y-16.4489
G01 X13.4053 Y-16.4369
G01 X13.4898 Y-16.4156
G01 X13.5660 Y-16.3883
G01 X13.6414 Y-16.3526
G01 X13.7149 Y-16.3083
G01 X13.7799 Y-16.2601
G01 X13.8408 Y-16.2049
G01 X13.8977 Y-16.1422
G01 X13.9474 Y-16.0752
G01 X13.9903 Y-16.0037
G01 X14.0260 Y-15.9283
G01 X14.0541 Y-15.8497
G01 X14.0743 Y-15.7688
G01 X14.0866 Y-15.6863
G01 X14.0907 Y-15.6030
G01 X14.0866 Y-15.5197
G01 X14.0743 Y-15.4372
G01 X14.0541 Y-15.3563
G01 X14.0260 Y-15.2777
G01 X13.9903 Y-15.2023
G01 X13.9474 Y-15.1308
G01 X13.8977 Y-15.0638
G01 X13.8426 Y-15.0028
G01 X13.7799 Y-14.9459
G01 X13.7129 Y-14.8963
G01 X13.6414 Y-14.8534
G01 X13.5660 Y-14.8177
G01 X13.4874 Y-14.7896
G01 X13.4065 Y-14.7693
G01 X13.3240 Y-14.7571
G01 X13.2407 Y-14.7530
G01 X12.4395 Y-14.7530
G01 X12.3574 Y-14.7571
G01 X12.2761 Y-14.7691
G01 X12.1916 Y-14.7904
G01 X12.1154 Y-14.8177
G01 X12.0400 Y-14.8534
G01 X11.9664 Y-14.8977
G01 X11.9014 Y-14.9459
G01 X11.8405 Y-15.0011
G01 X11.7821 Y-15.0657
G01 X11.7339 Y-15.1308
G01 X11.6910 Y-15.2023
G01 X11.6545 Y-15.2800
G01 X11.6273 Y-15.3563
G01 X11.6076 Y-15.4348
G01 X11.5948 Y-15.5197
G01 X11.5907 Y-15.6055
G01 X11.5948 Y-15.6863
G01 X11.6066 Y-15.7664
G01 X11.6281 Y-15.8521
G01 X11.6554 Y-15.9283
G01 X11.6899 Y-16.0015
G01 X11.7339 Y-16.0752
G01 X11.7836 Y-16.1422
G01 X11.8379 Y-16.2023
G01 X11.9014 Y-16.2601
G01 X11.9684 Y-16.3097
G01 X12.0379 Y-16.3514
G01 X12.1154 Y-16.3883
G01 X12.1963 Y-16.4171
G01 X12.2749 Y-16.4367
G01 X12.3549 Y-16.4486
G00 Z3.0000
G00 X12.3549 Y-18.9886
G01 F60.00
G01 Z0.0000
G01 F120.00
G01 X12.4407 Y-18.9930
G01 X13.2407 Y-18.9930
G01 X13.3240 Y-18.9889
G01 X13.4053 Y-18.9769
G01 X13.4898 Y-18.9556
G01 X13.5660 Y-18.9283
G01 X13.6414 Y-18.8926
G01 X13.7149 Y-18.8483
G01 X13.7799 Y-18.8001
G01 X13.8408 Y-18.7449
G01 X13.8977 Y-18.6822
G01 X13.9474 Y-18.6152
G01 X13.9903 Y-18.5437
G01 X14.0260 Y-18.4683
G01 X14.0541 Y-18.3897
G01 X14.0743 Y-18.3088
G01 X14.0866 Y-18.2263
G01 X14.0907 Y-18.1430
G01 X14.0866 Y-18.0597
G01 X14.0743 Y-17.9772
G01 X14.0541 Y-17.8963
G01 X14.0260 Y-17.8177
G01 X13.9903 Y-17.7423
G01 X13.9474 Y-17.6708
G01 X13.8977 Y-17.6038
G01 X13.8426 Y-17.5428
G01 X13.7799 Y-17.4859
G01 X13.7129 Y-17.4363
G01 X13.6414 Y-17.3934
G01 X13.5660 Y-17.3577
G01 X13.4874 Y-17.3296
G01 X13.4065 Y-17.3093
G01 X13.3240 Y-17.2971
G01 X13.2407 Y-17.2930
G01 X12.4395 Y-17.2930
G01 X12.3574 Y-17.2971
G01 X12.2761 Y-17.3091
G01 X12.1916 Y-17.3304
G01 X12.1154 Y-17.3577
G01 X12.0400 Y-17.3934
G01 X11.9664 Y-17.4377
G01 X11.9014 Y-17.4859
G01 X11.8405 Y-17.5411
G01 X11.7821 Y-17.6057
G01 X11.7339 Y-17.6708
G01 X11.6910 Y-17.7423
G01 X11.6545 Y-17.8200
G01 X11.6273 Y-17.8963
G01 X11.6076 Y-17.9748
G01 X11.5948 Y-18.0597
G01 X11.5907 Y-18.1455
G01 X11.5948 Y-18.2263
G01 X11.6066 Y-18.3064
G01 X11.6281 Y-18.3921
G01 X11.6554 Y-18.4683
G01 X11.6899 Y-18.5415
G01 X11.7339 Y-18.6152
G01 X11.7836 Y-18.6822
G01 X11.8379 Y-18.7423
G01 X11.9014 Y-18.8001
G01 X11.9684 Y-18.8497
G01 X12.0379 Y-18.8914
G01 X12.1154 Y-18.9283
G01 X12.1963 Y-18.9571
G01 X12.2749 Y-18.9767
G01 X12.3549 Y-18.9886
G00 Z3.0000
G00 X12.3549 Y-21.5286
G01 F60.00
G01 Z0.0000
G01 F120.00
G01 X12.4407 Y-21.5330
G01 X13.2407 Y-21.5330
G01 X13.3240 Y-21.5289
G01 X13.4053 Y-21.5169
G01 X13.4898 Y-21.4956
G01 X13.5660 Y-21.4683
G01 X13.6414 Y-21.4326
G01 X13.7149 Y-21.3883
G01 X13.7799 Y-21.3401
G01 X13.8408 Y-21.2849
G01 X13.8977 Y-21.2222
G01 X13.9474 Y-21.1552
G01 X13.9903 Y-21.0837
G01 X14.0260 Y-21.0083
G01 X14.0541 Y-20.9297
G01 X14.0743 Y-20.8488
G01 X14.0866 Y-20.7663
G01 X14.0907 Y-20.6830
G01 X14.0866 Y-20.5997
G01 X14.0743 Y-20.5172
G01 X14.0541 Y-20.4363
G01 X14.0260 Y-20.3577
G01 X13.9903 Y-20.2823
G01 X13.9474 Y-20.2108
G01 X13.8977 Y-20.1438
G01 X13.8426 Y-20.0828
G01 X13.7799 Y-20.0259
G01 X13.7129 Y-19.9763
G01 X13.6414 Y-19.9334
G01 X13.5660 Y-19.8977
G01 X13.4874 Y-19.8696
G01 X13.4065 Y-19.8493
G01 X13.3240 Y-19.8371
G01 X13.2407 Y-19.8330
G01 X12.4395 Y-19.8330
G01 X12.3574 Y-19.8371
G01 X12.2761 Y-19.8491
G01 X12.1916 Y-19.8704
G01 X12.1154 Y-19.8977
G01 X12.0400 Y-19.9334
G01 X11.9664 Y-19.9777
G01 X11.9014 Y-20.0259
G01 X11.8405 Y-20.0811
G01 X11.7821 Y-20.1457
G01 X11.7339 Y-20.2108
G01 X11.6910 Y-20.2823
G01 X11.6545 Y-20.3600
G01 X11.6273 Y-20.4363
G01 X11.6076 Y-20.5148
G01 X11.5948 Y-20.5997
G01 X11.5907 Y-20.6855
G01 X11.5948 Y-20.7663
G01 X11.6066 Y-20.8464
G01 X11.6281 Y-20.9321
G01 X11.6554 Y-21.0083
G01 X11.6899 Y-21.0815
G01 X11.7339 Y-21.1552
G01 X11.7836 Y-21.2222
G01 X11.8379 Y-21.2823
G01 X11.9014 Y-21.3401
G01 X11.9684 Y-21.3897
G01 X12.0379 Y-21.4314
G01 X12.1154 Y-21.4683
G01 X12.1963 Y-21.4971
G01 X12.2749 Y-21.5167
G01 X12.3549 Y-21.5286
G00 Z3.0000
G00 X12.3451 Y-21.6181
G01 F60.00
G01 Z0.0000
G01 F120.00
G01 X12.3554 Y-21.6190
G01 X12.4407 Y-21.6230
G01 X13.2407 Y-21.6230
G01 X13.3260 Y-21.6190
G01 X13.3396 Y-21.6176
G01 X13.4173 Y-21.6061
G01 X13.4308 Y-21.6034
G01 X13.5135 Y-21.5825
G01 X13.5972 Y-21.5527
G01 X13.6067 Y-21.5487
G01 X13.6838 Y-21.5120
G01 X13.7571 Y-21.4683
G01 X13.7685 Y-21.4606
G01 X13.8370 Y-21.4096
G01 X13.9004 Y-21.3524
G01 X13.9101 Y-21.3427
G01 X13.9651 Y-21.2820
G01 X13.9715 Y-21.2739
G01 X14.0223 Y-21.2052
G01 X14.0663 Y-21.1321
G01 X14.0713 Y-21.1231
G01 X14.1063 Y-21.0490
G01 X14.1104 Y-21.0395
G01 X14.1392 Y-20.9591
G01 X14.1420 Y-20.9492
G01 X14.1502 Y-20.9166
G01 X14.1581 Y-20.9375
G01 X14.1862 Y-20.9969
G01 X14.1912 Y-21.0060
G01 X14.2233 Y-21.0594
G01 X14.2291 Y-21.0679
G01 X14.2684 Y-21.1207
G01 X14.3172 Y-21.1745
G01 X16.8892 Y-23.7465
G01 X16.9430 Y-23.7953
G01 X16.9958 Y-23.8346
G01 X17.0043 Y-23.8404
G01 X17.0577 Y-23.8725
G01 X17.0698 Y-23.8790
G01 X17.1294 Y-23.9069
G01 X17.1913 Y-23.9293
G01 X17.2044 Y-23.9333
G01 X17.2683 Y-23.9491
G01 X17.3401 Y-23.9597
G01 X17.4127 Y-23.9633
G01 X17.4784 Y-23.9602
G01 X17.4921 Y-23.9589
G01 X17.5571 Y-23.9491
G01 X17.6210 Y-23.9333
G01 X17.6341 Y-23.9293
G01 X17.6896 Y-23.9094
G01 X17.7023 Y-23.9042
G01 X17.7617 Y-23.8759
G01 X17.8240 Y-23.8385
G01 X17.8823 Y-23.7953
G01 X17.9312 Y-23.7512
G01 X17.9409 Y-23.7415
G01 X17.9805 Y-23.6978
G01 X17.9892 Y-23.6872
G01 X18.0282 Y-23.6343
G01 X18.0622 Y-23.5780
G01 X18.0687 Y-23.5658
G01 X18.0966 Y-23.5063
G01 X18.1211 Y-23.4379
G01 X18.1372 Y-23.3741
G01 X18.1399 Y-23.3607
G01 X18.1494 Y-23.2956
G01 X18.1528 Y-23.2299
G01 X18.1528 Y-23.2161
G01 X18.1494 Y-23.1504
G01 X18.1388 Y-23.0786
G01 X18.1229 Y-23.0147
G01 X18.1189 Y-23.0016
G01 X18.0966 Y-22.9397
G01 X18.0687 Y-22.8802
G01 X18.0622 Y-22.8680
G01 X18.0282 Y-22.8117
G01 X17.9849 Y-22.7534
G01 X17.9362 Y-22.6995
G01 X15.5810 Y-20.3444
G01 X15.5810 Y-0.0246
G01 X17.0136 Y1.4080
G01 X17.6341 Y1.4080
G01 X17.7351 Y1.4131
G01 X17.8317 Y1.4273
G01 X17.8418 Y1.4292
G01 X17.9398 Y1.4539
