(G-CODE GENERATED BY FLATCAM v8.994 - www.flatcam.org - Version Date: 2020/11/7)

(Name: OFICINA-TELE-ENCHUFES-INTERFAZ-B_Mask.gbr_iso_combined_cnc)
(Type: G-code from Geometry)
(Units: MM)

(Created on lunes, 26 julio 2021 at 04:29)

(This preprocessor is the default preprocessor used by FlatCAM.)
(It is made to work with MACH3 compatible motion controllers.)

(TOOL DIAMETER: 0.1 mm)
(Feedrate_XY: 120.0 mm/min)
(Feedrate_Z: 60.0 mm/min)
(Feedrate rapids 1500.0 mm/min)

(Z_Cut: -0.0 mm)
(Z_Move: 2.0 mm)
(Z Start: None mm)
(Z End: 15.0 mm)
(X,Y End: None mm)
(Steps per circle: 64)
(Preprocessor Geometry: default)

(X range:    2.6468 ...   83.2058  mm)
(Y range:    3.3127 ...   69.1077  mm)

(Spindle Speed: 0.0 RPM)
G21
G90
G94

G01 F120.00

M5
G00 Z15.0000
G00 X0.0000 Y0.0000
T1
M6    
(MSG, Change to Tool Dia = 0.1000)
M0
G00 Z15.0000

M03
G01 F120.00
G00 X3.9748 Y12.8735
G01 F60.00
G01 Z-0.0000
G01 F120.00
G01 X4.0581 Y12.8945
G01 X4.1389 Y12.9233
G01 X4.2189 Y12.9609
G01 X4.2968 Y13.0074
G01 X4.3678 Y13.0600
G01 X4.4332 Y13.1193
G01 X4.4940 Y13.1867
G01 X4.5464 Y13.2578
G01 X4.5905 Y13.3314
G01 X4.6273 Y13.4090
G01 X4.6580 Y13.4944
G01 X4.6795 Y13.5801
G01 X4.6925 Y13.6675
G01 X4.6967 Y13.7582
G01 X4.6922 Y13.8464
G01 X4.6795 Y13.9313
G01 X4.6587 Y14.0146
G01 X4.6283 Y14.1001
G01 X4.5911 Y14.1789
G01 X4.5451 Y14.2557
G01 X4.4925 Y14.3267
G01 X4.4332 Y14.3921
G01 X4.3678 Y14.4514
G01 X4.2968 Y14.5040
G01 X4.2211 Y14.5494
G01 X4.1412 Y14.5872
G01 X4.0557 Y14.6176
G01 X3.9724 Y14.6384
G01 X3.8826 Y14.6515
G01 X3.7980 Y14.6557
G01 X3.5468 Y14.6557
G01 X3.4598 Y14.6515
G01 X3.3712 Y14.6384
G01 X3.2855 Y14.6169
G01 X3.2024 Y14.5872
G01 X3.1236 Y14.5500
G01 X3.0468 Y14.5040
G01 X2.9758 Y14.4514
G01 X2.9104 Y14.3921
G01 X2.8511 Y14.3267
G01 X2.7985 Y14.2557
G01 X2.7531 Y14.1800
G01 X2.7153 Y14.1001
G01 X2.6856 Y14.0170
G01 X2.6641 Y13.9313
G01 X2.6511 Y13.8439
G01 X2.6468 Y13.7557
G01 X2.6511 Y13.6675
G01 X2.6641 Y13.5801
G01 X2.6856 Y13.4944
G01 X2.7153 Y13.4113
G01 X2.7525 Y13.3325
G01 X2.7985 Y13.2557
G01 X2.8496 Y13.1867
G01 X2.9122 Y13.1176
G01 X2.9758 Y13.0600
G01 X3.0468 Y13.0074
G01 X3.1225 Y12.9620
G01 X3.2035 Y12.9238
G01 X3.2855 Y12.8945
G01 X3.3688 Y12.8735
G01 X3.4598 Y12.8599
G01 X3.5456 Y12.8557
G01 X3.7980 Y12.8557
G01 X3.8850 Y12.8600
G01 X3.9748 Y12.8735
G00 Z2.0000
G00 X3.9748 Y15.3735
G01 F60.00
G01 Z-0.0000
G01 F120.00
G01 X4.0581 Y15.3945
G01 X4.1389 Y15.4233
G01 X4.2189 Y15.4609
G01 X4.2968 Y15.5074
G01 X4.3678 Y15.5600
G01 X4.4332 Y15.6193
G01 X4.4940 Y15.6867
G01 X4.5464 Y15.7578
G01 X4.5905 Y15.8314
G01 X4.6273 Y15.9090
G01 X4.6580 Y15.9944
G01 X4.6795 Y16.0801
G01 X4.6925 Y16.1675
G01 X4.6967 Y16.2582
G01 X4.6922 Y16.3464
G01 X4.6795 Y16.4313
G01 X4.6587 Y16.5146
G01 X4.6283 Y16.6001
G01 X4.5911 Y16.6789
G01 X4.5451 Y16.7557
G01 X4.4925 Y16.8267
G01 X4.4332 Y16.8921
G01 X4.3678 Y16.9514
G01 X4.2968 Y17.0040
G01 X4.2211 Y17.0494
G01 X4.1412 Y17.0872
G01 X4.0557 Y17.1176
G01 X3.9724 Y17.1384
G01 X3.8826 Y17.1515
G01 X3.7980 Y17.1557
G01 X3.5468 Y17.1557
G01 X3.4598 Y17.1515
G01 X3.3712 Y17.1384
G01 X3.2855 Y17.1169
G01 X3.2024 Y17.0872
G01 X3.1236 Y17.0500
G01 X3.0468 Y17.0040
G01 X2.9758 Y16.9514
G01 X2.9104 Y16.8921
G01 X2.8511 Y16.8267
G01 X2.7985 Y16.7557
G01 X2.7531 Y16.6800
G01 X2.7153 Y16.6001
G01 X2.6856 Y16.5170
G01 X2.6641 Y16.4313
G01 X2.6511 Y16.3439
G01 X2.6468 Y16.2557
G01 X2.6511 Y16.1675
G01 X2.6641 Y16.0801
G01 X2.6856 Y15.9944
G01 X2.7153 Y15.9113
G01 X2.7525 Y15.8325
G01 X2.7985 Y15.7557
G01 X2.8496 Y15.6867
G01 X2.9122 Y15.6176
G01 X2.9758 Y15.5600
G01 X3.0468 Y15.5074
G01 X3.1225 Y15.4620
G01 X3.2035 Y15.4238
G01 X3.2855 Y15.3945
G01 X3.3688 Y15.3735
G01 X3.4598 Y15.3599
G01 X3.5456 Y15.3557
G01 X3.7980 Y15.3557
G01 X3.8850 Y15.3600
G01 X3.9748 Y15.3735
G00 Z2.0000
G00 X3.9748 Y17.8735
G01 F60.00
G01 Z-0.0000
G01 F120.00
G01 X4.0581 Y17.8945
G01 X4.1389 Y17.9233
G01 X4.2189 Y17.9609
G01 X4.2968 Y18.0074
G01 X4.3678 Y18.0600
G01 X4.4332 Y18.1193
G01 X4.4940 Y18.1867
G01 X4.5464 Y18.2578
G01 X4.5905 Y18.3314
G01 X4.6273 Y18.4090
G01 X4.6580 Y18.4944
G01 X4.6795 Y18.5801
G01 X4.6925 Y18.6675
G01 X4.6967 Y18.7582
G01 X4.6922 Y18.8464
G01 X4.6795 Y18.9313
G01 X4.6587 Y19.0146
G01 X4.6283 Y19.1001
G01 X4.5911 Y19.1789
G01 X4.5451 Y19.2557
G01 X4.4925 Y19.3267
G01 X4.4332 Y19.3921
G01 X4.3678 Y19.4514
G01 X4.2968 Y19.5040
G01 X4.2211 Y19.5494
G01 X4.1412 Y19.5872
G01 X4.0557 Y19.6176
G01 X3.9724 Y19.6384
G01 X3.8826 Y19.6515
G01 X3.7980 Y19.6557
G01 X3.5468 Y19.6557
G01 X3.4598 Y19.6515
G01 X3.3712 Y19.6384
G01 X3.2855 Y19.6169
G01 X3.2024 Y19.5872
G01 X3.1236 Y19.5500
G01 X3.0468 Y19.5040
G01 X2.9758 Y19.4514
G01 X2.9104 Y19.3921
G01 X2.8511 Y19.3267
G01 X2.7985 Y19.2557
G01 X2.7531 Y19.1800
G01 X2.7153 Y19.1001
G01 X2.6856 Y19.0170
G01 X2.6641 Y18.9313
G01 X2.6511 Y18.8439
G01 X2.6468 Y18.7557
G01 X2.6511 Y18.6675
G01 X2.6641 Y18.5801
G01 X2.6856 Y18.4944
G01 X2.7153 Y18.4113
G01 X2.7525 Y18.3325
G01 X2.7985 Y18.2557
G01 X2.8496 Y18.1867
G01 X2.9122 Y18.1176
G01 X2.9758 Y18.0600
G01 X3.0468 Y18.0074
G01 X3.1225 Y17.9620
G01 X3.2035 Y17.9238
G01 X3.2855 Y17.8945
G01 X3.3688 Y17.8735
G01 X3.4598 Y17.8599
G01 X3.5456 Y17.8557
G01 X3.7980 Y17.8557
G01 X3.8850 Y17.8600
G01 X3.9748 Y17.8735
G00 Z2.0000
G00 X3.9748 Y20.3735
G01 F60.00
G01 Z-0.0000
G01 F120.00
G01 X4.0581 Y20.3945
G01 X4.1389 Y20.4233
G01 X4.2189 Y20.4609
G01 X4.2968 Y20.5074
G01 X4.3678 Y20.5600
G01 X4.4332 Y20.6193
G01 X4.4940 Y20.6867
G01 X4.5464 Y20.7578
G01 X4.5905 Y20.8314
G01 X4.6273 Y20.9090
G01 X4.6580 Y20.9944
G01 X4.6795 Y21.0801
G01 X4.6925 Y21.1675
G01 X4.6967 Y21.2582
G01 X4.6922 Y21.3464
G01 X4.6795 Y21.4313
G01 X4.6587 Y21.5146
G01 X4.6283 Y21.6001
G01 X4.5911 Y21.6789
G01 X4.5451 Y21.7557
G01 X4.4925 Y21.8267
G01 X4.4332 Y21.8921
G01 X4.3678 Y21.9514
G01 X4.2968 Y22.0040
G01 X4.2211 Y22.0494
G01 X4.1412 Y22.0872
G01 X4.0557 Y22.1176
G01 X3.9724 Y22.1384
G01 X3.8826 Y22.1515
G01 X3.7980 Y22.1557
G01 X3.5468 Y22.1557
G01 X3.4598 Y22.1515
G01 X3.3712 Y22.1384
G01 X3.2855 Y22.1169
G01 X3.2024 Y22.0872
G01 X3.1236 Y22.0500
G01 X3.0468 Y22.0040
G01 X2.9758 Y21.9514
G01 X2.9104 Y21.8921
G01 X2.8511 Y21.8267
G01 X2.7985 Y21.7557
G01 X2.7531 Y21.6800
G01 X2.7153 Y21.6001
G01 X2.6856 Y21.5170
G01 X2.6641 Y21.4313
G01 X2.6511 Y21.3439
G01 X2.6468 Y21.2557
G01 X2.6511 Y21.1675
G01 X2.6641 Y21.0801
G01 X2.6856 Y20.9944
G01 X2.7153 Y20.9113
G01 X2.7525 Y20.8325
G01 X2.7985 Y20.7557
G01 X2.8496 Y20.6867
G01 X2.9122 Y20.6176
G01 X2.9758 Y20.5600
G01 X3.0468 Y20.5074
G01 X3.1225 Y20.4620
G01 X3.2035 Y20.4238
G01 X3.2855 Y20.3945
G01 X3.3688 Y20.3735
G01 X3.4598 Y20.3599
G01 X3.5456 Y20.3557
G01 X3.7980 Y20.3557
G01 X3.8850 Y20.3600
G01 X3.9748 Y20.3735
G00 Z2.0000
G00 X3.9748 Y22.8735
G01 F60.00
G01 Z-0.0000
G01 F120.00
G01 X4.0581 Y22.8945
G01 X4.1389 Y22.9233
G01 X4.2189 Y22.9609
G01 X4.2968 Y23.0074
G01 X4.3678 Y23.0600
G01 X4.4332 Y23.1193
G01 X4.4940 Y23.1867
G01 X4.5464 Y23.2578
G01 X4.5905 Y23.3314
G01 X4.6273 Y23.4090
G01 X4.6580 Y23.4944
G01 X4.6795 Y23.5801
G01 X4.6925 Y23.6675
G01 X4.6967 Y23.7582
G01 X4.6922 Y23.8464
G01 X4.6795 Y23.9313
G01 X4.6587 Y24.0146
G01 X4.6283 Y24.1001
G01 X4.5911 Y24.1789
G01 X4.5451 Y24.2557
G01 X4.4925 Y24.3267
G01 X4.4332 Y24.3921
G01 X4.3678 Y24.4514
G01 X4.2968 Y24.5040
G01 X4.2211 Y24.5494
G01 X4.1412 Y24.5872
G01 X4.0557 Y24.6176
G01 X3.9724 Y24.6384
G01 X3.8826 Y24.6515
G01 X3.7980 Y24.6557
G01 X3.5468 Y24.6557
G01 X3.4598 Y24.6515
G01 X3.3712 Y24.6384
G01 X3.2855 Y24.6169
G01 X3.2024 Y24.5872
G01 X3.1236 Y24.5500
G01 X3.0468 Y24.5040
G01 X2.9758 Y24.4514
G01 X2.9104 Y24.3921
G01 X2.8511 Y24.3267
G01 X2.7985 Y24.2557
G01 X2.7531 Y24.1800
G01 X2.7153 Y24.1001
G01 X2.6856 Y24.0170
G01 X2.6641 Y23.9313
G01 X2.6511 Y23.8439
G01 X2.6468 Y23.7557
G01 X2.6511 Y23.6675
G01 X2.6641 Y23.5801
G01 X2.6856 Y23.4944
G01 X2.7153 Y23.4113
G01 X2.7525 Y23.3325
G01 X2.7985 Y23.2557
G01 X2.8496 Y23.1867
G01 X2.9122 Y23.1176
G01 X2.9758 Y23.0600
G01 X3.0468 Y23.0074
G01 X3.1225 Y22.9620
G01 X3.2035 Y22.9238
G01 X3.2855 Y22.8945
G01 X3.3688 Y22.8735
G01 X3.4598 Y22.8599
G01 X3.5456 Y22.8557
G01 X3.7980 Y22.8557
G01 X3.8850 Y22.8600
G01 X3.9748 Y22.8735
G00 Z2.0000
G00 X4.4577 Y25.3620
G01 F60.00
G01 Z-0.0000
G01 F120.00
G01 X4.4839 Y25.3686
G01 X4.5093 Y25.3777
G01 X4.5404 Y25.3923
G01 X4.5635 Y25.4063
G01 X4.5871 Y25.4238
G01 X4.6089 Y25.4436
G01 X4.6271 Y25.4635
G01 X4.6476 Y25.4911
G01 X4.6614 Y25.5143
G01 X4.6740 Y25.5409
G01 X4.6839 Y25.5686
G01 X4.6905 Y25.5948
G01 X4.6954 Y25.6263
G01 X4.6968 Y25.6557
G01 X4.6968 Y26.8557
G01 X4.6955 Y26.8827
G01 X4.6910 Y26.9142
G01 X4.6845 Y26.9404
G01 X4.6730 Y26.9727
G01 X4.6614 Y26.9971
G01 X4.6462 Y27.0224
G01 X4.6287 Y27.0460
G01 X4.6089 Y27.0678
G01 X4.5871 Y27.0876
G01 X4.5635 Y27.1051
G01 X4.5382 Y27.1203
G01 X4.5116 Y27.1329
G01 X4.4839 Y27.1428
G01 X4.4553 Y27.1499
G01 X4.4262 Y27.1543
G01 X4.3968 Y27.1557
G01 X2.9468 Y27.1557
G01 X2.9198 Y27.1544
G01 X2.8883 Y27.1499
G01 X2.8621 Y27.1434
G01 X2.8298 Y27.1319
G01 X2.8054 Y27.1203
G01 X2.7801 Y27.1051
G01 X2.7565 Y27.0876
G01 X2.7347 Y27.0678
G01 X2.7149 Y27.0460
G01 X2.6974 Y27.0224
G01 X2.6822 Y26.9971
G01 X2.6696 Y26.9705
G01 X2.6597 Y26.9428
G01 X2.6526 Y26.9142
G01 X2.6482 Y26.8851
G01 X2.6468 Y26.8557
G01 X2.6468 Y25.6557
G01 X2.6481 Y25.6275
G01 X2.6526 Y25.5972
G01 X2.6591 Y25.5710
G01 X2.6706 Y25.5387
G01 X2.6822 Y25.5143
G01 X2.6974 Y25.4890
G01 X2.7149 Y25.4654
G01 X2.7347 Y25.4436
G01 X2.7565 Y25.4238
G01 X2.7801 Y25.4063
G01 X2.8054 Y25.3911
G01 X2.8320 Y25.3785
G01 X2.8597 Y25.3686
G01 X2.8883 Y25.3615
G01 X2.9174 Y25.3571
G01 X2.9443 Y25.3558
G01 X4.3968 Y25.3557
G01 X4.4262 Y25.3571
G01 X4.4577 Y25.3620
G00 Z2.0000
G00 X16.9860 Y21.1096
G01 F60.00
G01 Z-0.0000
G01 F120.00
G01 X17.0645 Y21.1293
G01 X17.1408 Y21.1565
G01 X17.2185 Y21.1931
G01 X17.2900 Y21.2360
G01 X17.3551 Y21.2841
G01 X17.4188 Y21.3417
G01 X17.4749 Y21.4035
G01 X17.5231 Y21.4685
G01 X17.5674 Y21.5420
G01 X17.6040 Y21.6197
G01 X17.6312 Y21.6960
G01 X17.6509 Y21.7745
G01 X17.6637 Y21.8594
G01 X17.6677 Y21.9452
G01 X17.6637 Y22.0260
G01 X17.6519 Y22.1061
G01 X17.6304 Y22.1918
G01 X17.6031 Y22.2680
G01 X17.5685 Y22.3412
G01 X17.5245 Y22.4149
G01 X17.4733 Y22.4838
G01 X17.4188 Y22.5437
G01 X17.3580 Y22.5990
G01 X17.2880 Y22.6508
G01 X17.2185 Y22.6923
G01 X17.1431 Y22.7280
G01 X17.0622 Y22.7568
G01 X16.9836 Y22.7764
G01 X16.9023 Y22.7885
G01 X16.8178 Y22.7927
G01 X16.0178 Y22.7927
G01 X15.9369 Y22.7888
G01 X15.8520 Y22.7764
G01 X15.7711 Y22.7561
G01 X15.6925 Y22.7280
G01 X15.6171 Y22.6923
G01 X15.5456 Y22.6494
G01 X15.4786 Y22.5998
G01 X15.4168 Y22.5437
G01 X15.3615 Y22.4829
G01 X15.3111 Y22.4149
G01 X15.2682 Y22.3434
G01 X15.2325 Y22.2680
G01 X15.2044 Y22.1894
G01 X15.1841 Y22.1085
G01 X15.1719 Y22.0260
G01 X15.1678 Y21.9427
G01 X15.1719 Y21.8594
G01 X15.1841 Y21.7769
G01 X15.2044 Y21.6960
G01 X15.2325 Y21.6174
G01 X15.2682 Y21.5420
G01 X15.3111 Y21.4705
G01 X15.3607 Y21.4035
G01 X15.4168 Y21.3417
G01 X15.4776 Y21.2864
G01 X15.5476 Y21.2346
G01 X15.6171 Y21.1931
G01 X15.6925 Y21.1574
G01 X15.7734 Y21.1286
G01 X15.8520 Y21.1090
G01 X15.9333 Y21.0969
G01 X16.0178 Y21.0927
G01 X16.8178 Y21.0927
G01 X16.9011 Y21.0968
G01 X16.9860 Y21.1096
G00 Z2.0000
G00 X16.9860 Y18.5696
G01 F60.00
G01 Z-0.0000
G01 F120.00
G01 X17.0645 Y18.5893
G01 X17.1408 Y18.6165
G01 X17.2185 Y18.6531
G01 X17.2900 Y18.6960
G01 X17.3551 Y18.7441
G01 X17.4188 Y18.8017
G01 X17.4749 Y18.8635
G01 X17.5231 Y18.9285
G01 X17.5674 Y19.0020
G01 X17.6040 Y19.0797
G01 X17.6312 Y19.1560
G01 X17.6509 Y19.2345
G01 X17.6637 Y19.3194
G01 X17.6677 Y19.4052
G01 X17.6637 Y19.4860
G01 X17.6519 Y19.5661
G01 X17.6304 Y19.6518
G01 X17.6031 Y19.7280
G01 X17.5685 Y19.8012
G01 X17.5245 Y19.8749
G01 X17.4733 Y19.9438
G01 X17.4188 Y20.0037
G01 X17.3580 Y20.0590
G01 X17.2880 Y20.1108
G01 X17.2185 Y20.1523
G01 X17.1431 Y20.1880
G01 X17.0622 Y20.2168
G01 X16.9836 Y20.2364
G01 X16.9023 Y20.2485
G01 X16.8178 Y20.2527
G01 X16.0178 Y20.2527
G01 X15.9369 Y20.2488
G01 X15.8520 Y20.2364
G01 X15.7711 Y20.2161
G01 X15.6925 Y20.1880
G01 X15.6171 Y20.1523
G01 X15.5456 Y20.1094
G01 X15.4786 Y20.0598
G01 X15.4168 Y20.0037
G01 X15.3615 Y19.9429
G01 X15.3111 Y19.8749
G01 X15.2682 Y19.8034
G01 X15.2325 Y19.7280
G01 X15.2044 Y19.6494
G01 X15.1841 Y19.5685
G01 X15.1719 Y19.4860
G01 X15.1678 Y19.4027
G01 X15.1719 Y19.3194
G01 X15.1841 Y19.2369
G01 X15.2044 Y19.1560
G01 X15.2325 Y19.0774
G01 X15.2682 Y19.0020
G01 X15.3111 Y18.9305
G01 X15.3607 Y18.8635
G01 X15.4168 Y18.8017
G01 X15.4776 Y18.7464
G01 X15.5476 Y18.6946
G01 X15.6171 Y18.6531
G01 X15.6925 Y18.6174
G01 X15.7734 Y18.5886
G01 X15.8520 Y18.5690
G01 X15.9333 Y18.5569
G01 X16.0178 Y18.5527
G01 X16.8178 Y18.5527
G01 X16.9011 Y18.5568
G01 X16.9860 Y18.5696
G00 Z2.0000
G00 X16.9860 Y16.0296
G01 F60.00
G01 Z-0.0000
G01 F120.00
G01 X17.0645 Y16.0493
G01 X17.1408 Y16.0765
G01 X17.2185 Y16.1131
G01 X17.2900 Y16.1560
G01 X17.3551 Y16.2041
G01 X17.4188 Y16.2617
G01 X17.4749 Y16.3235
G01 X17.5231 Y16.3885
G01 X17.5674 Y16.4620
G01 X17.6040 Y16.5397
G01 X17.6312 Y16.6160
G01 X17.6509 Y16.6945
G01 X17.6637 Y16.7794
G01 X17.6677 Y16.8652
G01 X17.6637 Y16.9460
G01 X17.6519 Y17.0261
G01 X17.6304 Y17.1118
G01 X17.6031 Y17.1880
G01 X17.5685 Y17.2612
G01 X17.5245 Y17.3349
G01 X17.4733 Y17.4038
G01 X17.4188 Y17.4637
G01 X17.3580 Y17.5190
G01 X17.2880 Y17.5708
G01 X17.2185 Y17.6123
G01 X17.1431 Y17.6480
G01 X17.0622 Y17.6768
G01 X16.9836 Y17.6964
G01 X16.9023 Y17.7085
G01 X16.8178 Y17.7127
G01 X16.0178 Y17.7127
G01 X15.9369 Y17.7088
G01 X15.8520 Y17.6964
G01 X15.7711 Y17.6761
G01 X15.6925 Y17.6480
G01 X15.6171 Y17.6123
G01 X15.5456 Y17.5694
G01 X15.4786 Y17.5198
G01 X15.4168 Y17.4637
G01 X15.3615 Y17.4029
G01 X15.3111 Y17.3349
G01 X15.2682 Y17.2634
G01 X15.2325 Y17.1880
G01 X15.2044 Y17.1094
G01 X15.1841 Y17.0285
G01 X15.1719 Y16.9460
G01 X15.1678 Y16.8627
G01 X15.1719 Y16.7794
G01 X15.1841 Y16.6969
G01 X15.2044 Y16.6160
G01 X15.2325 Y16.5374
G01 X15.2682 Y16.4620
G01 X15.3111 Y16.3905
G01 X15.3607 Y16.3235
G01 X15.4168 Y16.2617
G01 X15.4776 Y16.2064
G01 X15.5476 Y16.1546
G01 X15.6171 Y16.1131
G01 X15.6925 Y16.0774
G01 X15.7734 Y16.0486
G01 X15.8520 Y16.0290
G01 X15.9333 Y16.0169
G01 X16.0178 Y16.0127
G01 X16.8178 Y16.0127
G01 X16.9011 Y16.0168
G01 X16.9860 Y16.0296
G00 Z2.0000
G00 X16.9860 Y13.4896
G01 F60.00
G01 Z-0.0000
G01 F120.00
G01 X17.0645 Y13.5093
G01 X17.1408 Y13.5365
G01 X17.2185 Y13.5731
G01 X17.2900 Y13.6160
G01 X17.3551 Y13.6641
G01 X17.4188 Y13.7217
G01 X17.4749 Y13.7835
G01 X17.5231 Y13.8485
G01 X17.5674 Y13.9220
G01 X17.6040 Y13.9997
G01 X17.6312 Y14.0760
G01 X17.6509 Y14.1545
G01 X17.6637 Y14.2394
G01 X17.6677 Y14.3252
G01 X17.6637 Y14.4060
G01 X17.6519 Y14.4861
G01 X17.6304 Y14.5718
G01 X17.6031 Y14.6480
G01 X17.5685 Y14.7212
G01 X17.5245 Y14.7949
G01 X17.4733 Y14.8638
G01 X17.4188 Y14.9237
G01 X17.3580 Y14.9790
G01 X17.2880 Y15.0308
G01 X17.2185 Y15.0723
G01 X17.1431 Y15.1080
G01 X17.0622 Y15.1368
G01 X16.9836 Y15.1564
G01 X16.9023 Y15.1685
G01 X16.8178 Y15.1727
G01 X16.0178 Y15.1727
G01 X15.9369 Y15.1688
G01 X15.8520 Y15.1564
G01 X15.7711 Y15.1361
G01 X15.6925 Y15.1080
G01 X15.6171 Y15.0723
G01 X15.5456 Y15.0294
G01 X15.4786 Y14.9798
G01 X15.4168 Y14.9237
G01 X15.3615 Y14.8629
G01 X15.3111 Y14.7949
G01 X15.2682 Y14.7234
G01 X15.2325 Y14.6480
G01 X15.2044 Y14.5694
G01 X15.1841 Y14.4885
G01 X15.1719 Y14.4060
G01 X15.1678 Y14.3227
G01 X15.1719 Y14.2394
G01 X15.1841 Y14.1569
G01 X15.2044 Y14.0760
G01 X15.2325 Y13.9974
G01 X15.2682 Y13.9220
G01 X15.3111 Y13.8505
G01 X15.3607 Y13.7835
G01 X15.4168 Y13.7217
G01 X15.4776 Y13.6664
G01 X15.5476 Y13.6146
G01 X15.6171 Y13.5731
G01 X15.6925 Y13.5374
G01 X15.7734 Y13.5086
G01 X15.8520 Y13.4890
G01 X15.9333 Y13.4769
G01 X16.0178 Y13.4727
G01 X16.8178 Y13.4727
G01 X16.9011 Y13.4768
G01 X16.9860 Y13.4896
G00 Z2.0000
G00 X16.9860 Y10.9496
G01 F60.00
G01 Z-0.0000
G01 F120.00
G01 X17.0645 Y10.9693
G01 X17.1408 Y10.9965
G01 X17.2185 Y11.0331
G01 X17.2900 Y11.0760
G01 X17.3551 Y11.1241
G01 X17.4188 Y11.1817
G01 X17.4749 Y11.2435
G01 X17.5231 Y11.3085
G01 X17.5674 Y11.3820
G01 X17.6040 Y11.4597
G01 X17.6312 Y11.5360
G01 X17.6509 Y11.6145
G01 X17.6637 Y11.6994
G01 X17.6677 Y11.7852
G01 X17.6637 Y11.8660
G01 X17.6519 Y11.9461
G01 X17.6304 Y12.0318
G01 X17.6031 Y12.1080
G01 X17.5685 Y12.1812
G01 X17.5245 Y12.2549
G01 X17.4733 Y12.3238
G01 X17.4188 Y12.3837
G01 X17.3580 Y12.4390
G01 X17.2880 Y12.4908
G01 X17.2185 Y12.5323
G01 X17.1431 Y12.5680
G01 X17.0622 Y12.5968
G01 X16.9836 Y12.6164
G01 X16.9023 Y12.6285
G01 X16.8178 Y12.6327
G01 X16.0178 Y12.6327
G01 X15.9369 Y12.6288
G01 X15.8520 Y12.6164
G01 X15.7711 Y12.5961
G01 X15.6925 Y12.5680
G01 X15.6171 Y12.5323
G01 X15.5456 Y12.4894
G01 X15.4786 Y12.4398
G01 X15.4168 Y12.3837
G01 X15.3615 Y12.3229
G01 X15.3111 Y12.2549
G01 X15.2682 Y12.1834
G01 X15.2325 Y12.1080
G01 X15.2044 Y12.0294
G01 X15.1841 Y11.9485
G01 X15.1719 Y11.8660
G01 X15.1678 Y11.7827
G01 X15.1719 Y11.6994
G01 X15.1841 Y11.6169
G01 X15.2044 Y11.5360
G01 X15.2325 Y11.4574
G01 X15.2682 Y11.3820
G01 X15.3111 Y11.3105
G01 X15.3607 Y11.2435
G01 X15.4168 Y11.1817
G01 X15.4776 Y11.1264
G01 X15.5476 Y11.0746
G01 X15.6171 Y11.0331
G01 X15.6925 Y10.9974
G01 X15.7734 Y10.9686
G01 X15.8520 Y10.9490
G01 X15.9333 Y10.9369
G01 X16.0178 Y10.9327
G01 X16.8178 Y10.9327
G01 X16.9011 Y10.9368
G01 X16.9860 Y10.9496
G00 Z2.0000
G00 X16.9860 Y8.4096
G01 F60.00
G01 Z-0.0000
G01 F120.00
G01 X17.0645 Y8.4293
G01 X17.1408 Y8.4565
G01 X17.2185 Y8.4931
G01 X17.2900 Y8.5360
G01 X17.3551 Y8.5841
G01 X17.4188 Y8.6417
G01 X17.4749 Y8.7035
G01 X17.5231 Y8.7685
G01 X17.5674 Y8.8420
G01 X17.6040 Y8.9197
G01 X17.6312 Y8.9960
G01 X17.6509 Y9.0745
G01 X17.6637 Y9.1594
G01 X17.6677 Y9.2452
G01 X17.6637 Y9.3260
G01 X17.6519 Y9.4061
G01 X17.6304 Y9.4918
G01 X17.6031 Y9.5680
G01 X17.5685 Y9.6412
G01 X17.5245 Y9.7149
G01 X17.4733 Y9.7838
G01 X17.4188 Y9.8437
G01 X17.3580 Y9.8990
G01 X17.2880 Y9.9508
G01 X17.2185 Y9.9923
G01 X17.1431 Y10.0280
G01 X17.0622 Y10.0568
G01 X16.9836 Y10.0764
G01 X16.9023 Y10.0885
G01 X16.8178 Y10.0927
G01 X16.0178 Y10.0927
G01 X15.9369 Y10.0888
G01 X15.8520 Y10.0764
G01 X15.7711 Y10.0561
G01 X15.6925 Y10.0280
G01 X15.6171 Y9.9923
G01 X15.5456 Y9.9494
G01 X15.4786 Y9.8998
G01 X15.4168 Y9.8437
G01 X15.3615 Y9.7829
G01 X15.3111 Y9.7149
G01 X15.2682 Y9.6434
G01 X15.2325 Y9.5680
G01 X15.2044 Y9.4894
G01 X15.1841 Y9.4085
G01 X15.1719 Y9.3260
G01 X15.1678 Y9.2427
G01 X15.1719 Y9.1594
G01 X15.1841 Y9.0769
G01 X15.2044 Y8.9960
G01 X15.2325 Y8.9174
G01 X15.2682 Y8.8420
G01 X15.3111 Y8.7705
G01 X15.3607 Y8.7035
G01 X15.4168 Y8.6417
G01 X15.4776 Y8.5864
G01 X15.5476 Y8.5346
G01 X15.6171 Y8.4931
G01 X15.6925 Y8.4574
G01 X15.7734 Y8.4286
G01 X15.8520 Y8.4090
G01 X15.9333 Y8.3969
G01 X16.0178 Y8.3927
G01 X16.8178 Y8.3927
G01 X16.9011 Y8.3968
G01 X16.9860 Y8.4096
G00 Z2.0000
G00 X16.9860 Y5.8696
G01 F60.00
G01 Z-0.0000
G01 F120.00
G01 X17.0645 Y5.8893
G01 X17.1408 Y5.9165
G01 X17.2185 Y5.9531
G01 X17.2900 Y5.9960
G01 X17.3551 Y6.0441
G01 X17.4188 Y6.1017
G01 X17.4749 Y6.1635
G01 X17.5231 Y6.2285
G01 X17.5674 Y6.3020
G01 X17.6040 Y6.3797
G01 X17.6312 Y6.4560
G01 X17.6509 Y6.5345
G01 X17.6637 Y6.6194
G01 X17.6677 Y6.7052
G01 X17.6637 Y6.7860
G01 X17.6519 Y6.8661
G01 X17.6304 Y6.9518
G01 X17.6031 Y7.0280
G01 X17.5685 Y7.1012
G01 X17.5245 Y7.1749
G01 X17.4733 Y7.2438
G01 X17.4188 Y7.3037
G01 X17.3580 Y7.3590
G01 X17.2880 Y7.4108
G01 X17.2185 Y7.4523
G01 X17.1431 Y7.4880
G01 X17.0622 Y7.5168
G01 X16.9836 Y7.5364
G01 X16.9023 Y7.5485
G01 X16.8178 Y7.5527
G01 X16.0178 Y7.5527
G01 X15.9369 Y7.5488
G01 X15.8520 Y7.5364
G01 X15.7711 Y7.5161
G01 X15.6925 Y7.4880
G01 X15.6171 Y7.4523
G01 X15.5456 Y7.4094
G01 X15.4786 Y7.3598
G01 X15.4168 Y7.3037
G01 X15.3615 Y7.2429
G01 X15.3111 Y7.1749
G01 X15.2682 Y7.1034
G01 X15.2325 Y7.0280
G01 X15.2044 Y6.9494
G01 X15.1841 Y6.8685
G01 X15.1719 Y6.7860
G01 X15.1678 Y6.7027
G01 X15.1719 Y6.6194
G01 X15.1841 Y6.5369
G01 X15.2044 Y6.4560
G01 X15.2325 Y6.3774
G01 X15.2682 Y6.3020
G01 X15.3111 Y6.2305
G01 X15.3607 Y6.1635
G01 X15.4168 Y6.1017
G01 X15.4776 Y6.0464
G01 X15.5476 Y5.9946
G01 X15.6171 Y5.9531
G01 X15.6925 Y5.9174
G01 X15.7734 Y5.8886
G01 X15.8520 Y5.8690
G01 X15.9333 Y5.8569
G01 X16.0178 Y5.8527
G01 X16.8178 Y5.8527
G01 X16.9011 Y5.8568
G01 X16.9860 Y5.8696
G00 Z2.0000
G00 X16.9860 Y3.3296
G01 F60.00
G01 Z-0.0000
G01 F120.00
G01 X17.0645 Y3.3493
G01 X17.1408 Y3.3765
G01 X17.2185 Y3.4131
G01 X17.2900 Y3.4560
G01 X17.3551 Y3.5041
G01 X17.4188 Y3.5617
G01 X17.4749 Y3.6235
G01 X17.5231 Y3.6885
G01 X17.5674 Y3.7620
G01 X17.6040 Y3.8397
G01 X17.6312 Y3.9160
G01 X17.6509 Y3.9945
G01 X17.6637 Y4.0794
G01 X17.6677 Y4.1652
G01 X17.6637 Y4.2460
G01 X17.6519 Y4.3261
G01 X17.6304 Y4.4118
G01 X17.6031 Y4.4880
G01 X17.5685 Y4.5612
G01 X17.5245 Y4.6349
G01 X17.4733 Y4.7038
G01 X17.4188 Y4.7637
G01 X17.3580 Y4.8190
G01 X17.2880 Y4.8708
G01 X17.2185 Y4.9123
G01 X17.1431 Y4.9480
G01 X17.0622 Y4.9768
G01 X16.9836 Y4.9964
G01 X16.9023 Y5.0085
G01 X16.8178 Y5.0127
G01 X16.0178 Y5.0127
G01 X15.9369 Y5.0088
G01 X15.8520 Y4.9964
G01 X15.7711 Y4.9761
G01 X15.6925 Y4.9480
G01 X15.6171 Y4.9123
G01 X15.5456 Y4.8694
G01 X15.4786 Y4.8198
G01 X15.4168 Y4.7637
G01 X15.3615 Y4.7029
G01 X15.3111 Y4.6349
G01 X15.2682 Y4.5634
G01 X15.2325 Y4.4880
G01 X15.2044 Y4.4094
G01 X15.1841 Y4.3285
G01 X15.1719 Y4.2460
G01 X15.1678 Y4.1627
G01 X15.1719 Y4.0794
G01 X15.1841 Y3.9969
G01 X15.2044 Y3.9160
G01 X15.2325 Y3.8374
G01 X15.2682 Y3.7620
G01 X15.3111 Y3.6905
G01 X15.3607 Y3.6235
G01 X15.4168 Y3.5617
G01 X15.4776 Y3.5064
G01 X15.5476 Y3.4546
G01 X15.6171 Y3.4131
G01 X15.6925 Y3.3774
G01 X15.7734 Y3.3486
G01 X15.8520 Y3.3290
G01 X15.9333 Y3.3169
G01 X16.0178 Y3.3127
G01 X16.8178 Y3.3127
G01 X16.9011 Y3.3168
G01 X16.9860 Y3.3296
G00 Z2.0000
G00 X25.3717 Y3.3131
G01 F60.00
G01 Z-0.0000
G01 F120.00
G01 X25.3778 Y3.3127
G01 X27.7778 Y3.3127
G01 X27.7851 Y3.3132
G01 X27.7923 Y3.3149
G01 X27.7992 Y3.3175
G01 X27.8056 Y3.3211
G01 X27.8105 Y3.3248
G01 X27.8148 Y3.3291
G01 X27.8187 Y3.3339
G01 X27.8219 Y3.3391
G01 X27.8244 Y3.3447
G01 X27.8263 Y3.3506
G01 X27.8274 Y3.3566
G01 X27.8278 Y3.3627
G01 X27.8278 Y4.9627
G01 X27.8273 Y4.9700
G01 X27.8256 Y4.9772
G01 X27.8230 Y4.9841
G01 X27.8194 Y4.9905
G01 X27.8157 Y4.9954
G01 X27.8114 Y4.9997
G01 X27.8066 Y5.0036
G01 X27.8014 Y5.0068
G01 X27.7958 Y5.0093
G01 X27.7899 Y5.0112
G01 X27.7839 Y5.0123
G01 X27.7778 Y5.0127
G01 X25.3778 Y5.0127
G01 X25.3705 Y5.0122
G01 X25.3633 Y5.0105
G01 X25.3564 Y5.0079
G01 X25.3500 Y5.0043
G01 X25.3451 Y5.0006
G01 X25.3408 Y4.9963
G01 X25.3376 Y4.9925
G01 X25.3343 Y4.9873
G01 X25.3316 Y4.9818
G01 X25.3296 Y4.9760
G01 X25.3283 Y4.9700
G01 X25.3278 Y4.9639
G01 X25.3278 Y3.3615
G01 X25.3288 Y3.3529
G01 X25.3316 Y3.3436
G01 X25.3356 Y3.3360
G01 X25.3408 Y3.3291
G01 X25.3480 Y3.3225
G01 X25.3553 Y3.3180
G01 X25.3633 Y3.3149
G01 X25.3717 Y3.3131
G00 Z2.0000
G00 X27.1460 Y5.8696
G01 F60.00
G01 Z-0.0000
G01 F120.00
G01 X27.2245 Y5.8893
G01 X27.3008 Y5.9165
G01 X27.3785 Y5.9531
G01 X27.4500 Y5.9960
G01 X27.5151 Y6.0441
G01 X27.5788 Y6.1017
G01 X27.6349 Y6.1635
G01 X27.6831 Y6.2285
G01 X27.7274 Y6.3020
G01 X27.7640 Y6.3797
G01 X27.7912 Y6.4560
G01 X27.8109 Y6.5345
G01 X27.8237 Y6.6194
G01 X27.8277 Y6.7052
G01 X27.8237 Y6.7860
G01 X27.8119 Y6.8661
G01 X27.7904 Y6.9518
G01 X27.7631 Y7.0280
G01 X27.7285 Y7.1012
G01 X27.6845 Y7.1749
G01 X27.6333 Y7.2438
G01 X27.5788 Y7.3037
G01 X27.5180 Y7.3590
G01 X27.4480 Y7.4108
G01 X27.3785 Y7.4523
G01 X27.3031 Y7.4880
G01 X27.2222 Y7.5168
G01 X27.1436 Y7.5364
G01 X27.0623 Y7.5485
G01 X26.9778 Y7.5527
G01 X26.1778 Y7.5527
G01 X26.0969 Y7.5488
G01 X26.0120 Y7.5364
G01 X25.9311 Y7.5161
G01 X25.8525 Y7.4880
G01 X25.7771 Y7.4523
G01 X25.7056 Y7.4094
G01 X25.6386 Y7.3598
G01 X25.5768 Y7.3037
G01 X25.5215 Y7.2429
G01 X25.4711 Y7.1749
G01 X25.4282 Y7.1034
G01 X25.3925 Y7.0280
G01 X25.3644 Y6.9494
G01 X25.3441 Y6.8685
G01 X25.3319 Y6.7860
G01 X25.3278 Y6.7027
G01 X25.3319 Y6.6194
G01 X25.3441 Y6.5369
G01 X25.3644 Y6.4560
G01 X25.3925 Y6.3774
G01 X25.4282 Y6.3020
G01 X25.4711 Y6.2305
G01 X25.5207 Y6.1635
G01 X25.5768 Y6.1017
G01 X25.6376 Y6.0464
G01 X25.7076 Y5.9946
G01 X25.7771 Y5.9531
G01 X25.8525 Y5.9174
G01 X25.9334 Y5.8886
G01 X26.0120 Y5.8690
G01 X26.0933 Y5.8569
G01 X26.1778 Y5.8527
G01 X26.9778 Y5.8527
G01 X27.0611 Y5.8568
G01 X27.1460 Y5.8696
G00 Z2.0000
G00 X27.1460 Y8.4096
G01 F60.00
G01 Z-0.0000
G01 F120.00
G01 X27.2245 Y8.4293
G01 X27.3008 Y8.4565
G01 X27.3785 Y8.4931
G01 X27.4500 Y8.5360
G01 X27.5151 Y8.5841
G01 X27.5788 Y8.6417
G01 X27.6349 Y8.7035
G01 X27.6831 Y8.7685
G01 X27.7274 Y8.8420
G01 X27.7640 Y8.9197
G01 X27.7912 Y8.9960
G01 X27.8109 Y9.0745
G01 X27.8237 Y9.1594
G01 X27.8277 Y9.2452
G01 X27.8237 Y9.3260
G01 X27.8119 Y9.4061
G01 X27.7904 Y9.4918
G01 X27.7631 Y9.5680
G01 X27.7285 Y9.6412
G01 X27.6845 Y9.7149
G01 X27.6333 Y9.7838
G01 X27.5788 Y9.8437
G01 X27.5180 Y9.8990
G01 X27.4480 Y9.9508
G01 X27.3785 Y9.9923
G01 X27.3031 Y10.0280
G01 X27.2222 Y10.0568
G01 X27.1436 Y10.0764
G01 X27.0623 Y10.0885
G01 X26.9778 Y10.0927
G01 X26.1778 Y10.0927
G01 X26.0969 Y10.0888
G01 X26.0120 Y10.0764
G01 X25.9311 Y10.0561
G01 X25.8525 Y10.0280
G01 X25.7771 Y9.9923
G01 X25.7056 Y9.9494
G01 X25.6386 Y9.8998
G01 X25.5768 Y9.8437
G01 X25.5215 Y9.7829
G01 X25.4711 Y9.7149
G01 X25.4282 Y9.6434
G01 X25.3925 Y9.5680
G01 X25.3644 Y9.4894
G01 X25.3441 Y9.4085
G01 X25.3319 Y9.3260
G01 X25.3278 Y9.2427
G01 X25.3319 Y9.1594
G01 X25.3441 Y9.0769
G01 X25.3644 Y8.9960
G01 X25.3925 Y8.9174
G01 X25.4282 Y8.8420
G01 X25.4711 Y8.7705
G01 X25.5207 Y8.7035
G01 X25.5768 Y8.6417
G01 X25.6376 Y8.5864
G01 X25.7076 Y8.5346
G01 X25.7771 Y8.4931
G01 X25.8525 Y8.4574
G01 X25.9334 Y8.4286
G01 X26.0120 Y8.4090
G01 X26.0933 Y8.3969
G01 X26.1778 Y8.3927
G01 X26.9778 Y8.3927
G01 X27.0611 Y8.3968
G01 X27.1460 Y8.4096
G00 Z2.0000
G00 X27.1448 Y10.9493
G01 F60.00
G01 Z-0.0000
G01 F120.00
G01 X27.2245 Y10.9693
G01 X27.3008 Y10.9965
G01 X27.3785 Y11.0331
G01 X27.4500 Y11.0760
G01 X27.5151 Y11.1241
G01 X27.5788 Y11.1817
G01 X27.6349 Y11.2435
G01 X27.6831 Y11.3085
G01 X27.7274 Y11.3820
G01 X27.7640 Y11.4597
G01 X27.7912 Y11.5360
G01 X27.8109 Y11.6145
G01 X27.8237 Y11.6994
G01 X27.8277 Y11.7852
G01 X27.8237 Y11.8660
G01 X27.8119 Y11.9461
G01 X27.7904 Y12.0318
G01 X27.7631 Y12.1080
G01 X27.7285 Y12.1812
G01 X27.6845 Y12.2549
G01 X27.6333 Y12.3238
G01 X27.5788 Y12.3837
G01 X27.5180 Y12.4390
G01 X27.4480 Y12.4908
G01 X27.3785 Y12.5323
G01 X27.3031 Y12.5680
G01 X27.2222 Y12.5968
G01 X27.1436 Y12.6164
G01 X27.0623 Y12.6285
G01 X26.9778 Y12.6327
G01 X26.1778 Y12.6327
G01 X26.0969 Y12.6288
G01 X26.0120 Y12.6164
G01 X25.9311 Y12.5961
G01 X25.8525 Y12.5680
G01 X25.7771 Y12.5323
G01 X25.7056 Y12.4894
G01 X25.6386 Y12.4398
G01 X25.5768 Y12.3837
G01 X25.5215 Y12.3229
G01 X25.4711 Y12.2549
G01 X25.4282 Y12.1834
G01 X25.3925 Y12.1080
G01 X25.3644 Y12.0294
G01 X25.3441 Y11.9485
G01 X25.3319 Y11.8660
G01 X25.3278 Y11.7827
G01 X25.3319 Y11.6994
G01 X25.3441 Y11.6169
G01 X25.3644 Y11.5360
G01 X25.3925 Y11.4574
G01 X25.4282 Y11.3820
G01 X25.4711 Y11.3105
G01 X25.5207 Y11.2435
G01 X25.5768 Y11.1817
G01 X25.6376 Y11.1264
G01 X25.7076 Y11.0746
G01 X25.7771 Y11.0331
G01 X25.8525 Y10.9974
G01 X25.9334 Y10.9686
G01 X26.0120 Y10.9490
G01 X26.0933 Y10.9369
G01 X26.1778 Y10.9327
G01 X26.9778 Y10.9327
G01 X27.0611 Y10.9368
G01 X27.1448 Y10.9493
G00 Z2.0000
G00 X27.1448 Y13.4893
G01 F60.00
G01 Z-0.0000
G01 F120.00
G01 X27.2245 Y13.5093
G01 X27.3008 Y13.5365
G01 X27.3785 Y13.5731
G01 X27.4500 Y13.6160
G01 X27.5151 Y13.6641
G01 X27.5788 Y13.7217
G01 X27.6349 Y13.7835
G01 X27.6831 Y13.8485
G01 X27.7274 Y13.9220
G01 X27.7640 Y13.9997
G01 X27.7912 Y14.0760
G01 X27.8109 Y14.1545
G01 X27.8237 Y14.2394
G01 X27.8277 Y14.3252
G01 X27.8237 Y14.4060
G01 X27.8119 Y14.4861
G01 X27.7904 Y14.5718
G01 X27.7631 Y14.6480
G01 X27.7285 Y14.7212
G01 X27.6845 Y14.7949
G01 X27.6333 Y14.8638
G01 X27.5788 Y14.9237
G01 X27.5180 Y14.9790
G01 X27.4480 Y15.0308
G01 X27.3785 Y15.0723
G01 X27.3031 Y15.1080
G01 X27.2222 Y15.1368
G01 X27.1436 Y15.1564
G01 X27.0623 Y15.1685
G01 X26.9778 Y15.1727
G01 X26.1778 Y15.1727
G01 X26.0969 Y15.1688
G01 X26.0120 Y15.1564
G01 X25.9311 Y15.1361
G01 X25.8525 Y15.1080
G01 X25.7771 Y15.0723
G01 X25.7056 Y15.0294
G01 X25.6386 Y14.9798
G01 X25.5768 Y14.9237
G01 X25.5215 Y14.8629
G01 X25.4711 Y14.7949
G01 X25.4282 Y14.7234
G01 X25.3925 Y14.6480
G01 X25.3644 Y14.5694
G01 X25.3441 Y14.4885
G01 X25.3319 Y14.4060
G01 X25.3278 Y14.3227
G01 X25.3319 Y14.2394
G01 X25.3441 Y14.1569
G01 X25.3644 Y14.0760
G01 X25.3925 Y13.9974
G01 X25.4282 Y13.9220
G01 X25.4711 Y13.8505
G01 X25.5207 Y13.7835
G01 X25.5768 Y13.7217
G01 X25.6376 Y13.6664
G01 X25.7076 Y13.6146
G01 X25.7771 Y13.5731
G01 X25.8525 Y13.5374
G01 X25.9334 Y13.5086
G01 X26.0120 Y13.4890
G01 X26.0933 Y13.4769
G01 X26.1778 Y13.4727
G01 X26.9778 Y13.4727
G01 X27.0611 Y13.4768
G01 X27.1448 Y13.4893
G00 Z2.0000
G00 X27.1448 Y16.0293
G01 F60.00
G01 Z-0.0000
G01 F120.00
G01 X27.2245 Y16.0493
G01 X27.3008 Y16.0765
G01 X27.3785 Y16.1131
G01 X27.4500 Y16.1560
G01 X27.5151 Y16.2041
G01 X27.5788 Y16.2617
G01 X27.6349 Y16.3235
G01 X27.6831 Y16.3885
G01 X27.7274 Y16.4620
G01 X27.7640 Y16.5397
G01 X27.7912 Y16.6160
G01 X27.8109 Y16.6945
G01 X27.8237 Y16.7794
G01 X27.8277 Y16.8652
G01 X27.8237 Y16.9460
G01 X27.8119 Y17.0261
G01 X27.7904 Y17.1118
G01 X27.7631 Y17.1880
G01 X27.7285 Y17.2612
G01 X27.6845 Y17.3349
G01 X27.6333 Y17.4038
G01 X27.5788 Y17.4637
G01 X27.5180 Y17.5190
G01 X27.4480 Y17.5708
G01 X27.3785 Y17.6123
G01 X27.3031 Y17.6480
G01 X27.2222 Y17.6768
G01 X27.1436 Y17.6964
G01 X27.0623 Y17.7085
G01 X26.9778 Y17.7127
G01 X26.1778 Y17.7127
G01 X26.0969 Y17.7088
G01 X26.0120 Y17.6964
G01 X25.9311 Y17.6761
G01 X25.8525 Y17.6480
G01 X25.7771 Y17.6123
G01 X25.7056 Y17.5694
G01 X25.6386 Y17.5198
G01 X25.5768 Y17.4637
G01 X25.5215 Y17.4029
G01 X25.4711 Y17.3349
G01 X25.4282 Y17.2634
G01 X25.3925 Y17.1880
G01 X25.3644 Y17.1094
G01 X25.3441 Y17.0285
G01 X25.3319 Y16.9460
G01 X25.3278 Y16.8627
G01 X25.3319 Y16.7794
G01 X25.3441 Y16.6969
G01 X25.3644 Y16.6160
G01 X25.3925 Y16.5374
G01 X25.4282 Y16.4620
G01 X25.4711 Y16.3905
G01 X25.5207 Y16.3235
G01 X25.5768 Y16.2617
G01 X25.6376 Y16.2064
G01 X25.7076 Y16.1546
G01 X25.7771 Y16.1131
G01 X25.8525 Y16.0774
G01 X25.9334 Y16.0486
G01 X26.0120 Y16.0290
G01 X26.0933 Y16.0169
G01 X26.1778 Y16.0127
G01 X26.9778 Y16.0127
G01 X27.0611 Y16.0168
G01 X27.1448 Y16.0293
G00 Z2.0000
G00 X27.1448 Y18.5693
G01 F60.00
G01 Z-0.0000
G01 F120.00
G01 X27.2245 Y18.5893
G01 X27.3008 Y18.6165
G01 X27.3785 Y18.6531
G01 X27.4500 Y18.6960
G01 X27.5151 Y18.7441
G01 X27.5788 Y18.8017
G01 X27.6349 Y18.8635
G01 X27.6831 Y18.9285
G01 X27.7274 Y19.0020
G01 X27.7640 Y19.0797
G01 X27.7912 Y19.1560
G01 X27.8109 Y19.2345
G01 X27.8237 Y19.3194
G01 X27.8277 Y19.4052
G01 X27.8237 Y19.4860
G01 X27.8119 Y19.5661
G01 X27.7904 Y19.6518
G01 X27.7631 Y19.7280
G01 X27.7285 Y19.8012
G01 X27.6845 Y19.8749
G01 X27.6333 Y19.9438
G01 X27.5788 Y20.0037
G01 X27.5180 Y20.0590
G01 X27.4480 Y20.1108
G01 X27.3785 Y20.1523
G01 X27.3031 Y20.1880
G01 X27.2222 Y20.2168
G01 X27.1436 Y20.2364
G01 X27.0623 Y20.2485
G01 X26.9778 Y20.2527
G01 X26.1778 Y20.2527
G01 X26.0969 Y20.2488
G01 X26.0120 Y20.2364
G01 X25.9311 Y20.2161
G01 X25.8525 Y20.1880
G01 X25.7771 Y20.1523
G01 X25.7056 Y20.1094
G01 X25.6386 Y20.0598
G01 X25.5768 Y20.0037
G01 X25.5215 Y19.9429
G01 X25.4711 Y19.8749
G01 X25.4282 Y19.8034
G01 X25.3925 Y19.7280
G01 X25.3644 Y19.6494
G01 X25.3441 Y19.5685
G01 X25.3319 Y19.4860
G01 X25.3278 Y19.4027
G01 X25.3319 Y19.3194
G01 X25.3441 Y19.2369
G01 X25.3644 Y19.1560
G01 X25.3925 Y19.0774
G01 X25.4282 Y19.0020
G01 X25.4711 Y18.9305
G01 X25.5207 Y18.8635
G01 X25.5768 Y18.8017
G01 X25.6376 Y18.7464
G01 X25.7076 Y18.6946
G01 X25.7771 Y18.6531
G01 X25.8525 Y18.6174
G01 X25.9334 Y18.5886
G01 X26.0120 Y18.5690
G01 X26.0933 Y18.5569
G01 X26.1778 Y18.5527
G01 X26.9778 Y18.5527
G01 X27.0611 Y18.5568
G01 X27.1448 Y18.5693
G00 Z2.0000
G00 X27.1460 Y21.1096
G01 F60.00
G01 Z-0.0000
G01 F120.00
G01 X27.2245 Y21.1293
G01 X27.3008 Y21.1565
G01 X27.3785 Y21.1931
G01 X27.4500 Y21.2360
G01 X27.5151 Y21.2841
G01 X27.5788 Y21.3417
G01 X27.6349 Y21.4035
G01 X27.6831 Y21.4685
G01 X27.7274 Y21.5420
G01 X27.7640 Y21.6197
G01 X27.7912 Y21.6960
G01 X27.8109 Y21.7745
G01 X27.8237 Y21.8594
G01 X27.8277 Y21.9452
G01 X27.8237 Y22.0260
G01 X27.8119 Y22.1061
G01 X27.7904 Y22.1918
G01 X27.7631 Y22.2680
G01 X27.7285 Y22.3412
G01 X27.6845 Y22.4149
G01 X27.6333 Y22.4838
G01 X27.5788 Y22.5437
G01 X27.5180 Y22.5990
G01 X27.4480 Y22.6508
G01 X27.3785 Y22.6923
G01 X27.3031 Y22.7280
G01 X27.2222 Y22.7568
G01 X27.1436 Y22.7764
G01 X27.0623 Y22.7885
G01 X26.9778 Y22.7927
G01 X26.1778 Y22.7927
G01 X26.0969 Y22.7888
G01 X26.0120 Y22.7764
G01 X25.9311 Y22.7561
G01 X25.8525 Y22.7280
G01 X25.7771 Y22.6923
G01 X25.7056 Y22.6494
G01 X25.6386 Y22.5998
G01 X25.5768 Y22.5437
G01 X25.5215 Y22.4829
G01 X25.4711 Y22.4149
G01 X25.4282 Y22.3434
G01 X25.3925 Y22.2680
G01 X25.3644 Y22.1894
G01 X25.3441 Y22.1085
G01 X25.3319 Y22.0260
G01 X25.3278 Y21.9427
G01 X25.3319 Y21.8594
G01 X25.3441 Y21.7769
G01 X25.3644 Y21.6960
G01 X25.3925 Y21.6174
G01 X25.4282 Y21.5420
G01 X25.4711 Y21.4705
G01 X25.5207 Y21.4035
G01 X25.5768 Y21.3417
G01 X25.6376 Y21.2864
G01 X25.7076 Y21.2346
G01 X25.7771 Y21.1931
G01 X25.8525 Y21.1574
G01 X25.9334 Y21.1286
G01 X26.0120 Y21.1090
G01 X26.0933 Y21.0969
G01 X26.1778 Y21.0927
G01 X26.9778 Y21.0927
G01 X27.0611 Y21.0968
G01 X27.1460 Y21.1096
G00 Z2.0000
G00 X27.7594 Y36.5230
G01 F60.00
G01 Z-0.0000
G01 F120.00
G01 X27.8498 Y36.5457
G01 X27.9376 Y36.5770
G01 X28.0264 Y36.6188
G01 X28.1085 Y36.6680
G01 X28.1834 Y36.7235
G01 X28.2562 Y36.7893
G01 X28.3205 Y36.8602
G01 X28.3761 Y36.9350
G01 X28.4267 Y37.0191
G01 X28.4685 Y37.1079
G01 X28.4998 Y37.1957
G01 X28.5231 Y37.2885
G01 X28.5371 Y37.3831
G01 X28.5417 Y37.4762
G01 X28.5371 Y37.5743
G01 X28.5231 Y37.6689
G01 X28.5005 Y37.7594
G01 X28.4676 Y37.8518
G01 X28.4255 Y37.9404
G01 X28.3775 Y38.0204
G01 X28.3205 Y38.0972
G01 X28.2545 Y38.1698
G01 X28.1853 Y38.2324
G01 X28.1085 Y38.2894
G01 X28.0242 Y38.3397
G01 X27.9399 Y38.3795
G01 X27.8522 Y38.4109
G01 X27.7570 Y38.4350
G01 X27.6624 Y38.4490
G01 X27.5668 Y38.4537
G01 X26.3688 Y38.4537
G01 X26.2732 Y38.4490
G01 X26.1786 Y38.4350
G01 X26.0834 Y38.4109
G01 X25.9957 Y38.3795
G01 X25.9114 Y38.3397
G01 X25.8292 Y38.2907
G01 X25.7503 Y38.2324
G01 X25.6794 Y38.1681
G01 X25.6151 Y38.0972
G01 X25.5581 Y38.0204
G01 X25.5089 Y37.9383
G01 X25.4680 Y37.8518
G01 X25.4358 Y37.7617
G01 X25.4125 Y37.6689
G01 X25.3985 Y37.5743
G01 X25.3938 Y37.4787
G01 X25.3985 Y37.3831
G01 X25.4125 Y37.2885
G01 X25.4358 Y37.1957
G01 X25.4680 Y37.1056
G01 X25.5089 Y37.0191
G01 X25.5581 Y36.9370
G01 X25.6151 Y36.8602
G01 X25.6794 Y36.7893
G01 X25.7503 Y36.7250
G01 X25.8271 Y36.6680
G01 X25.9114 Y36.6177
G01 X25.9957 Y36.5779
G01 X26.0834 Y36.5465
G01 X26.1786 Y36.5224
G01 X26.2745 Y36.5083
G01 X26.3688 Y36.5037
G01 X27.5668 Y36.5037
G01 X27.6624 Y36.5084
G01 X27.7594 Y36.5230
G00 Z2.0000
G00 X27.7582 Y41.5227
G01 F60.00
G01 Z-0.0000
G01 F120.00
G01 X27.8498 Y41.5457
G01 X27.9376 Y41.5770
G01 X28.0264 Y41.6188
G01 X28.1085 Y41.6680
G01 X28.1834 Y41.7235
G01 X28.2562 Y41.7893
G01 X28.3205 Y41.8602
G01 X28.3761 Y41.9350
G01 X28.4267 Y42.0191
G01 X28.4685 Y42.1079
G01 X28.4998 Y42.1957
G01 X28.5231 Y42.2885
G01 X28.5371 Y42.3831
G01 X28.5417 Y42.4762
G01 X28.5371 Y42.5743
G01 X28.5231 Y42.6689
G01 X28.5005 Y42.7594
G01 X28.4676 Y42.8518
G01 X28.4255 Y42.9404
G01 X28.3775 Y43.0204
G01 X28.3205 Y43.0972
G01 X28.2545 Y43.1698
G01 X28.1853 Y43.2324
G01 X28.1085 Y43.2894
G01 X28.0242 Y43.3397
G01 X27.9399 Y43.3795
G01 X27.8522 Y43.4109
G01 X27.7570 Y43.4350
G01 X27.6624 Y43.4490
G01 X27.5668 Y43.4537
G01 X26.3688 Y43.4537
G01 X26.2732 Y43.4490
G01 X26.1786 Y43.4350
G01 X26.0834 Y43.4109
G01 X25.9957 Y43.3795
G01 X25.9114 Y43.3397
G01 X25.8292 Y43.2907
G01 X25.7503 Y43.2324
G01 X25.6794 Y43.1681
G01 X25.6151 Y43.0972
G01 X25.5581 Y43.0204
G01 X25.5089 Y42.9383
G01 X25.4680 Y42.8518
G01 X25.4358 Y42.7617
G01 X25.4125 Y42.6689
G01 X25.3985 Y42.5743
G01 X25.3938 Y42.4787
G01 X25.3985 Y42.3831
G01 X25.4125 Y42.2885
G01 X25.4358 Y42.1957
G01 X25.4680 Y42.1056
G01 X25.5089 Y42.0191
G01 X25.5581 Y41.9370
G01 X25.6151 Y41.8602
G01 X25.6794 Y41.7893
G01 X25.7503 Y41.7250
G01 X25.8271 Y41.6680
G01 X25.9114 Y41.6177
G01 X25.9957 Y41.5779
G01 X26.0834 Y41.5465
G01 X26.1786 Y41.5224
G01 X26.2745 Y41.5083
G01 X26.3688 Y41.5037
G01 X27.5668 Y41.5037
G01 X27.6624 Y41.5084
G01 X27.7582 Y41.5227
G00 Z2.0000
G00 X40.2582 Y41.5227
G01 F60.00
G01 Z-0.0000
G01 F120.00
G01 X40.3498 Y41.5457
G01 X40.4376 Y41.5770
G01 X40.5264 Y41.6188
G01 X40.6085 Y41.6680
G01 X40.6834 Y41.7235
G01 X40.7562 Y41.7893
G01 X40.8205 Y41.8602
G01 X40.8761 Y41.9350
G01 X40.9267 Y42.0191
G01 X40.9685 Y42.1079
G01 X40.9998 Y42.1957
G01 X41.0231 Y42.2885
G01 X41.0371 Y42.3831
G01 X41.0417 Y42.4762
G01 X41.0371 Y42.5743
G01 X41.0231 Y42.6689
G01 X41.0005 Y42.7594
G01 X40.9676 Y42.8518
G01 X40.9255 Y42.9404
G01 X40.8775 Y43.0204
G01 X40.8205 Y43.0972
G01 X40.7545 Y43.1698
G01 X40.6853 Y43.2324
G01 X40.6085 Y43.2894
G01 X40.5242 Y43.3397
G01 X40.4399 Y43.3795
G01 X40.3522 Y43.4109
G01 X40.2570 Y43.4350
G01 X40.1624 Y43.4490
G01 X40.0668 Y43.4537
G01 X38.8688 Y43.4537
G01 X38.7732 Y43.4490
G01 X38.6786 Y43.4350
G01 X38.5834 Y43.4109
G01 X38.4957 Y43.3795
G01 X38.4114 Y43.3397
G01 X38.3292 Y43.2907
G01 X38.2503 Y43.2324
G01 X38.1794 Y43.1681
G01 X38.1151 Y43.0972
G01 X38.0581 Y43.0204
G01 X38.0089 Y42.9383
G01 X37.9680 Y42.8518
G01 X37.9358 Y42.7617
G01 X37.9125 Y42.6689
G01 X37.8985 Y42.5743
G01 X37.8938 Y42.4787
G01 X37.8985 Y42.3831
G01 X37.9125 Y42.2885
G01 X37.9358 Y42.1957
G01 X37.9680 Y42.1056
G01 X38.0089 Y42.0191
G01 X38.0581 Y41.9370
G01 X38.1151 Y41.8602
G01 X38.1794 Y41.7893
G01 X38.2503 Y41.7250
G01 X38.3271 Y41.6680
G01 X38.4114 Y41.6177
G01 X38.4957 Y41.5779
G01 X38.5834 Y41.5465
G01 X38.6786 Y41.5224
G01 X38.7745 Y41.5083
G01 X38.8688 Y41.5037
G01 X40.0668 Y41.5037
G01 X40.1624 Y41.5084
G01 X40.2582 Y41.5227
G00 Z2.0000
G00 X40.2582 Y36.5227
G01 F60.00
G01 Z-0.0000
G01 F120.00
G01 X40.3498 Y36.5457
G01 X40.4376 Y36.5770
G01 X40.5264 Y36.6188
G01 X40.6085 Y36.6680
G01 X40.6834 Y36.7235
G01 X40.7562 Y36.7893
G01 X40.8205 Y36.8602
G01 X40.8761 Y36.9350
G01 X40.9267 Y37.0191
G01 X40.9685 Y37.1079
G01 X40.9998 Y37.1957
G01 X41.0231 Y37.2885
G01 X41.0371 Y37.3831
G01 X41.0417 Y37.4762
G01 X41.0371 Y37.5743
G01 X41.0231 Y37.6689
G01 X41.0005 Y37.7594
G01 X40.9676 Y37.8518
G01 X40.9255 Y37.9404
G01 X40.8775 Y38.0204
G01 X40.8205 Y38.0972
G01 X40.7545 Y38.1698
G01 X40.6853 Y38.2324
G01 X40.6085 Y38.2894
G01 X40.5242 Y38.3397
G01 X40.4399 Y38.3795
G01 X40.3522 Y38.4109
G01 X40.2570 Y38.4350
G01 X40.1624 Y38.4490
G01 X40.0668 Y38.4537
G01 X38.8688 Y38.4537
G01 X38.7732 Y38.4490
G01 X38.6786 Y38.4350
G01 X38.5834 Y38.4109
G01 X38.4957 Y38.3795
G01 X38.4114 Y38.3397
G01 X38.3292 Y38.2907
G01 X38.2503 Y38.2324
G01 X38.1794 Y38.1681
G01 X38.1151 Y38.0972
G01 X38.0581 Y38.0204
G01 X38.0089 Y37.9383
G01 X37.9680 Y37.8518
G01 X37.9358 Y37.7617
G01 X37.9125 Y37.6689
G01 X37.8985 Y37.5743
G01 X37.8938 Y37.4787
G01 X37.8985 Y37.3831
G01 X37.9125 Y37.2885
G01 X37.9358 Y37.1957
G01 X37.9680 Y37.1056
G01 X38.0089 Y37.0191
G01 X38.0581 Y36.9370
G01 X38.1151 Y36.8602
G01 X38.1794 Y36.7893
G01 X38.2503 Y36.7250
G01 X38.3271 Y36.6680
G01 X38.4114 Y36.6177
G01 X38.4957 Y36.5779
G01 X38.5834 Y36.5465
G01 X38.6786 Y36.5224
G01 X38.7745 Y36.5083
G01 X38.8688 Y36.5037
G01 X40.0668 Y36.5037
G01 X40.1624 Y36.5084
G01 X40.2582 Y36.5227
G00 Z2.0000
G00 X49.0954 Y36.5230
G01 F60.00
G01 Z-0.0000
G01 F120.00
G01 X49.1858 Y36.5457
G01 X49.2736 Y36.5770
G01 X49.3624 Y36.6188
G01 X49.4445 Y36.6680
G01 X49.5194 Y36.7235
G01 X49.5922 Y36.7893
G01 X49.6565 Y36.8602
G01 X49.7121 Y36.9350
G01 X49.7627 Y37.0191
G01 X49.8045 Y37.1079
G01 X49.8358 Y37.1957
G01 X49.8591 Y37.2885
G01 X49.8731 Y37.3831
G01 X49.8777 Y37.4762
G01 X49.8731 Y37.5743
G01 X49.8591 Y37.6689
G01 X49.8365 Y37.7594
G01 X49.8036 Y37.8518
G01 X49.7615 Y37.9404
G01 X49.7135 Y38.0204
G01 X49.6565 Y38.0972
G01 X49.5905 Y38.1698
G01 X49.5213 Y38.2324
G01 X49.4445 Y38.2894
G01 X49.3602 Y38.3397
G01 X49.2759 Y38.3795
G01 X49.1882 Y38.4109
G01 X49.0930 Y38.4350
G01 X48.9984 Y38.4490
G01 X48.9028 Y38.4537
G01 X47.7048 Y38.4537
G01 X47.6092 Y38.4490
G01 X47.5146 Y38.4350
G01 X47.4194 Y38.4109
G01 X47.3317 Y38.3795
G01 X47.2474 Y38.3397
G01 X47.1652 Y38.2907
G01 X47.0863 Y38.2324
G01 X47.0154 Y38.1681
G01 X46.9511 Y38.0972
G01 X46.8941 Y38.0204
G01 X46.8449 Y37.9383
G01 X46.8040 Y37.8518
G01 X46.7718 Y37.7617
G01 X46.7485 Y37.6689
G01 X46.7345 Y37.5743
G01 X46.7298 Y37.4787
G01 X46.7345 Y37.3831
G01 X46.7485 Y37.2885
G01 X46.7718 Y37.1957
G01 X46.8040 Y37.1056
G01 X46.8449 Y37.0191
G01 X46.8941 Y36.9370
G01 X46.9511 Y36.8602
G01 X47.0154 Y36.7893
G01 X47.0863 Y36.7250
G01 X47.1631 Y36.6680
G01 X47.2474 Y36.6177
G01 X47.3317 Y36.5779
G01 X47.4194 Y36.5465
G01 X47.5146 Y36.5224
G01 X47.6105 Y36.5083
G01 X47.7048 Y36.5037
G01 X48.9028 Y36.5037
G01 X48.9984 Y36.5084
G01 X49.0954 Y36.5230
G00 Z2.0000
G00 X49.0954 Y41.5230
G01 F60.00
G01 Z-0.0000
G01 F120.00
G01 X49.1858 Y41.5457
G01 X49.2736 Y41.5770
G01 X49.3624 Y41.6188
G01 X49.4445 Y41.6680
G01 X49.5194 Y41.7235
G01 X49.5922 Y41.7893
G01 X49.6565 Y41.8602
G01 X49.7121 Y41.9350
G01 X49.7627 Y42.0191
G01 X49.8045 Y42.1079
G01 X49.8358 Y42.1957
G01 X49.8591 Y42.2885
G01 X49.8731 Y42.3831
G01 X49.8777 Y42.4762
G01 X49.8731 Y42.5743
G01 X49.8591 Y42.6689
G01 X49.8365 Y42.7594
G01 X49.8036 Y42.8518
G01 X49.7615 Y42.9404
G01 X49.7135 Y43.0204
G01 X49.6565 Y43.0972
G01 X49.5905 Y43.1698
G01 X49.5213 Y43.2324
G01 X49.4445 Y43.2894
G01 X49.3602 Y43.3397
G01 X49.2759 Y43.3795
G01 X49.1882 Y43.4109
G01 X49.0930 Y43.4350
G01 X48.9984 Y43.4490
G01 X48.9028 Y43.4537
G01 X47.7048 Y43.4537
G01 X47.6092 Y43.4490
G01 X47.5146 Y43.4350
G01 X47.4194 Y43.4109
G01 X47.3317 Y43.3795
G01 X47.2474 Y43.3397
G01 X47.1652 Y43.2907
G01 X47.0863 Y43.2324
G01 X47.0154 Y43.1681
G01 X46.9511 Y43.0972
G01 X46.8941 Y43.0204
G01 X46.8449 Y42.9383
G01 X46.8040 Y42.8518
G01 X46.7718 Y42.7617
G01 X46.7485 Y42.6689
G01 X46.7345 Y42.5743
G01 X46.7298 Y42.4787
G01 X46.7345 Y42.3831
G01 X46.7485 Y42.2885
G01 X46.7718 Y42.1957
G01 X46.8040 Y42.1056
G01 X46.8449 Y42.0191
G01 X46.8941 Y41.9370
G01 X46.9511 Y41.8602
G01 X47.0154 Y41.7893
G01 X47.0863 Y41.7250
G01 X47.1631 Y41.6680
G01 X47.2474 Y41.6177
G01 X47.3317 Y41.5779
G01 X47.4194 Y41.5465
G01 X47.5146 Y41.5224
G01 X47.6105 Y41.5083
G01 X47.7048 Y41.5037
G01 X48.9028 Y41.5037
G01 X48.9984 Y41.5084
G01 X49.0954 Y41.5230
G00 Z2.0000
G00 X61.5954 Y41.5230
G01 F60.00
G01 Z-0.0000
G01 F120.00
G01 X61.6858 Y41.5457
G01 X61.7736 Y41.5770
G01 X61.8624 Y41.6188
G01 X61.9445 Y41.6680
G01 X62.0194 Y41.7235
G01 X62.0922 Y41.7893
G01 X62.1565 Y41.8602
G01 X62.2121 Y41.9350
G01 X62.2627 Y42.0191
G01 X62.3045 Y42.1079
G01 X62.3358 Y42.1957
G01 X62.3591 Y42.2885
G01 X62.3731 Y42.3831
G01 X62.3777 Y42.4762
G01 X62.3731 Y42.5743
G01 X62.3591 Y42.6689
G01 X62.3365 Y42.7594
G01 X62.3036 Y42.8518
G01 X62.2615 Y42.9404
G01 X62.2135 Y43.0204
G01 X62.1565 Y43.0972
G01 X62.0905 Y43.1698
G01 X62.0213 Y43.2324
G01 X61.9445 Y43.2894
G01 X61.8602 Y43.3397
G01 X61.7759 Y43.3795
G01 X61.6882 Y43.4109
G01 X61.5930 Y43.4350
G01 X61.4984 Y43.4490
G01 X61.4028 Y43.4537
G01 X60.2048 Y43.4537
G01 X60.1092 Y43.4490
G01 X60.0146 Y43.4350
G01 X59.9194 Y43.4109
G01 X59.8317 Y43.3795
G01 X59.7474 Y43.3397
G01 X59.6652 Y43.2907
G01 X59.5863 Y43.2324
G01 X59.5154 Y43.1681
G01 X59.4511 Y43.0972
G01 X59.3941 Y43.0204
G01 X59.3449 Y42.9383
G01 X59.3040 Y42.8518
G01 X59.2718 Y42.7617
G01 X59.2485 Y42.6689
G01 X59.2345 Y42.5743
G01 X59.2298 Y42.4787
G01 X59.2345 Y42.3831
G01 X59.2485 Y42.2885
G01 X59.2718 Y42.1957
G01 X59.3040 Y42.1056
G01 X59.3449 Y42.0191
G01 X59.3941 Y41.9370
G01 X59.4511 Y41.8602
G01 X59.5154 Y41.7893
G01 X59.5863 Y41.7250
G01 X59.6631 Y41.6680
G01 X59.7474 Y41.6177
G01 X59.8317 Y41.5779
G01 X59.9194 Y41.5465
G01 X60.0146 Y41.5224
G01 X60.1105 Y41.5083
G01 X60.2048 Y41.5037
G01 X61.4028 Y41.5037
G01 X61.4984 Y41.5084
G01 X61.5954 Y41.5230
G00 Z2.0000
G00 X61.5954 Y36.5230
G01 F60.00
G01 Z-0.0000
G01 F120.00
G01 X61.6858 Y36.5457
G01 X61.7736 Y36.5770
G01 X61.8624 Y36.6188
G01 X61.9445 Y36.6680
G01 X62.0194 Y36.7235
G01 X62.0922 Y36.7893
G01 X62.1565 Y36.8602
G01 X62.2121 Y36.9350
G01 X62.2627 Y37.0191
G01 X62.3045 Y37.1079
G01 X62.3358 Y37.1957
G01 X62.3591 Y37.2885
G01 X62.3731 Y37.3831
G01 X62.3777 Y37.4762
G01 X62.3731 Y37.5743
G01 X62.3591 Y37.6689
G01 X62.3365 Y37.7594
G01 X62.3036 Y37.8518
G01 X62.2615 Y37.9404
G01 X62.2135 Y38.0204
G01 X62.1565 Y38.0972
G01 X62.0905 Y38.1698
G01 X62.0213 Y38.2324
G01 X61.9445 Y38.2894
G01 X61.8602 Y38.3397
G01 X61.7759 Y38.3795
G01 X61.6882 Y38.4109
G01 X61.5930 Y38.4350
G01 X61.4984 Y38.4490
G01 X61.4028 Y38.4537
G01 X60.2048 Y38.4537
G01 X60.1092 Y38.4490
G01 X60.0146 Y38.4350
G01 X59.9194 Y38.4109
G01 X59.8317 Y38.3795
G01 X59.7474 Y38.3397
G01 X59.6652 Y38.2907
G01 X59.5863 Y38.2324
G01 X59.5154 Y38.1681
G01 X59.4511 Y38.0972
G01 X59.3941 Y38.0204
G01 X59.3449 Y37.9383
G01 X59.3040 Y37.8518
G01 X59.2718 Y37.7617
G01 X59.2485 Y37.6689
G01 X59.2345 Y37.5743
G01 X59.2298 Y37.4787
G01 X59.2345 Y37.3831
G01 X59.2485 Y37.2885
G01 X59.2718 Y37.1957
G01 X59.3040 Y37.1056
G01 X59.3449 Y37.0191
G01 X59.3941 Y36.9370
G01 X59.4511 Y36.8602
G01 X59.5154 Y36.7893
G01 X59.5863 Y36.7250
G01 X59.6631 Y36.6680
G01 X59.7474 Y36.6177
G01 X59.8317 Y36.5779
G01 X59.9194 Y36.5465
G01 X60.0146 Y36.5224
G01 X60.1105 Y36.5083
G01 X60.2048 Y36.5037
G01 X61.4028 Y36.5037
G01 X61.4984 Y36.5084
G01 X61.5954 Y36.5230
G00 Z2.0000
G00 X68.4372 Y36.5084
G01 F60.00
G01 Z-0.0000
G01 F120.00
G01 X68.5328 Y36.5037
G01 X69.7308 Y36.5037
G01 X69.8276 Y36.5085
G01 X69.9210 Y36.5224
G01 X70.0115 Y36.5450
G01 X70.1039 Y36.5779
G01 X70.1925 Y36.6200
G01 X70.2725 Y36.6680
G01 X70.3484 Y36.7242
G01 X70.4202 Y36.7893
G01 X70.4845 Y36.8602
G01 X70.5415 Y36.9370
G01 X70.5907 Y37.0191
G01 X70.6316 Y37.1056
G01 X70.6638 Y37.1957
G01 X70.6871 Y37.2885
G01 X70.7011 Y37.3831
G01 X70.7058 Y37.4787
G01 X70.7011 Y37.5743
G01 X70.6871 Y37.6689
G01 X70.6638 Y37.7617
G01 X70.6316 Y37.8518
G01 X70.5907 Y37.9383
G01 X70.5415 Y38.0204
G01 X70.4853 Y38.0963
G01 X70.4202 Y38.1681
G01 X70.3493 Y38.2324
G01 X70.2725 Y38.2894
G01 X70.1904 Y38.3386
G01 X70.1039 Y38.3795
G01 X70.0138 Y38.4117
G01 X69.9210 Y38.4350
G01 X69.8239 Y38.4492
G01 X69.7308 Y38.4537
G01 X68.5328 Y38.4537
G01 X68.4360 Y38.4489
G01 X68.3426 Y38.4350
G01 X68.2521 Y38.4124
G01 X68.1597 Y38.3795
G01 X68.0711 Y38.3374
G01 X67.9911 Y38.2894
G01 X67.9152 Y38.2332
G01 X67.8417 Y38.1664
G01 X67.7791 Y38.0972
G01 X67.7221 Y38.0204
G01 X67.6718 Y37.9361
G01 X67.6320 Y37.8518
G01 X67.5998 Y37.7617
G01 X67.5765 Y37.6689
G01 X67.5628 Y37.5767
G01 X67.5578 Y37.4787
G01 X67.5625 Y37.3831
G01 X67.5761 Y37.2909
G01 X67.5998 Y37.1957
G01 X67.6320 Y37.1056
G01 X67.6718 Y37.0213
G01 X67.7221 Y36.9370
G01 X67.7791 Y36.8602
G01 X67.8417 Y36.7910
G01 X67.9143 Y36.7250
G01 X67.9932 Y36.6667
G01 X68.0732 Y36.6188
G01 X68.1597 Y36.5779
G01 X68.2521 Y36.5450
G01 X68.3426 Y36.5224
G01 X68.4372 Y36.5084
G00 Z2.0000
G00 X68.4372 Y41.5084
G01 F60.00
G01 Z-0.0000
G01 F120.00
G01 X68.5328 Y41.5037
G01 X69.7308 Y41.5037
G01 X69.8276 Y41.5085
G01 X69.9210 Y41.5224
G01 X70.0115 Y41.5450
G01 X70.1039 Y41.5779
G01 X70.1925 Y41.6200
G01 X70.2725 Y41.6680
G01 X70.3484 Y41.7242
G01 X70.4202 Y41.7893
G01 X70.4845 Y41.8602
G01 X70.5415 Y41.9370
G01 X70.5907 Y42.0191
G01 X70.6316 Y42.1056
G01 X70.6638 Y42.1957
G01 X70.6871 Y42.2885
G01 X70.7011 Y42.3831
G01 X70.7058 Y42.4787
G01 X70.7011 Y42.5743
G01 X70.6871 Y42.6689
G01 X70.6638 Y42.7617
G01 X70.6316 Y42.8518
G01 X70.5907 Y42.9383
G01 X70.5415 Y43.0204
G01 X70.4853 Y43.0963
G01 X70.4202 Y43.1681
G01 X70.3493 Y43.2324
G01 X70.2725 Y43.2894
G01 X70.1904 Y43.3386
G01 X70.1039 Y43.3795
G01 X70.0138 Y43.4117
G01 X69.9210 Y43.4350
G01 X69.8239 Y43.4492
G01 X69.7308 Y43.4537
G01 X68.5328 Y43.4537
G01 X68.4360 Y43.4489
G01 X68.3426 Y43.4350
G01 X68.2521 Y43.4124
G01 X68.1597 Y43.3795
G01 X68.0711 Y43.3374
G01 X67.9911 Y43.2894
G01 X67.9152 Y43.2332
G01 X67.8417 Y43.1664
G01 X67.7791 Y43.0972
G01 X67.7221 Y43.0204
G01 X67.6718 Y42.9361
G01 X67.6320 Y42.8518
G01 X67.5998 Y42.7617
G01 X67.5765 Y42.6689
G01 X67.5628 Y42.5767
G01 X67.5578 Y42.4787
G01 X67.5625 Y42.3831
G01 X67.5761 Y42.2909
G01 X67.5998 Y42.1957
G01 X67.6320 Y42.1056
G01 X67.6718 Y42.0213
G01 X67.7221 Y41.9370
G01 X67.7791 Y41.8602
G01 X67.8417 Y41.7910
G01 X67.9143 Y41.7250
G01 X67.9932 Y41.6667
G01 X68.0732 Y41.6188
G01 X68.1597 Y41.5779
G01 X68.2521 Y41.5450
G01 X68.3426 Y41.5224
G01 X68.4372 Y41.5084
G00 Z2.0000
G00 X80.9372 Y41.5084
G01 F60.00
G01 Z-0.0000
G01 F120.00
G01 X81.0328 Y41.5037
G01 X82.2308 Y41.5037
G01 X82.3276 Y41.5085
G01 X82.4210 Y41.5224
G01 X82.5115 Y41.5450
G01 X82.6039 Y41.5779
G01 X82.6925 Y41.6200
G01 X82.7725 Y41.6680
G01 X82.8484 Y41.7242
G01 X82.9202 Y41.7893
G01 X82.9845 Y41.8602
G01 X83.0415 Y41.9370
G01 X83.0907 Y42.0191
G01 X83.1316 Y42.1056
G01 X83.1638 Y42.1957
G01 X83.1871 Y42.2885
G01 X83.2011 Y42.3831
G01 X83.2058 Y42.4787
G01 X83.2011 Y42.5743
G01 X83.1871 Y42.6689
G01 X83.1638 Y42.7617
G01 X83.1316 Y42.8518
G01 X83.0907 Y42.9383
G01 X83.0415 Y43.0204
G01 X82.9853 Y43.0963
G01 X82.9202 Y43.1681
G01 X82.8493 Y43.2324
G01 X82.7725 Y43.2894
G01 X82.6904 Y43.3386
G01 X82.6039 Y43.3795
G01 X82.5138 Y43.4117
G01 X82.4210 Y43.4350
G01 X82.3239 Y43.4492
G01 X82.2308 Y43.4537
G01 X81.0328 Y43.4537
G01 X80.9360 Y43.4489
G01 X80.8426 Y43.4350
G01 X80.7521 Y43.4124
G01 X80.6597 Y43.3795
G01 X80.5711 Y43.3374
G01 X80.4911 Y43.2894
G01 X80.4152 Y43.2332
G01 X80.3417 Y43.1664
G01 X80.2791 Y43.0972
G01 X80.2221 Y43.0204
G01 X80.1718 Y42.9361
G01 X80.1320 Y42.8518
G01 X80.0998 Y42.7617
G01 X80.0765 Y42.6689
G01 X80.0628 Y42.5767
G01 X80.0578 Y42.4787
G01 X80.0625 Y42.3831
G01 X80.0761 Y42.2909
G01 X80.0998 Y42.1957
G01 X80.1320 Y42.1056
G01 X80.1718 Y42.0213
G01 X80.2221 Y41.9370
G01 X80.2791 Y41.8602
G01 X80.3417 Y41.7910
G01 X80.4143 Y41.7250
G01 X80.4932 Y41.6667
G01 X80.5732 Y41.6188
G01 X80.6597 Y41.5779
G01 X80.7521 Y41.5450
G01 X80.8426 Y41.5224
G01 X80.9372 Y41.5084
G00 Z2.0000
G00 X80.9372 Y36.5084
G01 F60.00
G01 Z-0.0000
G01 F120.00
G01 X81.0328 Y36.5037
G01 X82.2308 Y36.5037
G01 X82.3276 Y36.5085
G01 X82.4210 Y36.5224
G01 X82.5115 Y36.5450
G01 X82.6039 Y36.5779
G01 X82.6925 Y36.6200
G01 X82.7725 Y36.6680
G01 X82.8484 Y36.7242
G01 X82.9202 Y36.7893
G01 X82.9845 Y36.8602
G01 X83.0415 Y36.9370
G01 X83.0907 Y37.0191
G01 X83.1316 Y37.1056
G01 X83.1638 Y37.1957
G01 X83.1871 Y37.2885
G01 X83.2011 Y37.3831
G01 X83.2058 Y37.4787
G01 X83.2011 Y37.5743
G01 X83.1871 Y37.6689
G01 X83.1638 Y37.7617
G01 X83.1316 Y37.8518
G01 X83.0907 Y37.9383
G01 X83.0415 Y38.0204
G01 X82.9853 Y38.0963
G01 X82.9202 Y38.1681
G01 X82.8493 Y38.2324
G01 X82.7725 Y38.2894
G01 X82.6904 Y38.3386
G01 X82.6039 Y38.3795
G01 X82.5138 Y38.4117
G01 X82.4210 Y38.4350
G01 X82.3239 Y38.4492
G01 X82.2308 Y38.4537
G01 X81.0328 Y38.4537
G01 X80.9360 Y38.4489
G01 X80.8426 Y38.4350
G01 X80.7521 Y38.4124
G01 X80.6597 Y38.3795
G01 X80.5711 Y38.3374
G01 X80.4911 Y38.2894
G01 X80.4152 Y38.2332
G01 X80.3417 Y38.1664
G01 X80.2791 Y38.0972
G01 X80.2221 Y38.0204
G01 X80.1718 Y37.9361
G01 X80.1320 Y37.8518
G01 X80.0998 Y37.7617
G01 X80.0765 Y37.6689
G01 X80.0628 Y37.5767
G01 X80.0578 Y37.4787
G01 X80.0625 Y37.3831
G01 X80.0761 Y37.2909
G01 X80.0998 Y37.1957
G01 X80.1320 Y37.1056
G01 X80.1718 Y37.0213
G01 X80.2221 Y36.9370
G01 X80.2791 Y36.8602
G01 X80.3417 Y36.7910
G01 X80.4143 Y36.7250
G01 X80.4932 Y36.6667
G01 X80.5732 Y36.6188
G01 X80.6597 Y36.5779
G01 X80.7521 Y36.5450
G01 X80.8426 Y36.5224
G01 X80.9372 Y36.5084
G00 Z2.0000
G00 X80.9372 Y15.8544
G01 F60.00
G01 Z-0.0000
G01 F120.00
G01 X81.0328 Y15.8497
G01 X82.2308 Y15.8497
G01 X82.3276 Y15.8545
G01 X82.4210 Y15.8684
G01 X82.5115 Y15.8910
G01 X82.6039 Y15.9239
G01 X82.6925 Y15.9660
G01 X82.7725 Y16.0140
G01 X82.8484 Y16.0702
G01 X82.9202 Y16.1353
G01 X82.9845 Y16.2062
G01 X83.0415 Y16.2830
G01 X83.0907 Y16.3651
G01 X83.1316 Y16.4516
G01 X83.1638 Y16.5417
G01 X83.1871 Y16.6345
G01 X83.2011 Y16.7291
G01 X83.2058 Y16.8247
G01 X83.2011 Y16.9203
G01 X83.1871 Y17.0149
G01 X83.1638 Y17.1077
G01 X83.1316 Y17.1978
G01 X83.0907 Y17.2843
G01 X83.0415 Y17.3664
G01 X82.9853 Y17.4423
G01 X82.9202 Y17.5141
G01 X82.8493 Y17.5784
G01 X82.7725 Y17.6354
G01 X82.6904 Y17.6846
G01 X82.6039 Y17.7255
G01 X82.5138 Y17.7577
G01 X82.4210 Y17.7810
G01 X82.3239 Y17.7952
G01 X82.2308 Y17.7997
G01 X81.0328 Y17.7997
G01 X80.9360 Y17.7949
G01 X80.8426 Y17.7810
G01 X80.7521 Y17.7584
G01 X80.6597 Y17.7255
G01 X80.5711 Y17.6834
G01 X80.4911 Y17.6354
G01 X80.4152 Y17.5792
G01 X80.3417 Y17.5124
G01 X80.2791 Y17.4432
G01 X80.2221 Y17.3664
G01 X80.1718 Y17.2821
G01 X80.1320 Y17.1978
G01 X80.0998 Y17.1077
G01 X80.0765 Y17.0149
G01 X80.0628 Y16.9227
G01 X80.0578 Y16.8247
G01 X80.0625 Y16.7291
G01 X80.0761 Y16.6369
G01 X80.0998 Y16.5417
G01 X80.1320 Y16.4516
G01 X80.1718 Y16.3673
G01 X80.2221 Y16.2830
G01 X80.2791 Y16.2062
G01 X80.3417 Y16.1370
G01 X80.4143 Y16.0710
G01 X80.4932 Y16.0127
G01 X80.5732 Y15.9648
G01 X80.6597 Y15.9239
G01 X80.7521 Y15.8910
G01 X80.8426 Y15.8684
G01 X80.9372 Y15.8544
G00 Z2.0000
G00 X80.9372 Y10.8544
G01 F60.00
G01 Z-0.0000
G01 F120.00
G01 X81.0328 Y10.8497
G01 X82.2308 Y10.8497
G01 X82.3276 Y10.8545
G01 X82.4210 Y10.8684
G01 X82.5115 Y10.8910
G01 X82.6039 Y10.9239
G01 X82.6925 Y10.9660
G01 X82.7725 Y11.0140
G01 X82.8484 Y11.0702
G01 X82.9202 Y11.1353
G01 X82.9845 Y11.2062
G01 X83.0415 Y11.2830
G01 X83.0907 Y11.3651
G01 X83.1316 Y11.4516
G01 X83.1638 Y11.5417
G01 X83.1871 Y11.6345
G01 X83.2011 Y11.7291
G01 X83.2058 Y11.8247
G01 X83.2011 Y11.9203
G01 X83.1871 Y12.0149
G01 X83.1638 Y12.1077
G01 X83.1316 Y12.1978
G01 X83.0907 Y12.2843
G01 X83.0415 Y12.3664
G01 X82.9853 Y12.4423
G01 X82.9202 Y12.5141
G01 X82.8493 Y12.5784
G01 X82.7725 Y12.6354
G01 X82.6904 Y12.6846
G01 X82.6039 Y12.7255
G01 X82.5138 Y12.7577
G01 X82.4210 Y12.7810
G01 X82.3239 Y12.7952
G01 X82.2308 Y12.7997
G01 X81.0328 Y12.7997
G01 X80.9360 Y12.7949
G01 X80.8426 Y12.7810
G01 X80.7521 Y12.7584
G01 X80.6597 Y12.7255
G01 X80.5711 Y12.6834
G01 X80.4911 Y12.6354
G01 X80.4152 Y12.5792
G01 X80.3417 Y12.5124
G01 X80.2791 Y12.4432
G01 X80.2221 Y12.3664
G01 X80.1718 Y12.2821
G01 X80.1320 Y12.1978
G01 X80.0998 Y12.1077
G01 X80.0765 Y12.0149
G01 X80.0628 Y11.9227
G01 X80.0578 Y11.8247
G01 X80.0625 Y11.7291
G01 X80.0761 Y11.6369
G01 X80.0998 Y11.5417
G01 X80.1320 Y11.4516
G01 X80.1718 Y11.3673
G01 X80.2221 Y11.2830
G01 X80.2791 Y11.2062
G01 X80.3417 Y11.1370
G01 X80.4143 Y11.0710
G01 X80.4932 Y11.0127
G01 X80.5732 Y10.9648
G01 X80.6597 Y10.9239
G01 X80.7521 Y10.8910
G01 X80.8426 Y10.8684
G01 X80.9372 Y10.8544
G00 Z2.0000
G00 X68.4372 Y10.8544
G01 F60.00
G01 Z-0.0000
G01 F120.00
G01 X68.5328 Y10.8497
G01 X69.7308 Y10.8497
G01 X69.8276 Y10.8545
G01 X69.9210 Y10.8684
G01 X70.0115 Y10.8910
G01 X70.1039 Y10.9239
G01 X70.1925 Y10.9660
G01 X70.2725 Y11.0140
G01 X70.3484 Y11.0702
G01 X70.4202 Y11.1353
G01 X70.4845 Y11.2062
G01 X70.5415 Y11.2830
G01 X70.5907 Y11.3651
G01 X70.6316 Y11.4516
G01 X70.6638 Y11.5417
G01 X70.6871 Y11.6345
G01 X70.7011 Y11.7291
G01 X70.7058 Y11.8247
G01 X70.7011 Y11.9203
G01 X70.6871 Y12.0149
G01 X70.6638 Y12.1077
G01 X70.6316 Y12.1978
G01 X70.5907 Y12.2843
G01 X70.5415 Y12.3664
G01 X70.4853 Y12.4423
G01 X70.4202 Y12.5141
G01 X70.3493 Y12.5784
G01 X70.2725 Y12.6354
G01 X70.1904 Y12.6846
G01 X70.1039 Y12.7255
G01 X70.0138 Y12.7577
G01 X69.9210 Y12.7810
G01 X69.8239 Y12.7952
G01 X69.7308 Y12.7997
G01 X68.5328 Y12.7997
G01 X68.4360 Y12.7949
G01 X68.3426 Y12.7810
G01 X68.2521 Y12.7584
G01 X68.1597 Y12.7255
G01 X68.0711 Y12.6834
G01 X67.9911 Y12.6354
G01 X67.9152 Y12.5792
G01 X67.8417 Y12.5124
G01 X67.7791 Y12.4432
G01 X67.7221 Y12.3664
G01 X67.6718 Y12.2821
G01 X67.6320 Y12.1978
G01 X67.5998 Y12.1077
G01 X67.5765 Y12.0149
G01 X67.5628 Y11.9227
G01 X67.5578 Y11.8247
G01 X67.5625 Y11.7291
G01 X67.5761 Y11.6369
G01 X67.5998 Y11.5417
G01 X67.6330 Y11.4493
G01 X67.6729 Y11.3651
G01 X67.7221 Y11.2830
G01 X67.7791 Y11.2062
G01 X67.8417 Y11.1370
G01 X67.9143 Y11.0710
G01 X67.9932 Y11.0127
G01 X68.0732 Y10.9648
G01 X68.1597 Y10.9239
G01 X68.2521 Y10.8910
G01 X68.3426 Y10.8684
G01 X68.4372 Y10.8544
G00 Z2.0000
G00 X68.4372 Y15.8544
G01 F60.00
G01 Z-0.0000
G01 F120.00
G01 X68.5328 Y15.8497
G01 X69.7308 Y15.8497
G01 X69.8276 Y15.8545
G01 X69.9210 Y15.8684
G01 X70.0115 Y15.8910
G01 X70.1039 Y15.9239
G01 X70.1925 Y15.9660
G01 X70.2725 Y16.0140
G01 X70.3484 Y16.0702
G01 X70.4202 Y16.1353
G01 X70.4845 Y16.2062
G01 X70.5415 Y16.2830
G01 X70.5907 Y16.3651
G01 X70.6316 Y16.4516
G01 X70.6638 Y16.5417
G01 X70.6871 Y16.6345
G01 X70.7011 Y16.7291
G01 X70.7058 Y16.8247
G01 X70.7011 Y16.9203
G01 X70.6871 Y17.0149
G01 X70.6638 Y17.1077
G01 X70.6316 Y17.1978
G01 X70.5907 Y17.2843
G01 X70.5415 Y17.3664
G01 X70.4853 Y17.4423
G01 X70.4202 Y17.5141
G01 X70.3493 Y17.5784
G01 X70.2725 Y17.6354
G01 X70.1904 Y17.6846
G01 X70.1039 Y17.7255
G01 X70.0138 Y17.7577
G01 X69.9210 Y17.7810
G01 X69.8239 Y17.7952
G01 X69.7308 Y17.7997
G01 X68.5328 Y17.7997
G01 X68.4360 Y17.7949
G01 X68.3426 Y17.7810
G01 X68.2521 Y17.7584
G01 X68.1597 Y17.7255
G01 X68.0711 Y17.6834
G01 X67.9911 Y17.6354
G01 X67.9152 Y17.5792
G01 X67.8417 Y17.5124
G01 X67.7791 Y17.4432
G01 X67.7221 Y17.3664
G01 X67.6718 Y17.2821
G01 X67.6320 Y17.1978
G01 X67.5998 Y17.1077
G01 X67.5765 Y17.0149
G01 X67.5628 Y16.9227
G01 X67.5578 Y16.8247
G01 X67.5625 Y16.7291
G01 X67.5761 Y16.6369
G01 X67.5998 Y16.5417
G01 X67.6330 Y16.4493
G01 X67.6729 Y16.3651
G01 X67.7221 Y16.2830
G01 X67.7791 Y16.2062
G01 X67.8417 Y16.1370
G01 X67.9143 Y16.0710
G01 X67.9932 Y16.0127
G01 X68.0732 Y15.9648
G01 X68.1597 Y15.9239
G01 X68.2521 Y15.8910
G01 X68.3426 Y15.8684
G01 X68.4372 Y15.8544
G00 Z2.0000
G00 X57.1810 Y16.0296
G01 F60.00
G01 Z-0.0000
G01 F120.00
G01 X57.2595 Y16.0493
G01 X57.3358 Y16.0765
G01 X57.4135 Y16.1131
G01 X57.4850 Y16.1560
G01 X57.5501 Y16.2041
G01 X57.6138 Y16.2617
G01 X57.6699 Y16.3235
G01 X57.7181 Y16.3885
G01 X57.7624 Y16.4620
G01 X57.7990 Y16.5397
G01 X57.8262 Y16.6160
G01 X57.8459 Y16.6945
G01 X57.8587 Y16.7794
G01 X57.8627 Y16.8652
G01 X57.8587 Y16.9460
G01 X57.8469 Y17.0261
G01 X57.8254 Y17.1118
G01 X57.7981 Y17.1880
G01 X57.7635 Y17.2612
G01 X57.7195 Y17.3349
G01 X57.6683 Y17.4038
G01 X57.6138 Y17.4637
G01 X57.5530 Y17.5190
G01 X57.4830 Y17.5708
G01 X57.4135 Y17.6123
G01 X57.3381 Y17.6480
G01 X57.2572 Y17.6768
G01 X57.1786 Y17.6964
G01 X57.0973 Y17.7085
G01 X57.0128 Y17.7127
G01 X56.2128 Y17.7127
G01 X56.1319 Y17.7088
G01 X56.0470 Y17.6964
G01 X55.9661 Y17.6761
G01 X55.8875 Y17.6480
G01 X55.8121 Y17.6123
G01 X55.7406 Y17.5694
G01 X55.6736 Y17.5198
G01 X55.6118 Y17.4637
G01 X55.5565 Y17.4029
G01 X55.5061 Y17.3349
G01 X55.4632 Y17.2634
G01 X55.4275 Y17.1880
G01 X55.3994 Y17.1094
G01 X55.3791 Y17.0285
G01 X55.3669 Y16.9460
G01 X55.3628 Y16.8627
G01 X55.3669 Y16.7794
G01 X55.3791 Y16.6969
G01 X55.3994 Y16.6160
G01 X55.4275 Y16.5374
G01 X55.4632 Y16.4620
G01 X55.5061 Y16.3905
G01 X55.5557 Y16.3235
G01 X55.6118 Y16.2617
G01 X55.6726 Y16.2064
G01 X55.7426 Y16.1546
G01 X55.8121 Y16.1131
G01 X55.8875 Y16.0774
G01 X55.9684 Y16.0486
G01 X56.0470 Y16.0290
G01 X56.1283 Y16.0169
G01 X56.2128 Y16.0127
G01 X57.0128 Y16.0127
G01 X57.0961 Y16.0168
G01 X57.1810 Y16.0296
G00 Z2.0000
G00 X57.1810 Y13.4896
G01 F60.00
G01 Z-0.0000
G01 F120.00
G01 X57.2595 Y13.5093
G01 X57.3358 Y13.5365
G01 X57.4135 Y13.5731
G01 X57.4850 Y13.6160
G01 X57.5501 Y13.6641
G01 X57.6138 Y13.7217
G01 X57.6699 Y13.7835
G01 X57.7181 Y13.8485
G01 X57.7624 Y13.9220
G01 X57.7990 Y13.9997
G01 X57.8262 Y14.0760
G01 X57.8459 Y14.1545
G01 X57.8587 Y14.2394
G01 X57.8627 Y14.3252
G01 X57.8587 Y14.4060
G01 X57.8469 Y14.4861
G01 X57.8254 Y14.5718
G01 X57.7981 Y14.6480
G01 X57.7635 Y14.7212
G01 X57.7195 Y14.7949
G01 X57.6683 Y14.8638
G01 X57.6138 Y14.9237
G01 X57.5530 Y14.9790
G01 X57.4830 Y15.0308
G01 X57.4135 Y15.0723
G01 X57.3381 Y15.1080
G01 X57.2572 Y15.1368
G01 X57.1786 Y15.1564
G01 X57.0973 Y15.1685
G01 X57.0128 Y15.1727
G01 X56.2128 Y15.1727
G01 X56.1319 Y15.1688
G01 X56.0470 Y15.1564
G01 X55.9661 Y15.1361
G01 X55.8875 Y15.1080
G01 X55.8121 Y15.0723
G01 X55.7406 Y15.0294
G01 X55.6736 Y14.9798
G01 X55.6118 Y14.9237
G01 X55.5565 Y14.8629
G01 X55.5061 Y14.7949
G01 X55.4632 Y14.7234
G01 X55.4275 Y14.6480
G01 X55.3994 Y14.5694
G01 X55.3791 Y14.4885
G01 X55.3669 Y14.4060
G01 X55.3628 Y14.3227
G01 X55.3669 Y14.2394
G01 X55.3791 Y14.1569
G01 X55.3994 Y14.0760
G01 X55.4275 Y13.9974
G01 X55.4632 Y13.9220
G01 X55.5061 Y13.8505
G01 X55.5557 Y13.7835
G01 X55.6118 Y13.7217
G01 X55.6726 Y13.6664
G01 X55.7426 Y13.6146
G01 X55.8121 Y13.5731
G01 X55.8875 Y13.5374
G01 X55.9684 Y13.5086
G01 X56.0470 Y13.4890
G01 X56.1283 Y13.4769
G01 X56.2128 Y13.4727
G01 X57.0128 Y13.4727
G01 X57.0961 Y13.4768
G01 X57.1810 Y13.4896
G00 Z2.0000
G00 X57.1810 Y10.9496
G01 F60.00
G01 Z-0.0000
G01 F120.00
G01 X57.2595 Y10.9693
G01 X57.3358 Y10.9965
G01 X57.4135 Y11.0331
G01 X57.4850 Y11.0760
G01 X57.5501 Y11.1241
G01 X57.6138 Y11.1817
G01 X57.6699 Y11.2435
G01 X57.7181 Y11.3085
G01 X57.7624 Y11.3820
G01 X57.7990 Y11.4597
G01 X57.8262 Y11.5360
G01 X57.8459 Y11.6145
G01 X57.8587 Y11.6994
G01 X57.8627 Y11.7852
G01 X57.8587 Y11.8660
G01 X57.8469 Y11.9461
G01 X57.8254 Y12.0318
G01 X57.7981 Y12.1080
G01 X57.7635 Y12.1812
G01 X57.7195 Y12.2549
G01 X57.6683 Y12.3238
G01 X57.6138 Y12.3837
G01 X57.5530 Y12.4390
G01 X57.4830 Y12.4908
G01 X57.4135 Y12.5323
G01 X57.3381 Y12.5680
G01 X57.2572 Y12.5968
G01 X57.1786 Y12.6164
G01 X57.0973 Y12.6285
G01 X57.0128 Y12.6327
G01 X56.2128 Y12.6327
G01 X56.1319 Y12.6288
G01 X56.0470 Y12.6164
G01 X55.9661 Y12.5961
G01 X55.8875 Y12.5680
G01 X55.8121 Y12.5323
G01 X55.7406 Y12.4894
G01 X55.6736 Y12.4398
G01 X55.6118 Y12.3837
G01 X55.5565 Y12.3229
G01 X55.5061 Y12.2549
G01 X55.4632 Y12.1834
G01 X55.4275 Y12.1080
G01 X55.3994 Y12.0294
G01 X55.3791 Y11.9485
G01 X55.3669 Y11.8660
G01 X55.3628 Y11.7827
G01 X55.3669 Y11.6994
G01 X55.3791 Y11.6169
G01 X55.3994 Y11.5360
G01 X55.4275 Y11.4574
G01 X55.4632 Y11.3820
G01 X55.5061 Y11.3105
G01 X55.5557 Y11.2435
G01 X55.6118 Y11.1817
G01 X55.6726 Y11.1264
G01 X55.7426 Y11.0746
G01 X55.8121 Y11.0331
G01 X55.8875 Y10.9974
G01 X55.9684 Y10.9686
G01 X56.0470 Y10.9490
G01 X56.1283 Y10.9369
G01 X56.2128 Y10.9327
G01 X57.0128 Y10.9327
G01 X57.0961 Y10.9368
G01 X57.1810 Y10.9496
G00 Z2.0000
G00 X57.1810 Y8.4096
G01 F60.00
G01 Z-0.0000
G01 F120.00
G01 X57.2595 Y8.4293
G01 X57.3358 Y8.4565
G01 X57.4135 Y8.4931
G01 X57.4850 Y8.5360
G01 X57.5501 Y8.5841
G01 X57.6138 Y8.6417
G01 X57.6699 Y8.7035
G01 X57.7181 Y8.7685
G01 X57.7624 Y8.8420
G01 X57.7990 Y8.9197
G01 X57.8262 Y8.9960
G01 X57.8459 Y9.0745
G01 X57.8587 Y9.1594
G01 X57.8627 Y9.2452
G01 X57.8587 Y9.3260
G01 X57.8469 Y9.4061
G01 X57.8254 Y9.4918
G01 X57.7981 Y9.5680
G01 X57.7635 Y9.6412
G01 X57.7195 Y9.7149
G01 X57.6683 Y9.7838
G01 X57.6138 Y9.8437
G01 X57.5530 Y9.8990
G01 X57.4830 Y9.9508
G01 X57.4135 Y9.9923
G01 X57.3381 Y10.0280
G01 X57.2572 Y10.0568
G01 X57.1786 Y10.0764
G01 X57.0973 Y10.0885
G01 X57.0128 Y10.0927
G01 X56.2128 Y10.0927
G01 X56.1319 Y10.0888
G01 X56.0470 Y10.0764
G01 X55.9661 Y10.0561
G01 X55.8875 Y10.0280
G01 X55.8121 Y9.9923
G01 X55.7406 Y9.9494
G01 X55.6736 Y9.8998
G01 X55.6118 Y9.8437
G01 X55.5565 Y9.7829
G01 X55.5061 Y9.7149
G01 X55.4632 Y9.6434
G01 X55.4275 Y9.5680
G01 X55.3994 Y9.4894
G01 X55.3791 Y9.4085
G01 X55.3669 Y9.3260
G01 X55.3628 Y9.2427
G01 X55.3669 Y9.1594
G01 X55.3791 Y9.0769
G01 X55.3994 Y8.9960
G01 X55.4275 Y8.9174
G01 X55.4632 Y8.8420
G01 X55.5061 Y8.7705
G01 X55.5557 Y8.7035
G01 X55.6118 Y8.6417
G01 X55.6726 Y8.5864
G01 X55.7426 Y8.5346
G01 X55.8121 Y8.4931
G01 X55.8875 Y8.4574
G01 X55.9684 Y8.4286
G01 X56.0470 Y8.4090
G01 X56.1283 Y8.3969
G01 X56.2128 Y8.3927
G01 X57.0128 Y8.3927
G01 X57.0961 Y8.3968
G01 X57.1810 Y8.4096
G00 Z2.0000
G00 X57.1810 Y5.8696
G01 F60.00
G01 Z-0.0000
G01 F120.00
G01 X57.2595 Y5.8893
G01 X57.3358 Y5.9165
G01 X57.4135 Y5.9531
G01 X57.4850 Y5.9960
G01 X57.5501 Y6.0441
G01 X57.6138 Y6.1017
G01 X57.6699 Y6.1635
G01 X57.7181 Y6.2285
G01 X57.7624 Y6.3020
G01 X57.7990 Y6.3797
G01 X57.8262 Y6.4560
G01 X57.8459 Y6.5345
G01 X57.8587 Y6.6194
G01 X57.8627 Y6.7052
G01 X57.8587 Y6.7860
G01 X57.8469 Y6.8661
G01 X57.8254 Y6.9518
G01 X57.7981 Y7.0280
G01 X57.7635 Y7.1012
G01 X57.7195 Y7.1749
G01 X57.6683 Y7.2438
G01 X57.6138 Y7.3037
G01 X57.5530 Y7.3590
G01 X57.4830 Y7.4108
G01 X57.4135 Y7.4523
G01 X57.3381 Y7.4880
G01 X57.2572 Y7.5168
G01 X57.1786 Y7.5364
G01 X57.0973 Y7.5485
G01 X57.0128 Y7.5527
G01 X56.2128 Y7.5527
G01 X56.1319 Y7.5488
G01 X56.0470 Y7.5364
G01 X55.9661 Y7.5161
G01 X55.8875 Y7.4880
G01 X55.8121 Y7.4523
G01 X55.7406 Y7.4094
G01 X55.6736 Y7.3598
G01 X55.6118 Y7.3037
G01 X55.5565 Y7.2429
G01 X55.5061 Y7.1749
G01 X55.4632 Y7.1034
G01 X55.4275 Y7.0280
G01 X55.3994 Y6.9494
G01 X55.3791 Y6.8685
G01 X55.3669 Y6.7860
G01 X55.3628 Y6.7027
G01 X55.3669 Y6.6194
G01 X55.3791 Y6.5369
G01 X55.3994 Y6.4560
G01 X55.4275 Y6.3774
G01 X55.4632 Y6.3020
G01 X55.5061 Y6.2305
G01 X55.5557 Y6.1635
G01 X55.6118 Y6.1017
G01 X55.6726 Y6.0464
G01 X55.7426 Y5.9946
G01 X55.8121 Y5.9531
G01 X55.8875 Y5.9174
G01 X55.9684 Y5.8886
G01 X56.0470 Y5.8690
G01 X56.1283 Y5.8569
G01 X56.2128 Y5.8527
G01 X57.0128 Y5.8527
G01 X57.0961 Y5.8568
G01 X57.1810 Y5.8696
G00 Z2.0000
G00 X55.4067 Y3.3131
G01 F60.00
G01 Z-0.0000
G01 F120.00
G01 X55.4128 Y3.3127
G01 X57.8128 Y3.3127
G01 X57.8201 Y3.3132
G01 X57.8273 Y3.3149
G01 X57.8342 Y3.3175
G01 X57.8406 Y3.3211
G01 X57.8455 Y3.3248
G01 X57.8498 Y3.3291
G01 X57.8537 Y3.3339
G01 X57.8569 Y3.3391
G01 X57.8594 Y3.3447
G01 X57.8613 Y3.3506
G01 X57.8624 Y3.3566
G01 X57.8628 Y3.3627
G01 X57.8628 Y4.9627
G01 X57.8623 Y4.9700
G01 X57.8606 Y4.9772
G01 X57.8580 Y4.9841
G01 X57.8544 Y4.9905
G01 X57.8507 Y4.9954
G01 X57.8464 Y4.9997
G01 X57.8416 Y5.0036
G01 X57.8364 Y5.0068
G01 X57.8308 Y5.0093
G01 X57.8249 Y5.0112
G01 X57.8189 Y5.0123
G01 X57.8128 Y5.0127
G01 X55.4128 Y5.0127
G01 X55.4055 Y5.0122
G01 X55.3983 Y5.0105
G01 X55.3914 Y5.0079
G01 X55.3850 Y5.0043
G01 X55.3801 Y5.0006
G01 X55.3758 Y4.9963
G01 X55.3719 Y4.9915
G01 X55.3687 Y4.9863
G01 X55.3666 Y4.9818
G01 X55.3646 Y4.9760
G01 X55.3633 Y4.9700
G01 X55.3628 Y4.9639
G01 X55.3628 Y3.3615
G01 X55.3638 Y3.3529
G01 X55.3662 Y3.3447
G01 X55.3706 Y3.3360
G01 X55.3758 Y3.3291
G01 X55.3820 Y3.3233
G01 X55.3892 Y3.3186
G01 X55.3971 Y3.3152
G01 X55.4067 Y3.3131
G00 Z2.0000
G00 X47.0198 Y3.3293
G01 F60.00
G01 Z-0.0000
G01 F120.00
G01 X47.0995 Y3.3493
G01 X47.1758 Y3.3765
G01 X47.2535 Y3.4131
G01 X47.3250 Y3.4560
G01 X47.3901 Y3.5041
G01 X47.4538 Y3.5617
G01 X47.5099 Y3.6235
G01 X47.5581 Y3.6885
G01 X47.6024 Y3.7620
G01 X47.6390 Y3.8397
G01 X47.6662 Y3.9160
G01 X47.6859 Y3.9945
G01 X47.6987 Y4.0794
G01 X47.7027 Y4.1652
G01 X47.6987 Y4.2460
G01 X47.6869 Y4.3261
G01 X47.6654 Y4.4118
G01 X47.6381 Y4.4880
G01 X47.6035 Y4.5612
G01 X47.5595 Y4.6349
G01 X47.5083 Y4.7038
G01 X47.4538 Y4.7637
G01 X47.3930 Y4.8190
G01 X47.3230 Y4.8708
G01 X47.2535 Y4.9123
G01 X47.1781 Y4.9480
G01 X47.0972 Y4.9768
G01 X47.0186 Y4.9964
G01 X46.9373 Y5.0085
G01 X46.8528 Y5.0127
G01 X46.0528 Y5.0127
G01 X45.9719 Y5.0088
G01 X45.8870 Y4.9964
G01 X45.8061 Y4.9761
G01 X45.7275 Y4.9480
G01 X45.6521 Y4.9123
G01 X45.5806 Y4.8694
G01 X45.5136 Y4.8198
G01 X45.4518 Y4.7637
G01 X45.3965 Y4.7029
G01 X45.3461 Y4.6349
G01 X45.3032 Y4.5634
G01 X45.2675 Y4.4880
G01 X45.2394 Y4.4094
G01 X45.2191 Y4.3285
G01 X45.2069 Y4.2460
G01 X45.2028 Y4.1627
G01 X45.2069 Y4.0794
G01 X45.2191 Y3.9969
G01 X45.2394 Y3.9160
G01 X45.2675 Y3.8374
G01 X45.3032 Y3.7620
G01 X45.3461 Y3.6905
G01 X45.3957 Y3.6235
G01 X45.4518 Y3.5617
G01 X45.5126 Y3.5064
G01 X45.5826 Y3.4546
G01 X45.6521 Y3.4131
G01 X45.7275 Y3.3774
G01 X45.8084 Y3.3486
G01 X45.8870 Y3.3290
G01 X45.9683 Y3.3169
G01 X46.0528 Y3.3127
G01 X46.8528 Y3.3127
G01 X46.9361 Y3.3168
G01 X47.0198 Y3.3293
G00 Z2.0000
G00 X47.0198 Y5.8693
G01 F60.00
G01 Z-0.0000
G01 F120.00
G01 X47.0995 Y5.8893
G01 X47.1758 Y5.9165
G01 X47.2535 Y5.9531
G01 X47.3250 Y5.9960
G01 X47.3901 Y6.0441
G01 X47.4538 Y6.1017
G01 X47.5099 Y6.1635
G01 X47.5581 Y6.2285
G01 X47.6024 Y6.3020
G01 X47.6390 Y6.3797
G01 X47.6662 Y6.4560
G01 X47.6859 Y6.5345
G01 X47.6987 Y6.6194
G01 X47.7027 Y6.7052
G01 X47.6987 Y6.7860
G01 X47.6869 Y6.8661
G01 X47.6654 Y6.9518
G01 X47.6381 Y7.0280
G01 X47.6035 Y7.1012
G01 X47.5595 Y7.1749
G01 X47.5083 Y7.2438
G01 X47.4538 Y7.3037
G01 X47.3930 Y7.3590
G01 X47.3230 Y7.4108
G01 X47.2535 Y7.4523
G01 X47.1781 Y7.4880
G01 X47.0972 Y7.5168
G01 X47.0186 Y7.5364
G01 X46.9373 Y7.5485
G01 X46.8528 Y7.5527
G01 X46.0528 Y7.5527
G01 X45.9719 Y7.5488
G01 X45.8870 Y7.5364
G01 X45.8061 Y7.5161
G01 X45.7275 Y7.4880
G01 X45.6521 Y7.4523
G01 X45.5806 Y7.4094
G01 X45.5136 Y7.3598
G01 X45.4518 Y7.3037
G01 X45.3965 Y7.2429
G01 X45.3461 Y7.1749
G01 X45.3032 Y7.1034
G01 X45.2675 Y7.0280
G01 X45.2394 Y6.9494
G01 X45.2191 Y6.8685
G01 X45.2069 Y6.7860
G01 X45.2028 Y6.7027
G01 X45.2069 Y6.6194
G01 X45.2191 Y6.5369
G01 X45.2394 Y6.4560
G01 X45.2675 Y6.3774
G01 X45.3032 Y6.3020
G01 X45.3461 Y6.2305
G01 X45.3957 Y6.1635
G01 X45.4518 Y6.1017
G01 X45.5126 Y6.0464
G01 X45.5826 Y5.9946
G01 X45.6521 Y5.9531
G01 X45.7275 Y5.9174
G01 X45.8084 Y5.8886
G01 X45.8870 Y5.8690
G01 X45.9683 Y5.8569
G01 X46.0528 Y5.8527
G01 X46.8528 Y5.8527
G01 X46.9361 Y5.8568
G01 X47.0198 Y5.8693
G00 Z2.0000
G00 X47.0198 Y8.4093
G01 F60.00
G01 Z-0.0000
G01 F120.00
G01 X47.0995 Y8.4293
G01 X47.1758 Y8.4565
G01 X47.2535 Y8.4931
G01 X47.3250 Y8.5360
G01 X47.3901 Y8.5841
G01 X47.4538 Y8.6417
G01 X47.5099 Y8.7035
G01 X47.5581 Y8.7685
G01 X47.6024 Y8.8420
G01 X47.6390 Y8.9197
G01 X47.6662 Y8.9960
G01 X47.6859 Y9.0745
G01 X47.6987 Y9.1594
G01 X47.7027 Y9.2452
G01 X47.6987 Y9.3260
G01 X47.6869 Y9.4061
G01 X47.6654 Y9.4918
G01 X47.6381 Y9.5680
G01 X47.6035 Y9.6412
G01 X47.5595 Y9.7149
G01 X47.5083 Y9.7838
G01 X47.4538 Y9.8437
G01 X47.3930 Y9.8990
G01 X47.3230 Y9.9508
G01 X47.2535 Y9.9923
G01 X47.1781 Y10.0280
G01 X47.0972 Y10.0568
G01 X47.0186 Y10.0764
G01 X46.9373 Y10.0885
G01 X46.8528 Y10.0927
G01 X46.0528 Y10.0927
G01 X45.9719 Y10.0888
G01 X45.8870 Y10.0764
G01 X45.8061 Y10.0561
G01 X45.7275 Y10.0280
G01 X45.6521 Y9.9923
G01 X45.5806 Y9.9494
G01 X45.5136 Y9.8998
G01 X45.4518 Y9.8437
G01 X45.3965 Y9.7829
G01 X45.3461 Y9.7149
G01 X45.3032 Y9.6434
G01 X45.2675 Y9.5680
G01 X45.2394 Y9.4894
G01 X45.2191 Y9.4085
G01 X45.2069 Y9.3260
G01 X45.2028 Y9.2427
G01 X45.2069 Y9.1594
G01 X45.2191 Y9.0769
G01 X45.2394 Y8.9960
G01 X45.2675 Y8.9174
G01 X45.3032 Y8.8420
G01 X45.3461 Y8.7705
G01 X45.3957 Y8.7035
G01 X45.4518 Y8.6417
G01 X45.5126 Y8.5864
G01 X45.5826 Y8.5346
G01 X45.6521 Y8.4931
G01 X45.7275 Y8.4574
G01 X45.8084 Y8.4286
G01 X45.8870 Y8.4090
G01 X45.9683 Y8.3969
G01 X46.0528 Y8.3927
G01 X46.8528 Y8.3927
G01 X46.9361 Y8.3968
G01 X47.0198 Y8.4093
G00 Z2.0000
G00 X47.0198 Y10.9493
G01 F60.00
G01 Z-0.0000
G01 F120.00
G01 X47.0995 Y10.9693
G01 X47.1758 Y10.9965
G01 X47.2535 Y11.0331
G01 X47.3250 Y11.0760
G01 X47.3901 Y11.1241
G01 X47.4538 Y11.1817
G01 X47.5099 Y11.2435
G01 X47.5581 Y11.3085
G01 X47.6024 Y11.3820
G01 X47.6390 Y11.4597
G01 X47.6662 Y11.5360
G01 X47.6859 Y11.6145
G01 X47.6987 Y11.6994
G01 X47.7027 Y11.7852
G01 X47.6987 Y11.8660
G01 X47.6869 Y11.9461
G01 X47.6654 Y12.0318
G01 X47.6381 Y12.1080
G01 X47.6035 Y12.1812
G01 X47.5595 Y12.2549
G01 X47.5083 Y12.3238
G01 X47.4538 Y12.3837
G01 X47.3930 Y12.4390
G01 X47.3230 Y12.4908
G01 X47.2535 Y12.5323
G01 X47.1781 Y12.5680
G01 X47.0972 Y12.5968
G01 X47.0186 Y12.6164
G01 X46.9373 Y12.6285
G01 X46.8528 Y12.6327
G01 X46.0528 Y12.6327
G01 X45.9719 Y12.6288
G01 X45.8870 Y12.6164
G01 X45.8061 Y12.5961
G01 X45.7275 Y12.5680
G01 X45.6521 Y12.5323
G01 X45.5806 Y12.4894
G01 X45.5136 Y12.4398
G01 X45.4518 Y12.3837
G01 X45.3965 Y12.3229
G01 X45.3461 Y12.2549
G01 X45.3032 Y12.1834
G01 X45.2675 Y12.1080
G01 X45.2394 Y12.0294
G01 X45.2191 Y11.9485
G01 X45.2069 Y11.8660
G01 X45.2028 Y11.7827
G01 X45.2069 Y11.6994
G01 X45.2191 Y11.6169
G01 X45.2394 Y11.5360
G01 X45.2675 Y11.4574
G01 X45.3032 Y11.3820
G01 X45.3461 Y11.3105
G01 X45.3957 Y11.2435
G01 X45.4518 Y11.1817
G01 X45.5126 Y11.1264
G01 X45.5826 Y11.0746
G01 X45.6521 Y11.0331
G01 X45.7275 Y10.9974
G01 X45.8084 Y10.9686
G01 X45.8870 Y10.9490
G01 X45.9683 Y10.9369
G01 X46.0528 Y10.9327
G01 X46.8528 Y10.9327
G01 X46.9361 Y10.9368
G01 X47.0198 Y10.9493
G00 Z2.0000
G00 X47.0198 Y13.4893
G01 F60.00
G01 Z-0.0000
G01 F120.00
G01 X47.0995 Y13.5093
G01 X47.1758 Y13.5365
G01 X47.2535 Y13.5731
G01 X47.3250 Y13.6160
G01 X47.3901 Y13.6641
G01 X47.4538 Y13.7217
G01 X47.5099 Y13.7835
G01 X47.5581 Y13.8485
G01 X47.6024 Y13.9220
G01 X47.6390 Y13.9997
G01 X47.6662 Y14.0760
G01 X47.6859 Y14.1545
G01 X47.6987 Y14.2394
G01 X47.7027 Y14.3252
G01 X47.6987 Y14.4060
G01 X47.6869 Y14.4861
G01 X47.6654 Y14.5718
G01 X47.6381 Y14.6480
G01 X47.6035 Y14.7212
G01 X47.5595 Y14.7949
G01 X47.5083 Y14.8638
G01 X47.4538 Y14.9237
G01 X47.3930 Y14.9790
G01 X47.3230 Y15.0308
G01 X47.2535 Y15.0723
G01 X47.1781 Y15.1080
G01 X47.0972 Y15.1368
G01 X47.0186 Y15.1564
G01 X46.9373 Y15.1685
G01 X46.8528 Y15.1727
G01 X46.0528 Y15.1727
G01 X45.9719 Y15.1688
G01 X45.8870 Y15.1564
G01 X45.8061 Y15.1361
G01 X45.7275 Y15.1080
G01 X45.6521 Y15.0723
G01 X45.5806 Y15.0294
G01 X45.5136 Y14.9798
G01 X45.4518 Y14.9237
G01 X45.3965 Y14.8629
G01 X45.3461 Y14.7949
G01 X45.3032 Y14.7234
G01 X45.2675 Y14.6480
G01 X45.2394 Y14.5694
G01 X45.2191 Y14.4885
G01 X45.2069 Y14.4060
G01 X45.2028 Y14.3227
G01 X45.2069 Y14.2394
G01 X45.2191 Y14.1569
G01 X45.2394 Y14.0760
G01 X45.2675 Y13.9974
G01 X45.3032 Y13.9220
G01 X45.3461 Y13.8505
G01 X45.3957 Y13.7835
G01 X45.4518 Y13.7217
G01 X45.5126 Y13.6664
G01 X45.5826 Y13.6146
G01 X45.6521 Y13.5731
G01 X45.7275 Y13.5374
G01 X45.8084 Y13.5086
G01 X45.8870 Y13.4890
G01 X45.9683 Y13.4769
G01 X46.0528 Y13.4727
G01 X46.8528 Y13.4727
G01 X46.9361 Y13.4768
G01 X47.0198 Y13.4893
G00 Z2.0000
G00 X47.0198 Y16.0293
G01 F60.00
G01 Z-0.0000
G01 F120.00
G01 X47.0995 Y16.0493
G01 X47.1758 Y16.0765
G01 X47.2535 Y16.1131
G01 X47.3250 Y16.1560
G01 X47.3901 Y16.2041
G01 X47.4538 Y16.2617
G01 X47.5099 Y16.3235
G01 X47.5581 Y16.3885
G01 X47.6024 Y16.4620
G01 X47.6390 Y16.5397
G01 X47.6662 Y16.6160
G01 X47.6859 Y16.6945
G01 X47.6987 Y16.7794
G01 X47.7027 Y16.8652
G01 X47.6987 Y16.9460
G01 X47.6869 Y17.0261
G01 X47.6654 Y17.1118
G01 X47.6381 Y17.1880
G01 X47.6035 Y17.2612
G01 X47.5595 Y17.3349
G01 X47.5083 Y17.4038
G01 X47.4538 Y17.4637
G01 X47.3930 Y17.5190
G01 X47.3230 Y17.5708
G01 X47.2535 Y17.6123
G01 X47.1781 Y17.6480
G01 X47.0972 Y17.6768
G01 X47.0186 Y17.6964
G01 X46.9373 Y17.7085
G01 X46.8528 Y17.7127
G01 X46.0528 Y17.7127
G01 X45.9719 Y17.7088
G01 X45.8870 Y17.6964
G01 X45.8061 Y17.6761
G01 X45.7275 Y17.6480
G01 X45.6521 Y17.6123
G01 X45.5806 Y17.5694
G01 X45.5136 Y17.5198
G01 X45.4518 Y17.4637
G01 X45.3965 Y17.4029
G01 X45.3461 Y17.3349
G01 X45.3032 Y17.2634
G01 X45.2675 Y17.1880
G01 X45.2394 Y17.1094
G01 X45.2191 Y17.0285
G01 X45.2069 Y16.9460
G01 X45.2028 Y16.8627
G01 X45.2069 Y16.7794
G01 X45.2191 Y16.6969
G01 X45.2394 Y16.6160
G01 X45.2675 Y16.5374
G01 X45.3032 Y16.4620
G01 X45.3461 Y16.3905
G01 X45.3957 Y16.3235
G01 X45.4518 Y16.2617
G01 X45.5126 Y16.2064
G01 X45.5826 Y16.1546
G01 X45.6521 Y16.1131
G01 X45.7275 Y16.0774
G01 X45.8084 Y16.0486
G01 X45.8870 Y16.0290
G01 X45.9683 Y16.0169
G01 X46.0528 Y16.0127
G01 X46.8528 Y16.0127
G01 X46.9361 Y16.0168
G01 X47.0198 Y16.0293
G00 Z2.0000
G00 X47.0198 Y18.5693
G01 F60.00
G01 Z-0.0000
G01 F120.00
G01 X47.0995 Y18.5893
G01 X47.1758 Y18.6165
G01 X47.2535 Y18.6531
G01 X47.3250 Y18.6960
G01 X47.3901 Y18.7441
G01 X47.4538 Y18.8017
G01 X47.5099 Y18.8635
G01 X47.5581 Y18.9285
G01 X47.6024 Y19.0020
G01 X47.6390 Y19.0797
G01 X47.6662 Y19.1560
G01 X47.6859 Y19.2345
G01 X47.6987 Y19.3194
G01 X47.7027 Y19.4052
G01 X47.6987 Y19.4860
G01 X47.6869 Y19.5661
G01 X47.6654 Y19.6518
G01 X47.6381 Y19.7280
G01 X47.6035 Y19.8012
G01 X47.5595 Y19.8749
G01 X47.5083 Y19.9438
G01 X47.4538 Y20.0037
G01 X47.3930 Y20.0590
G01 X47.3230 Y20.1108
G01 X47.2535 Y20.1523
G01 X47.1781 Y20.1880
G01 X47.0972 Y20.2168
G01 X47.0186 Y20.2364
G01 X46.9373 Y20.2485
G01 X46.8528 Y20.2527
G01 X46.0528 Y20.2527
G01 X45.9719 Y20.2488
G01 X45.8870 Y20.2364
G01 X45.8061 Y20.2161
G01 X45.7275 Y20.1880
G01 X45.6521 Y20.1523
G01 X45.5806 Y20.1094
G01 X45.5136 Y20.0598
G01 X45.4518 Y20.0037
G01 X45.3965 Y19.9429
G01 X45.3461 Y19.8749
G01 X45.3032 Y19.8034
G01 X45.2675 Y19.7280
G01 X45.2394 Y19.6494
G01 X45.2191 Y19.5685
G01 X45.2069 Y19.4860
G01 X45.2028 Y19.4027
G01 X45.2069 Y19.3194
G01 X45.2191 Y19.2369
G01 X45.2394 Y19.1560
G01 X45.2675 Y19.0774
G01 X45.3032 Y19.0020
G01 X45.3461 Y18.9305
G01 X45.3957 Y18.8635
G01 X45.4518 Y18.8017
G01 X45.5126 Y18.7464
G01 X45.5826 Y18.6946
G01 X45.6521 Y18.6531
G01 X45.7275 Y18.6174
G01 X45.8084 Y18.5886
G01 X45.8870 Y18.5690
G01 X45.9683 Y18.5569
G01 X46.0528 Y18.5527
G01 X46.8528 Y18.5527
G01 X46.9361 Y18.5568
G01 X47.0198 Y18.5693
G00 Z2.0000
G00 X47.0198 Y21.1093
G01 F60.00
G01 Z-0.0000
G01 F120.00
G01 X47.0995 Y21.1293
G01 X47.1758 Y21.1565
G01 X47.2535 Y21.1931
G01 X47.3250 Y21.2360
G01 X47.3901 Y21.2841
G01 X47.4538 Y21.3417
G01 X47.5099 Y21.4035
G01 X47.5581 Y21.4685
G01 X47.6024 Y21.5420
G01 X47.6390 Y21.6197
G01 X47.6662 Y21.6960
G01 X47.6859 Y21.7745
G01 X47.6987 Y21.8594
G01 X47.7027 Y21.9452
G01 X47.6987 Y22.0260
G01 X47.6869 Y22.1061
G01 X47.6654 Y22.1918
G01 X47.6381 Y22.2680
G01 X47.6035 Y22.3412
G01 X47.5595 Y22.4149
G01 X47.5083 Y22.4838
G01 X47.4538 Y22.5437
G01 X47.3930 Y22.5990
G01 X47.3230 Y22.6508
G01 X47.2535 Y22.6923
G01 X47.1781 Y22.7280
G01 X47.0972 Y22.7568
G01 X47.0186 Y22.7764
G01 X46.9373 Y22.7885
G01 X46.8528 Y22.7927
G01 X46.0528 Y22.7927
G01 X45.9719 Y22.7888
G01 X45.8870 Y22.7764
G01 X45.8061 Y22.7561
G01 X45.7275 Y22.7280
G01 X45.6521 Y22.6923
G01 X45.5806 Y22.6494
G01 X45.5136 Y22.5998
G01 X45.4518 Y22.5437
G01 X45.3965 Y22.4829
G01 X45.3461 Y22.4149
G01 X45.3032 Y22.3434
G01 X45.2675 Y22.2680
G01 X45.2394 Y22.1894
G01 X45.2191 Y22.1085
G01 X45.2069 Y22.0260
G01 X45.2028 Y21.9427
G01 X45.2069 Y21.8594
G01 X45.2191 Y21.7769
G01 X45.2394 Y21.6960
G01 X45.2675 Y21.6174
G01 X45.3032 Y21.5420
G01 X45.3461 Y21.4705
G01 X45.3957 Y21.4035
G01 X45.4518 Y21.3417
G01 X45.5126 Y21.2864
G01 X45.5826 Y21.2346
G01 X45.6521 Y21.1931
G01 X45.7275 Y21.1574
G01 X45.8084 Y21.1286
G01 X45.8870 Y21.1090
G01 X45.9683 Y21.0969
G01 X46.0528 Y21.0927
G01 X46.8528 Y21.0927
G01 X46.9361 Y21.0968
G01 X47.0198 Y21.1093
G00 Z2.0000
G00 X57.1810 Y21.1096
G01 F60.00
G01 Z-0.0000
G01 F120.00
G01 X57.2595 Y21.1293
G01 X57.3358 Y21.1565
G01 X57.4135 Y21.1931
G01 X57.4850 Y21.2360
G01 X57.5501 Y21.2841
G01 X57.6138 Y21.3417
G01 X57.6699 Y21.4035
G01 X57.7181 Y21.4685
G01 X57.7624 Y21.5420
G01 X57.7990 Y21.6197
G01 X57.8262 Y21.6960
G01 X57.8459 Y21.7745
G01 X57.8587 Y21.8594
G01 X57.8627 Y21.9452
G01 X57.8587 Y22.0260
G01 X57.8469 Y22.1061
G01 X57.8254 Y22.1918
G01 X57.7981 Y22.2680
G01 X57.7635 Y22.3412
G01 X57.7195 Y22.4149
G01 X57.6683 Y22.4838
G01 X57.6138 Y22.5437
G01 X57.5530 Y22.5990
G01 X57.4830 Y22.6508
G01 X57.4135 Y22.6923
G01 X57.3381 Y22.7280
G01 X57.2572 Y22.7568
G01 X57.1786 Y22.7764
G01 X57.0973 Y22.7885
G01 X57.0128 Y22.7927
G01 X56.2128 Y22.7927
G01 X56.1319 Y22.7888
G01 X56.0470 Y22.7764
G01 X55.9661 Y22.7561
G01 X55.8875 Y22.7280
G01 X55.8121 Y22.6923
G01 X55.7406 Y22.6494
G01 X55.6736 Y22.5998
G01 X55.6118 Y22.5437
G01 X55.5565 Y22.4829
G01 X55.5061 Y22.4149
G01 X55.4632 Y22.3434
G01 X55.4275 Y22.2680
G01 X55.3994 Y22.1894
G01 X55.3791 Y22.1085
G01 X55.3669 Y22.0260
G01 X55.3628 Y21.9427
G01 X55.3669 Y21.8594
G01 X55.3791 Y21.7769
G01 X55.3994 Y21.6960
G01 X55.4275 Y21.6174
G01 X55.4632 Y21.5420
G01 X55.5061 Y21.4705
G01 X55.5557 Y21.4035
G01 X55.6118 Y21.3417
G01 X55.6726 Y21.2864
G01 X55.7426 Y21.2346
G01 X55.8121 Y21.1931
G01 X55.8875 Y21.1574
G01 X55.9684 Y21.1286
G01 X56.0470 Y21.1090
G01 X56.1283 Y21.0969
G01 X56.2128 Y21.0927
G01 X57.0128 Y21.0927
G01 X57.0961 Y21.0968
G01 X57.1810 Y21.1096
G00 Z2.0000
G00 X57.1810 Y18.5696
G01 F60.00
G01 Z-0.0000
G01 F120.00
G01 X57.2595 Y18.5893
G01 X57.3358 Y18.6165
G01 X57.4135 Y18.6531
G01 X57.4850 Y18.6960
G01 X57.5501 Y18.7441
G01 X57.6138 Y18.8017
G01 X57.6699 Y18.8635
G01 X57.7181 Y18.9285
G01 X57.7624 Y19.0020
G01 X57.7990 Y19.0797
G01 X57.8262 Y19.1560
G01 X57.8459 Y19.2345
G01 X57.8587 Y19.3194
G01 X57.8627 Y19.4052
G01 X57.8587 Y19.4860
G01 X57.8469 Y19.5661
G01 X57.8254 Y19.6518
G01 X57.7981 Y19.7280
G01 X57.7635 Y19.8012
G01 X57.7195 Y19.8749
G01 X57.6683 Y19.9438
G01 X57.6138 Y20.0037
G01 X57.5530 Y20.0590
G01 X57.4830 Y20.1108
G01 X57.4135 Y20.1523
G01 X57.3381 Y20.1880
G01 X57.2572 Y20.2168
G01 X57.1786 Y20.2364
G01 X57.0973 Y20.2485
G01 X57.0128 Y20.2527
G01 X56.2128 Y20.2527
G01 X56.1319 Y20.2488
G01 X56.0470 Y20.2364
G01 X55.9661 Y20.2161
G01 X55.8875 Y20.1880
G01 X55.8121 Y20.1523
G01 X55.7406 Y20.1094
G01 X55.6736 Y20.0598
G01 X55.6118 Y20.0037
G01 X55.5565 Y19.9429
G01 X55.5061 Y19.8749
G01 X55.4632 Y19.8034
G01 X55.4275 Y19.7280
G01 X55.3994 Y19.6494
G01 X55.3791 Y19.5685
G01 X55.3669 Y19.4860
G01 X55.3628 Y19.4027
G01 X55.3669 Y19.3194
G01 X55.3791 Y19.2369
G01 X55.3994 Y19.1560
G01 X55.4275 Y19.0774
G01 X55.4632 Y19.0020
G01 X55.5061 Y18.9305
G01 X55.5557 Y18.8635
G01 X55.6118 Y18.8017
G01 X55.6726 Y18.7464
G01 X55.7426 Y18.6946
G01 X55.8121 Y18.6531
G01 X55.8875 Y18.6174
G01 X55.9684 Y18.5886
G01 X56.0470 Y18.5690
G01 X56.1283 Y18.5569
G01 X56.2128 Y18.5527
G01 X57.0128 Y18.5527
G01 X57.0961 Y18.5568
G01 X57.1810 Y18.5696
G00 Z2.0000
G00 X61.5954 Y62.1770
G01 F60.00
G01 Z-0.0000
G01 F120.00
G01 X61.6858 Y62.1997
G01 X61.7736 Y62.2310
G01 X61.8624 Y62.2728
G01 X61.9445 Y62.3220
G01 X62.0194 Y62.3775
G01 X62.0922 Y62.4433
G01 X62.1565 Y62.5142
G01 X62.2121 Y62.5890
G01 X62.2627 Y62.6731
G01 X62.3045 Y62.7619
G01 X62.3358 Y62.8497
G01 X62.3591 Y62.9425
G01 X62.3731 Y63.0371
G01 X62.3777 Y63.1302
G01 X62.3731 Y63.2283
G01 X62.3591 Y63.3229
G01 X62.3365 Y63.4134
G01 X62.3036 Y63.5058
G01 X62.2615 Y63.5944
G01 X62.2135 Y63.6744
G01 X62.1565 Y63.7512
G01 X62.0905 Y63.8238
G01 X62.0213 Y63.8864
G01 X61.9445 Y63.9434
G01 X61.8602 Y63.9937
G01 X61.7759 Y64.0335
G01 X61.6882 Y64.0649
G01 X61.5930 Y64.0890
G01 X61.4984 Y64.1030
G01 X61.4028 Y64.1077
G01 X60.2048 Y64.1077
G01 X60.1092 Y64.1030
G01 X60.0146 Y64.0890
G01 X59.9194 Y64.0649
G01 X59.8317 Y64.0335
G01 X59.7474 Y63.9937
G01 X59.6652 Y63.9447
G01 X59.5863 Y63.8864
G01 X59.5154 Y63.8221
G01 X59.4511 Y63.7512
G01 X59.3941 Y63.6744
G01 X59.3449 Y63.5923
G01 X59.3040 Y63.5058
G01 X59.2718 Y63.4157
G01 X59.2485 Y63.3229
G01 X59.2345 Y63.2283
G01 X59.2298 Y63.1327
G01 X59.2345 Y63.0371
G01 X59.2485 Y62.9425
G01 X59.2718 Y62.8497
G01 X59.3040 Y62.7596
G01 X59.3449 Y62.6731
G01 X59.3941 Y62.5910
G01 X59.4511 Y62.5142
G01 X59.5154 Y62.4433
G01 X59.5863 Y62.3790
G01 X59.6631 Y62.3220
G01 X59.7474 Y62.2717
G01 X59.8317 Y62.2319
G01 X59.9194 Y62.2005
G01 X60.0146 Y62.1764
G01 X60.1105 Y62.1623
G01 X60.2048 Y62.1577
G01 X61.4028 Y62.1577
G01 X61.4984 Y62.1624
G01 X61.5954 Y62.1770
G00 Z2.0000
G00 X60.1092 Y67.1624
G01 F60.00
G01 Z-0.0000
G01 F120.00
G01 X60.2048 Y67.1577
G01 X61.4028 Y67.1577
G01 X61.4996 Y67.1625
G01 X61.5930 Y67.1764
G01 X61.6835 Y67.1990
G01 X61.7759 Y67.2319
G01 X61.8645 Y67.2740
G01 X61.9445 Y67.3220
G01 X62.0204 Y67.3782
G01 X62.0922 Y67.4433
G01 X62.1565 Y67.5142
G01 X62.2135 Y67.5910
G01 X62.2627 Y67.6731
G01 X62.3036 Y67.7596
G01 X62.3358 Y67.8497
G01 X62.3591 Y67.9425
G01 X62.3731 Y68.0371
G01 X62.3778 Y68.1327
G01 X62.3731 Y68.2283
G01 X62.3591 Y68.3229
G01 X62.3358 Y68.4157
G01 X62.3036 Y68.5058
G01 X62.2627 Y68.5923
G01 X62.2135 Y68.6744
G01 X62.1573 Y68.7503
G01 X62.0922 Y68.8221
G01 X62.0213 Y68.8864
G01 X61.9445 Y68.9434
G01 X61.8624 Y68.9926
G01 X61.7759 Y69.0335
G01 X61.6858 Y69.0657
G01 X61.5930 Y69.0890
G01 X61.4959 Y69.1032
G01 X61.4028 Y69.1077
G01 X60.2048 Y69.1077
G01 X60.1080 Y69.1029
G01 X60.0146 Y69.0890
G01 X59.9241 Y69.0664
G01 X59.8317 Y69.0335
G01 X59.7431 Y68.9914
G01 X59.6631 Y68.9434
G01 X59.5872 Y68.8872
G01 X59.5137 Y68.8204
G01 X59.4511 Y68.7512
G01 X59.3941 Y68.6744
G01 X59.3449 Y68.5923
G01 X59.3050 Y68.5081
G01 X59.2718 Y68.4157
G01 X59.2481 Y68.3205
G01 X59.2345 Y68.2283
G01 X59.2298 Y68.1327
G01 X59.2348 Y68.0347
G01 X59.2485 Y67.9425
G01 X59.2718 Y67.8497
G01 X59.3050 Y67.7573
G01 X59.3449 Y67.6731
G01 X59.3941 Y67.5910
G01 X59.4527 Y67.5123
G01 X59.5154 Y67.4433
G01 X59.5863 Y67.3790
G01 X59.6631 Y67.3220
G01 X59.7431 Y67.2740
G01 X59.8317 Y67.2319
G01 X59.9241 Y67.1990
G01 X60.0146 Y67.1764
G01 X60.1092 Y67.1624
G00 Z2.0000
G00 X68.4385 Y67.1623
G01 F60.00
G01 Z-0.0000
G01 F120.00
G01 X68.5328 Y67.1577
G01 X69.7308 Y67.1577
G01 X69.8276 Y67.1625
G01 X69.9210 Y67.1764
G01 X70.0115 Y67.1990
G01 X70.1039 Y67.2319
G01 X70.1925 Y67.2740
G01 X70.2725 Y67.3220
G01 X70.3484 Y67.3782
G01 X70.4202 Y67.4433
G01 X70.4845 Y67.5142
G01 X70.5415 Y67.5910
G01 X70.5907 Y67.6731
G01 X70.6316 Y67.7596
G01 X70.6638 Y67.8497
G01 X70.6871 Y67.9425
G01 X70.7011 Y68.0371
G01 X70.7058 Y68.1327
G01 X70.7011 Y68.2283
G01 X70.6871 Y68.3229
G01 X70.6638 Y68.4157
G01 X70.6316 Y68.5058
G01 X70.5907 Y68.5923
G01 X70.5415 Y68.6744
G01 X70.4853 Y68.7503
G01 X70.4202 Y68.8221
G01 X70.3493 Y68.8864
G01 X70.2725 Y68.9434
G01 X70.1904 Y68.9926
G01 X70.1039 Y69.0335
G01 X70.0138 Y69.0657
G01 X69.9210 Y69.0890
G01 X69.8239 Y69.1032
G01 X69.7308 Y69.1077
G01 X68.5328 Y69.1077
G01 X68.4360 Y69.1029
G01 X68.3426 Y69.0890
G01 X68.2521 Y69.0664
G01 X68.1597 Y69.0335
G01 X68.0711 Y68.9914
G01 X67.9911 Y68.9434
G01 X67.9152 Y68.8872
G01 X67.8417 Y68.8204
G01 X67.7791 Y68.7512
G01 X67.7221 Y68.6744
G01 X67.6718 Y68.5901
G01 X67.6320 Y68.5058
G01 X67.5998 Y68.4157
G01 X67.5765 Y68.3229
G01 X67.5628 Y68.2307
G01 X67.5578 Y68.1327
G01 X67.5625 Y68.0371
G01 X67.5761 Y67.9449
G01 X67.5998 Y67.8497
G01 X67.6320 Y67.7596
G01 X67.6718 Y67.6753
G01 X67.7221 Y67.5910
G01 X67.7807 Y67.5123
G01 X67.8434 Y67.4433
G01 X67.9143 Y67.3790
G01 X67.9932 Y67.3207
G01 X68.0732 Y67.2728
G01 X68.1597 Y67.2319
G01 X68.2498 Y67.1997
G01 X68.3402 Y67.1770
G01 X68.4385 Y67.1623
G00 Z2.0000
G00 X68.4372 Y62.1624
G01 F60.00
G01 Z-0.0000
G01 F120.00
G01 X68.5328 Y62.1577
G01 X69.7308 Y62.1577
G01 X69.8276 Y62.1625
G01 X69.9210 Y62.1764
G01 X70.0115 Y62.1990
G01 X70.1039 Y62.2319
G01 X70.1925 Y62.2740
G01 X70.2725 Y62.3220
G01 X70.3484 Y62.3782
G01 X70.4202 Y62.4433
G01 X70.4845 Y62.5142
G01 X70.5415 Y62.5910
G01 X70.5907 Y62.6731
G01 X70.6316 Y62.7596
G01 X70.6638 Y62.8497
G01 X70.6871 Y62.9425
G01 X70.7011 Y63.0371
G01 X70.7058 Y63.1327
G01 X70.7011 Y63.2283
G01 X70.6871 Y63.3229
G01 X70.6638 Y63.4157
G01 X70.6316 Y63.5058
G01 X70.5907 Y63.5923
G01 X70.5415 Y63.6744
G01 X70.4853 Y63.7503
G01 X70.4202 Y63.8221
G01 X70.3493 Y63.8864
G01 X70.2725 Y63.9434
G01 X70.1904 Y63.9926
G01 X70.1039 Y64.0335
G01 X70.0138 Y64.0657
G01 X69.9210 Y64.0890
G01 X69.8239 Y64.1032
G01 X69.7308 Y64.1077
G01 X68.5328 Y64.1077
G01 X68.4360 Y64.1029
G01 X68.3426 Y64.0890
G01 X68.2521 Y64.0664
G01 X68.1597 Y64.0335
G01 X68.0711 Y63.9914
G01 X67.9911 Y63.9434
G01 X67.9152 Y63.8872
G01 X67.8417 Y63.8204
G01 X67.7791 Y63.7512
G01 X67.7221 Y63.6744
G01 X67.6718 Y63.5901
G01 X67.6320 Y63.5058
G01 X67.5998 Y63.4157
G01 X67.5765 Y63.3229
G01 X67.5628 Y63.2307
G01 X67.5578 Y63.1327
G01 X67.5625 Y63.0371
G01 X67.5761 Y62.9449
G01 X67.5998 Y62.8497
G01 X67.6320 Y62.7596
G01 X67.6718 Y62.6753
G01 X67.7221 Y62.5910
G01 X67.7791 Y62.5142
G01 X67.8417 Y62.4450
G01 X67.9143 Y62.3790
G01 X67.9932 Y62.3207
G01 X68.0732 Y62.2728
G01 X68.1597 Y62.2319
G01 X68.2521 Y62.1990
G01 X68.3426 Y62.1764
G01 X68.4372 Y62.1624
G00 Z2.0000
G00 X80.9372 Y62.1624
G01 F60.00
G01 Z-0.0000
G01 F120.00
G01 X81.0328 Y62.1577
G01 X82.2308 Y62.1577
G01 X82.3276 Y62.1625
G01 X82.4210 Y62.1764
G01 X82.5115 Y62.1990
G01 X82.6039 Y62.2319
G01 X82.6925 Y62.2740
G01 X82.7725 Y62.3220
G01 X82.8484 Y62.3782
G01 X82.9202 Y62.4433
G01 X82.9845 Y62.5142
G01 X83.0415 Y62.5910
G01 X83.0907 Y62.6731
G01 X83.1316 Y62.7596
G01 X83.1638 Y62.8497
G01 X83.1871 Y62.9425
G01 X83.2011 Y63.0371
G01 X83.2058 Y63.1327
G01 X83.2011 Y63.2283
G01 X83.1871 Y63.3229
G01 X83.1638 Y63.4157
G01 X83.1316 Y63.5058
G01 X83.0907 Y63.5923
G01 X83.0415 Y63.6744
G01 X82.9853 Y63.7503
G01 X82.9202 Y63.8221
G01 X82.8493 Y63.8864
G01 X82.7725 Y63.9434
G01 X82.6904 Y63.9926
G01 X82.6039 Y64.0335
G01 X82.5138 Y64.0657
G01 X82.4210 Y64.0890
G01 X82.3239 Y64.1032
G01 X82.2308 Y64.1077
G01 X81.0328 Y64.1077
G01 X80.9360 Y64.1029
G01 X80.8426 Y64.0890
G01 X80.7521 Y64.0664
G01 X80.6597 Y64.0335
G01 X80.5711 Y63.9914
G01 X80.4911 Y63.9434
G01 X80.4152 Y63.8872
G01 X80.3417 Y63.8204
G01 X80.2791 Y63.7512
G01 X80.2221 Y63.6744
G01 X80.1718 Y63.5901
G01 X80.1320 Y63.5058
G01 X80.0998 Y63.4157
G01 X80.0765 Y63.3229
G01 X80.0628 Y63.2307
G01 X80.0578 Y63.1327
G01 X80.0625 Y63.0371
G01 X80.0761 Y62.9449
G01 X80.0998 Y62.8497
G01 X80.1320 Y62.7596
G01 X80.1718 Y62.6753
G01 X80.2221 Y62.5910
G01 X80.2791 Y62.5142
G01 X80.3417 Y62.4450
G01 X80.4143 Y62.3790
G01 X80.4932 Y62.3207
G01 X80.5732 Y62.2728
G01 X80.6597 Y62.2319
G01 X80.7521 Y62.1990
G01 X80.8426 Y62.1764
G01 X80.9372 Y62.1624
G00 Z2.0000
G00 X80.9385 Y67.1623
G01 F60.00
G01 Z-0.0000
G01 F120.00
G01 X81.0328 Y67.1577
G01 X82.2308 Y67.1577
G01 X82.3276 Y67.1625
G01 X82.4210 Y67.1764
G01 X82.5115 Y67.1990
G01 X82.6039 Y67.2319
G01 X82.6925 Y67.2740
G01 X82.7725 Y67.3220
G01 X82.8484 Y67.3782
G01 X82.9202 Y67.4433
G01 X82.9845 Y67.5142
G01 X83.0415 Y67.5910
G01 X83.0907 Y67.6731
G01 X83.1316 Y67.7596
G01 X83.1638 Y67.8497
G01 X83.1871 Y67.9425
G01 X83.2011 Y68.0371
G01 X83.2058 Y68.1327
G01 X83.2011 Y68.2283
G01 X83.1871 Y68.3229
G01 X83.1638 Y68.4157
G01 X83.1316 Y68.5058
G01 X83.0907 Y68.5923
G01 X83.0415 Y68.6744
G01 X82.9853 Y68.7503
G01 X82.9202 Y68.8221
G01 X82.8493 Y68.8864
G01 X82.7725 Y68.9434
G01 X82.6904 Y68.9926
G01 X82.6039 Y69.0335
G01 X82.5138 Y69.0657
G01 X82.4210 Y69.0890
G01 X82.3239 Y69.1032
G01 X82.2308 Y69.1077
G01 X81.0328 Y69.1077
G01 X80.9360 Y69.1029
G01 X80.8426 Y69.0890
G01 X80.7521 Y69.0664
G01 X80.6597 Y69.0335
G01 X80.5711 Y68.9914
G01 X80.4911 Y68.9434
G01 X80.4152 Y68.8872
G01 X80.3417 Y68.8204
G01 X80.2791 Y68.7512
G01 X80.2221 Y68.6744
G01 X80.1718 Y68.5901
G01 X80.1320 Y68.5058
G01 X80.0998 Y68.4157
G01 X80.0765 Y68.3229
G01 X80.0628 Y68.2307
G01 X80.0578 Y68.1327
G01 X80.0625 Y68.0371
G01 X80.0761 Y67.9449
G01 X80.0998 Y67.8497
G01 X80.1330 Y67.7573
G01 X80.1729 Y67.6731
G01 X80.2221 Y67.5910
G01 X80.2791 Y67.5142
G01 X80.3417 Y67.4450
G01 X80.4143 Y67.3790
G01 X80.4932 Y67.3207
G01 X80.5732 Y67.2728
G01 X80.6597 Y67.2319
G01 X80.7498 Y67.1997
G01 X80.8402 Y67.1770
G01 X80.9385 Y67.1623
G00 Z2.0000
G00 X49.0954 Y62.1770
G01 F60.00
G01 Z-0.0000
G01 F120.00
G01 X49.1858 Y62.1997
G01 X49.2736 Y62.2310
G01 X49.3624 Y62.2728
G01 X49.4445 Y62.3220
G01 X49.5194 Y62.3775
G01 X49.5922 Y62.4433
G01 X49.6565 Y62.5142
G01 X49.7121 Y62.5890
G01 X49.7627 Y62.6731
G01 X49.8045 Y62.7619
G01 X49.8358 Y62.8497
G01 X49.8591 Y62.9425
G01 X49.8731 Y63.0371
G01 X49.8777 Y63.1302
G01 X49.8731 Y63.2283
G01 X49.8591 Y63.3229
G01 X49.8365 Y63.4134
G01 X49.8036 Y63.5058
G01 X49.7615 Y63.5944
G01 X49.7135 Y63.6744
G01 X49.6565 Y63.7512
G01 X49.5905 Y63.8238
G01 X49.5213 Y63.8864
G01 X49.4445 Y63.9434
G01 X49.3602 Y63.9937
G01 X49.2759 Y64.0335
G01 X49.1882 Y64.0649
G01 X49.0930 Y64.0890
G01 X48.9984 Y64.1030
G01 X48.9028 Y64.1077
G01 X47.7048 Y64.1077
G01 X47.6092 Y64.1030
G01 X47.5146 Y64.0890
G01 X47.4194 Y64.0649
G01 X47.3317 Y64.0335
G01 X47.2474 Y63.9937
G01 X47.1652 Y63.9447
G01 X47.0863 Y63.8864
G01 X47.0154 Y63.8221
G01 X46.9511 Y63.7512
G01 X46.8941 Y63.6744
G01 X46.8449 Y63.5923
G01 X46.8040 Y63.5058
G01 X46.7718 Y63.4157
G01 X46.7485 Y63.3229
G01 X46.7345 Y63.2283
G01 X46.7298 Y63.1327
G01 X46.7345 Y63.0371
G01 X46.7485 Y62.9425
G01 X46.7718 Y62.8497
G01 X46.8040 Y62.7596
G01 X46.8449 Y62.6731
G01 X46.8941 Y62.5910
G01 X46.9511 Y62.5142
G01 X47.0154 Y62.4433
G01 X47.0863 Y62.3790
G01 X47.1631 Y62.3220
G01 X47.2474 Y62.2717
G01 X47.3317 Y62.2319
G01 X47.4194 Y62.2005
G01 X47.5146 Y62.1764
G01 X47.6105 Y62.1623
G01 X47.7048 Y62.1577
G01 X48.9028 Y62.1577
G01 X48.9984 Y62.1624
G01 X49.0954 Y62.1770
G00 Z2.0000
G00 X47.6092 Y67.1624
G01 F60.00
G01 Z-0.0000
G01 F120.00
G01 X47.7048 Y67.1577
G01 X48.9028 Y67.1577
G01 X48.9996 Y67.1625
G01 X49.0930 Y67.1764
G01 X49.1835 Y67.1990
G01 X49.2759 Y67.2319
G01 X49.3645 Y67.2740
G01 X49.4445 Y67.3220
G01 X49.5204 Y67.3782
G01 X49.5922 Y67.4433
G01 X49.6565 Y67.5142
G01 X49.7135 Y67.5910
G01 X49.7627 Y67.6731
G01 X49.8036 Y67.7596
G01 X49.8358 Y67.8497
G01 X49.8591 Y67.9425
G01 X49.8731 Y68.0371
G01 X49.8778 Y68.1327
G01 X49.8731 Y68.2283
G01 X49.8591 Y68.3229
G01 X49.8358 Y68.4157
G01 X49.8036 Y68.5058
G01 X49.7627 Y68.5923
G01 X49.7135 Y68.6744
G01 X49.6573 Y68.7503
G01 X49.5922 Y68.8221
G01 X49.5213 Y68.8864
G01 X49.4445 Y68.9434
G01 X49.3624 Y68.9926
G01 X49.2759 Y69.0335
G01 X49.1858 Y69.0657
G01 X49.0930 Y69.0890
G01 X48.9959 Y69.1032
G01 X48.9028 Y69.1077
G01 X47.7048 Y69.1077
G01 X47.6080 Y69.1029
G01 X47.5146 Y69.0890
G01 X47.4241 Y69.0664
G01 X47.3317 Y69.0335
G01 X47.2431 Y68.9914
G01 X47.1631 Y68.9434
G01 X47.0872 Y68.8872
G01 X47.0137 Y68.8204
G01 X46.9511 Y68.7512
G01 X46.8941 Y68.6744
G01 X46.8449 Y68.5923
G01 X46.8050 Y68.5081
G01 X46.7718 Y68.4157
G01 X46.7481 Y68.3205
G01 X46.7345 Y68.2283
G01 X46.7298 Y68.1327
G01 X46.7348 Y68.0347
G01 X46.7485 Y67.9425
G01 X46.7718 Y67.8497
G01 X46.8050 Y67.7573
G01 X46.8449 Y67.6731
G01 X46.8941 Y67.5910
G01 X46.9527 Y67.5123
G01 X47.0154 Y67.4433
G01 X47.0863 Y67.3790
G01 X47.1631 Y67.3220
G01 X47.2431 Y67.2740
G01 X47.3317 Y67.2319
G01 X47.4241 Y67.1990
G01 X47.5146 Y67.1764
G01 X47.6092 Y67.1624
G00 Z2.0000
G00 X38.7732 Y67.1624
G01 F60.00
G01 Z-0.0000
G01 F120.00
G01 X38.8688 Y67.1577
G01 X40.0668 Y67.1577
G01 X40.1636 Y67.1625
G01 X40.2570 Y67.1764
G01 X40.3475 Y67.1990
G01 X40.4399 Y67.2319
G01 X40.5285 Y67.2740
G01 X40.6085 Y67.3220
G01 X40.6844 Y67.3782
G01 X40.7562 Y67.4433
G01 X40.8205 Y67.5142
G01 X40.8775 Y67.5910
G01 X40.9267 Y67.6731
G01 X40.9676 Y67.7596
G01 X40.9998 Y67.8497
G01 X41.0231 Y67.9425
G01 X41.0371 Y68.0371
G01 X41.0418 Y68.1327
G01 X41.0371 Y68.2283
G01 X41.0231 Y68.3229
G01 X40.9998 Y68.4157
G01 X40.9676 Y68.5058
G01 X40.9267 Y68.5923
G01 X40.8775 Y68.6744
G01 X40.8213 Y68.7503
G01 X40.7562 Y68.8221
G01 X40.6853 Y68.8864
G01 X40.6085 Y68.9434
G01 X40.5264 Y68.9926
G01 X40.4399 Y69.0335
G01 X40.3498 Y69.0657
G01 X40.2570 Y69.0890
G01 X40.1599 Y69.1032
G01 X40.0668 Y69.1077
G01 X38.8688 Y69.1077
G01 X38.7720 Y69.1029
G01 X38.6786 Y69.0890
G01 X38.5881 Y69.0664
G01 X38.4957 Y69.0335
G01 X38.4071 Y68.9914
G01 X38.3271 Y68.9434
G01 X38.2512 Y68.8872
G01 X38.1777 Y68.8204
G01 X38.1151 Y68.7512
G01 X38.0581 Y68.6744
G01 X38.0089 Y68.5923
G01 X37.9690 Y68.5081
G01 X37.9358 Y68.4157
G01 X37.9121 Y68.3205
G01 X37.8985 Y68.2283
G01 X37.8938 Y68.1327
G01 X37.8988 Y68.0347
G01 X37.9125 Y67.9425
G01 X37.9358 Y67.8497
G01 X37.9690 Y67.7573
G01 X38.0089 Y67.6731
G01 X38.0581 Y67.5910
G01 X38.1167 Y67.5123
G01 X38.1794 Y67.4433
G01 X38.2503 Y67.3790
G01 X38.3271 Y67.3220
G01 X38.4071 Y67.2740
G01 X38.4957 Y67.2319
G01 X38.5881 Y67.1990
G01 X38.6786 Y67.1764
G01 X38.7732 Y67.1624
G00 Z2.0000
G00 X40.2594 Y62.1770
G01 F60.00
G01 Z-0.0000
G01 F120.00
G01 X40.3498 Y62.1997
G01 X40.4376 Y62.2310
G01 X40.5264 Y62.2728
G01 X40.6085 Y62.3220
G01 X40.6834 Y62.3775
G01 X40.7562 Y62.4433
G01 X40.8205 Y62.5142
G01 X40.8761 Y62.5890
G01 X40.9267 Y62.6731
G01 X40.9685 Y62.7619
G01 X40.9998 Y62.8497
G01 X41.0231 Y62.9425
G01 X41.0371 Y63.0371
G01 X41.0417 Y63.1302
G01 X41.0371 Y63.2283
G01 X41.0231 Y63.3229
G01 X41.0005 Y63.4134
G01 X40.9676 Y63.5058
G01 X40.9255 Y63.5944
G01 X40.8775 Y63.6744
G01 X40.8205 Y63.7512
G01 X40.7545 Y63.8238
G01 X40.6853 Y63.8864
G01 X40.6085 Y63.9434
G01 X40.5242 Y63.9937
G01 X40.4399 Y64.0335
G01 X40.3522 Y64.0649
G01 X40.2570 Y64.0890
G01 X40.1624 Y64.1030
G01 X40.0668 Y64.1077
G01 X38.8688 Y64.1077
G01 X38.7732 Y64.1030
G01 X38.6786 Y64.0890
G01 X38.5834 Y64.0649
G01 X38.4957 Y64.0335
G01 X38.4114 Y63.9937
G01 X38.3292 Y63.9447
G01 X38.2503 Y63.8864
G01 X38.1794 Y63.8221
G01 X38.1151 Y63.7512
G01 X38.0581 Y63.6744
G01 X38.0089 Y63.5923
G01 X37.9680 Y63.5058
G01 X37.9358 Y63.4157
G01 X37.9125 Y63.3229
G01 X37.8985 Y63.2283
G01 X37.8938 Y63.1327
G01 X37.8985 Y63.0371
G01 X37.9125 Y62.9425
G01 X37.9358 Y62.8497
G01 X37.9680 Y62.7596
G01 X38.0089 Y62.6731
G01 X38.0581 Y62.5910
G01 X38.1151 Y62.5142
G01 X38.1794 Y62.4433
G01 X38.2503 Y62.3790
G01 X38.3271 Y62.3220
G01 X38.4114 Y62.2717
G01 X38.4957 Y62.2319
G01 X38.5834 Y62.2005
G01 X38.6786 Y62.1764
G01 X38.7745 Y62.1623
G01 X38.8688 Y62.1577
G01 X40.0668 Y62.1577
G01 X40.1624 Y62.1624
G01 X40.2594 Y62.1770
G00 Z2.0000
G00 X27.7582 Y62.1767
G01 F60.00
G01 Z-0.0000
G01 F120.00
G01 X27.8498 Y62.1997
G01 X27.9376 Y62.2310
G01 X28.0264 Y62.2728
G01 X28.1085 Y62.3220
G01 X28.1834 Y62.3775
G01 X28.2562 Y62.4433
G01 X28.3205 Y62.5142
G01 X28.3761 Y62.5890
G01 X28.4267 Y62.6731
G01 X28.4685 Y62.7619
G01 X28.4998 Y62.8497
G01 X28.5231 Y62.9425
G01 X28.5371 Y63.0371
G01 X28.5417 Y63.1302
G01 X28.5371 Y63.2283
G01 X28.5231 Y63.3229
G01 X28.5005 Y63.4134
G01 X28.4676 Y63.5058
G01 X28.4255 Y63.5944
G01 X28.3775 Y63.6744
G01 X28.3205 Y63.7512
G01 X28.2545 Y63.8238
G01 X28.1853 Y63.8864
G01 X28.1085 Y63.9434
G01 X28.0242 Y63.9937
G01 X27.9399 Y64.0335
G01 X27.8522 Y64.0649
G01 X27.7570 Y64.0890
G01 X27.6624 Y64.1030
G01 X27.5668 Y64.1077
G01 X26.3688 Y64.1077
G01 X26.2732 Y64.1030
G01 X26.1786 Y64.0890
G01 X26.0834 Y64.0649
G01 X25.9957 Y64.0335
G01 X25.9114 Y63.9937
G01 X25.8292 Y63.9447
G01 X25.7503 Y63.8864
G01 X25.6794 Y63.8221
G01 X25.6151 Y63.7512
G01 X25.5581 Y63.6744
G01 X25.5089 Y63.5923
G01 X25.4680 Y63.5058
G01 X25.4358 Y63.4157
G01 X25.4125 Y63.3229
G01 X25.3985 Y63.2283
G01 X25.3938 Y63.1327
G01 X25.3985 Y63.0371
G01 X25.4125 Y62.9425
G01 X25.4358 Y62.8497
G01 X25.4680 Y62.7596
G01 X25.5089 Y62.6731
G01 X25.5581 Y62.5910
G01 X25.6151 Y62.5142
G01 X25.6794 Y62.4433
G01 X25.7503 Y62.3790
G01 X25.8271 Y62.3220
G01 X25.9114 Y62.2717
G01 X25.9957 Y62.2319
G01 X26.0834 Y62.2005
G01 X26.1786 Y62.1764
G01 X26.2745 Y62.1623
G01 X26.3688 Y62.1577
G01 X27.5668 Y62.1577
G01 X27.6624 Y62.1624
G01 X27.7582 Y62.1767
G00 Z2.0000
G00 X26.2732 Y67.1624
G01 F60.00
G01 Z-0.0000
G01 F120.00
G01 X26.3688 Y67.1577
G01 X27.5668 Y67.1577
G01 X27.6636 Y67.1625
G01 X27.7570 Y67.1764
G01 X27.8475 Y67.1990
G01 X27.9399 Y67.2319
G01 X28.0285 Y67.2740
G01 X28.1085 Y67.3220
G01 X28.1844 Y67.3782
G01 X28.2562 Y67.4433
G01 X28.3205 Y67.5142
G01 X28.3775 Y67.5910
G01 X28.4267 Y67.6731
G01 X28.4676 Y67.7596
G01 X28.4998 Y67.8497
G01 X28.5231 Y67.9425
G01 X28.5371 Y68.0371
G01 X28.5418 Y68.1327
G01 X28.5371 Y68.2283
G01 X28.5231 Y68.3229
G01 X28.4998 Y68.4157
G01 X28.4676 Y68.5058
G01 X28.4267 Y68.5923
G01 X28.3775 Y68.6744
G01 X28.3213 Y68.7503
G01 X28.2562 Y68.8221
G01 X28.1853 Y68.8864
G01 X28.1085 Y68.9434
G01 X28.0264 Y68.9926
G01 X27.9399 Y69.0335
G01 X27.8498 Y69.0657
G01 X27.7570 Y69.0890
G01 X27.6599 Y69.1032
G01 X27.5668 Y69.1077
G01 X26.3688 Y69.1077
G01 X26.2720 Y69.1029
G01 X26.1786 Y69.0890
G01 X26.0881 Y69.0664
G01 X25.9957 Y69.0335
G01 X25.9071 Y68.9914
G01 X25.8271 Y68.9434
G01 X25.7512 Y68.8872
G01 X25.6777 Y68.8204
G01 X25.6151 Y68.7512
G01 X25.5581 Y68.6744
G01 X25.5089 Y68.5923
G01 X25.4690 Y68.5081
G01 X25.4358 Y68.4157
G01 X25.4121 Y68.3205
G01 X25.3985 Y68.2283
G01 X25.3938 Y68.1327
G01 X25.3988 Y68.0347
G01 X25.4125 Y67.9425
G01 X25.4358 Y67.8497
G01 X25.4690 Y67.7573
G01 X25.5089 Y67.6731
G01 X25.5581 Y67.5910
G01 X25.6167 Y67.5123
G01 X25.6794 Y67.4433
G01 X25.7503 Y67.3790
G01 X25.8271 Y67.3220
G01 X25.9071 Y67.2740
G01 X25.9957 Y67.2319
G01 X26.0881 Y67.1990
G01 X26.1786 Y67.1764
G01 X26.2732 Y67.1624
G00 Z2.0000
G00 X17.9452 Y67.1624
G01 F60.00
G01 Z-0.0000
G01 F120.00
G01 X18.0408 Y67.1577
G01 X19.2388 Y67.1577
G01 X19.3356 Y67.1625
G01 X19.4290 Y67.1764
G01 X19.5195 Y67.1990
G01 X19.6119 Y67.2319
G01 X19.7005 Y67.2740
G01 X19.7805 Y67.3220
G01 X19.8564 Y67.3782
G01 X19.9282 Y67.4433
G01 X19.9925 Y67.5142
G01 X20.0495 Y67.5910
G01 X20.0987 Y67.6731
G01 X20.1396 Y67.7596
G01 X20.1718 Y67.8497
G01 X20.1951 Y67.9425
G01 X20.2091 Y68.0371
G01 X20.2138 Y68.1327
G01 X20.2091 Y68.2283
G01 X20.1951 Y68.3229
G01 X20.1718 Y68.4157
